; generated by PrusaSlicer 2.4.2+win64 on 2022-07-09 at 17:54:18 UTC


;
;
; 

; external perimeters extrusion width = 0.45mm
; perimeters extrusion width = 0.45mm
; infill extrusion width = 0.45mm
; solid infill extrusion width = 0.45mm
; top infill extrusion width = 0.40mm
; first layer extrusion width = 0.42mm

M73 P0 R14
M73 Q0 S14
M201 X1000 Y1000 Z200 E8000 ; sets maximum accelerations, mm/sec^2
M203 X200 Y200 Z12 E120 ; sets maximum feedrates, mm / sec
M204 P1250 R1250 T1500 ; sets acceleration (P, T) and retract acceleration (R), mm/sec^2
M205 X8.00 Y8.00 Z0.40 E4.50 ; sets the jerk limits, mm/sec
M205 S0 T0 ; sets the minimum extruding and travel feed rate, mm/sec
M107 ; disable fan
;TYPE:Custom
M862.3 P "MK3SMMU2S" ; printer model check
M862.1 P0.4 ; nozzle diameter check
M115 U3.11.0 ; tell printer latest fw version
G90 ; use absolute coordinates
M83 ; extruder relative mode
M104 S225 ; set extruder temp
M140 S60 ; set bed temp
M190 S60 ; wait for bed temp
M109 S225 ; wait for extruder temp
G28 W ; home all without mesh bed level

G4 S30 ; wait 30s for probe to reach temp -peter villano

G80 ; mesh bed leveling

; Send the filament type to the MMU2.0 unit.
; E stands for extruder number, F stands for filament type (0: default; 1:flex; 2: PVA)
M403 E0 F0
M403 E1 F0
M403 E2 F0
M403 E3 F0
M403 E4 F0


;go outside print area
G1 Y-3 F1000
G1 Z0.4 F1000
; select extruder
T0
; initial load
G1 X55 E29 F1073
G1 X5 E29 F1800
G1 X55 E8 F2000
G1 Z0.3 F1000
G92 E0
G1 X240 E25 F2200
G1 Y-2 F1000
M73 P1 R14
M73 Q1 S14
G1 X55 E25 F1400
G1 Z0.2 F1000
M73 P2 R13
M73 Q2 S13
G1 X5 E4 F1000
G92 E0


M221 S95
G92 E0

; Don't change E values below. Excessive value can damage the printer.

G21 ; set units to millimeters
G90 ; use absolute coordinates
M83 ; use relative distances for extrusion
M900 K0.05 ; Filament gcode LA 1.5
M900 K30 ; Filament gcode LA 1.0
M107 ; disable fan
;LAYER_CHANGE
;Z:0.2
;HEIGHT:0.2
;BEFORE_LAYER_CHANGE
G92 E0.0
;0.2


G1 E-.8 F2100 ; retract
G1 Z.4 F720 ; lift Z
;AFTER_LAYER_CHANGE
;0.2
G1 X115.335 Y97.324 F10800 ; move to first skirt point
G1 Z.2 F720 ; restore layer Z
G1 E.8 F2100 ;  ; unretract
M204 P800 ; adjust acceleration
;TYPE:Skirt/Brim
;WIDTH:0.42
G1 F1200
G1 X116.349 Y96.239 E.04657 ; skirt
G1 X118.79 Y94.755 E.08956 ; skirt
G1 X120.221 Y94.355 E.04657 ; skirt
G1 X129.78 Y94.355 E.29972 ; skirt
G1 X131.21 Y94.755 E.04657 ; skirt
G1 X133.651 Y96.239 E.08956 ; skirt
G1 X134.665 Y97.324 E.04657 ; skirt
G1 X135.884 Y99.835 E.08752 ; skirt
G1 X136.249 Y100.954 E.03692 ; skirt
G1 X136.518 Y102.226 E.04074 ; skirt
G1 X136.639 Y103.397 E.03692 ; skirt
G1 X136.639 Y104.603 E.03782 ; skirt
G1 X136.518 Y105.774 E.03692 ; skirt
G1 X136.249 Y107.045 E.04073 ; skirt
G1 X135.884 Y108.165 E.03692 ; skirt
M73 Q3 S13
G1 X135.424 Y109.212 E.03586 ; skirt
G1 X134.863 Y110.209 E.03586 ; skirt
G1 X134.207 Y111.145 E.03586 ; skirt
M73 P3 R13
G1 X133.462 Y112.013 E.03586 ; skirt
G1 X132.636 Y112.804 E.03586 ; skirt
G1 X131.736 Y113.51 E.03586 ; skirt
G1 X130.772 Y114.125 E.03586 ; skirt
G1 X129.751 Y114.642 E.03586 ; skirt
G1 X128.685 Y115.056 E.03586 ; skirt
G1 X127.584 Y115.364 E.03586 ; skirt
G1 X126.458 Y115.563 E.03586 ; skirt
G1 X125.317 Y115.65 E.03587 ; skirt
G1 X124.174 Y115.625 E.03586 ; skirt
G1 X123.038 Y115.488 E.03586 ; skirt
G1 X121.922 Y115.24 E.03586 ; skirt
G1 X120.835 Y114.884 E.03586 ; skirt
G1 X119.788 Y114.424 E.03586 ; skirt
G1 X118.791 Y113.863 E.03586 ; skirt
G1 X117.855 Y113.207 E.03586 ; skirt
G1 X116.987 Y112.462 E.03586 ; skirt
G1 X116.196 Y111.636 E.03586 ; skirt
G1 X115.49 Y110.736 E.03585 ; skirt
G1 X114.875 Y109.772 E.03586 ; skirt
G1 X114.358 Y108.751 E.03586 ; skirt
G1 X113.945 Y107.689 E.03574 ; skirt
G1 X113.637 Y106.588 E.03586 ; skirt
G1 X113.437 Y105.458 E.03598 ; skirt
G1 X113.35 Y104.317 E.03586 ; skirt
G1 X113.375 Y103.178 E.03574 ; skirt
G1 X113.512 Y102.038 E.03598 ; skirt
G1 X113.76 Y100.922 E.03586 ; skirt
G1 X114.116 Y99.835 E.03586 ; skirt
G1 X114.576 Y98.788 E.03586 ; skirt
G1 X115.307 Y97.377 E.04983 ; skirt
M204 P1000 ; adjust acceleration
G1 X115.642 Y97.551 F10800 ; move to first skirt point
M204 P800 ; adjust acceleration
G1 F1200
G1 X115.67 Y97.497 E.00188 ; skirt
G1 X116.545 Y96.561 E.0402 ; skirt
G1 X118.986 Y95.077 E.08956 ; skirt
G1 X120.221 Y94.732 E.0402 ; skirt
G1 X129.78 Y94.732 E.29972 ; skirt
G1 X131.014 Y95.077 E.0402 ; skirt
G1 X133.455 Y96.561 E.08956 ; skirt
G1 X134.33 Y97.497 E.0402 ; skirt
G1 X135.181 Y99.15 E.05828 ; skirt
G1 X135.597 Y100.144 E.03378 ; skirt
G1 X135.931 Y101.229 E.03561 ; skirt
G1 X136.15 Y102.314 E.0347 ; skirt
G1 X136.265 Y103.478 E.03666 ; skirt
G1 X136.26 Y104.614 E.03561 ; skirt
G1 X136.146 Y105.715 E.0347 ; skirt
G1 X135.885 Y106.949 E.03957 ; skirt
G1 X135.533 Y108.029 E.03562 ; skirt
G1 X135.046 Y109.124 E.03757 ; skirt
G1 X134.511 Y110.06 E.03378 ; skirt
G1 X133.871 Y110.963 E.0347 ; skirt
G1 X133.146 Y111.799 E.0347 ; skirt
G1 X132.342 Y112.56 E.0347 ; skirt
G1 X131.468 Y113.238 E.0347 ; skirt
G1 X130.531 Y113.828 E.0347 ; skirt
G1 X129.541 Y114.322 E.0347 ; skirt
G1 X128.508 Y114.718 E.0347 ; skirt
G1 X127.44 Y115.01 E.0347 ; skirt
G1 X126.35 Y115.196 E.03469 ; skirt
G1 X125.245 Y115.274 E.0347 ; skirt
G1 X124.139 Y115.244 E.0347 ; skirt
G1 X123.041 Y115.106 E.0347 ; skirt
G1 X121.962 Y114.86 E.0347 ; skirt
G1 X120.912 Y114.51 E.0347 ; skirt
G1 X119.876 Y114.046 E.03562 ; skirt
G1 X118.94 Y113.511 E.03379 ; skirt
G1 X118.037 Y112.871 E.0347 ; skirt
G1 X117.201 Y112.146 E.0347 ; skirt
G1 X116.44 Y111.342 E.0347 ; skirt
G1 X115.762 Y110.468 E.03469 ; skirt
G1 X115.173 Y109.531 E.0347 ; skirt
G1 X114.678 Y108.541 E.0347 ; skirt
G1 X114.283 Y107.509 E.03464 ; skirt
G1 X113.99 Y106.442 E.0347 ; skirt
G1 X113.804 Y105.349 E.03475 ; skirt
G1 X113.726 Y104.245 E.0347 ; skirt
G1 X113.756 Y103.141 E.03464 ; skirt
G1 X113.894 Y102.041 E.03475 ; skirt
G1 X114.14 Y100.962 E.0347 ; skirt
G1 X114.49 Y99.912 E.0347 ; skirt
G1 X114.954 Y98.876 E.03562 ; skirt
G1 X115.614 Y97.604 E.04492 ; skirt
M204 P1000 ; adjust acceleration
;WIPE_START
G1 F8640
G1 X115.67 Y97.497 E-.02771 ; wipe and retract
G1 X116.545 Y96.561 E-.29603 ; wipe and retract
G1 X118.16 Y95.58 E-.43627 ; wipe and retract
;WIPE_END
G1 E-.04 F2100 ; retract
G1 Z.6 F720 ; lift Z
G1 X117.743 Y99.42 F10800 ; move to first brim point
G1 Z.2 F720 ; restore layer Z
G1 E.8 F2100 ;  ; unretract
M204 P800 ; adjust acceleration
G1 F1200
G1 X118.421 Y98.624 E.03279 ; brim
G1 X119.478 Y97.896 E.04022 ; brim
G1 X120.941 Y97.438 E.04808 ; brim
G1 X129.046 Y97.433 E.25413 ; brim
G1 X130.522 Y97.901 E.04855 ; brim
G1 X131.73 Y98.762 E.04651 ; brim
G1 X132.451 Y99.673 E.03644 ; brim
G1 X132.896 Y100.56 E.03109 ; brim
G1 X133.241 Y101.496 E.03128 ; brim
G1 X133.452 Y102.343 E.02738 ; brim
G1 X133.573 Y103.172 E.02628 ; brim
G1 X133.613 Y103.97 E.02503 ; brim
G1 X133.58 Y104.755 E.02464 ; brim
G1 X133.465 Y105.591 E.02648 ; brim
G1 X133.267 Y106.417 E.02662 ; brim
G1 X132.98 Y107.241 E.02735 ; brim
G1 X132.621 Y108.013 E.02669 ; brim
G1 X132.179 Y108.76 E.02723 ; brim
G1 X131.674 Y109.445 E.0267 ; brim
G1 X131.105 Y110.076 E.02662 ; brim
G1 X130.48 Y110.646 E.02653 ; brim
G1 X129.801 Y111.152 E.02655 ; brim
G1 X129.077 Y111.587 E.02647 ; brim
G1 X128.313 Y111.951 E.02654 ; brim
G1 X127.519 Y112.237 E.02646 ; brim
G1 X126.7 Y112.444 E.0265 ; brim
G1 X125.862 Y112.57 E.02656 ; brim
G1 X125.017 Y112.613 E.02652 ; brim
G1 X124.155 Y112.572 E.02708 ; brim
G1 X123.318 Y112.448 E.02652 ; brim
G1 X122.498 Y112.242 E.0265 ; brim
G1 X121.702 Y111.957 E.0265 ; brim
G1 X120.938 Y111.595 E.02651 ; brim
G1 X120.212 Y111.16 E.02655 ; brim
G1 X119.535 Y110.658 E.02641 ; brim
G1 X118.913 Y110.094 E.02633 ; brim
G1 X118.358 Y109.483 E.02588 ; brim
G1 X117.849 Y108.802 E.02666 ; brim
G1 X117.382 Y108.02 E.02855 ; brim
G1 X116.998 Y107.189 E.02871 ; brim
G1 X116.597 Y105.889 E.04267 ; brim
G1 X116.415 Y104.701 E.03769 ; brim
G1 X116.392 Y103.699 E.03143 ; brim
G1 X116.489 Y102.677 E.03217 ; brim
G1 X116.76 Y101.491 E.03816 ; brim
G1 X117.125 Y100.514 E.03271 ; brim
G1 X117.61 Y99.575 E.03312 ; brim
G1 X117.704 Y99.466 E.00451 ; brim
M204 P1000 ; adjust acceleration
M73 Q4 S13
G1 X117.986 Y99.709 F10800 ; move to first brim point
M204 P800 ; adjust acceleration
G1 F1200
G1 X118.691 Y98.89 E.03387 ; brim
G1 X119.666 Y98.224 E.03702 ; brim
G1 X121.025 Y97.806 E.04457 ; brim
G1 X128.962 Y97.801 E.24887 ; brim
M73 P4 R13
G1 X130.33 Y98.227 E.04491 ; brim
G1 X131.452 Y99.019 E.04308 ; brim
G1 X132.123 Y99.86 E.03375 ; brim
G1 X132.554 Y100.719 E.03013 ; brim
G1 X132.878 Y101.597 E.02934 ; brim
G1 X133.081 Y102.407 E.02618 ; brim
G1 X133.197 Y103.201 E.02515 ; brim
G1 X133.236 Y103.963 E.02392 ; brim
G1 X133.204 Y104.73 E.02408 ; brim
G1 X133.093 Y105.53 E.02533 ; brim
G1 X132.903 Y106.319 E.02545 ; brim
G1 X132.628 Y107.107 E.02617 ; brim
G1 X132.284 Y107.845 E.02551 ; brim
G1 X131.859 Y108.559 E.02605 ; brim
G1 X131.376 Y109.214 E.02552 ; brim
G1 X130.832 Y109.816 E.02545 ; brim
G1 X130.233 Y110.36 E.02536 ; brim
G1 X129.583 Y110.843 E.02539 ; brim
G1 X128.891 Y111.259 E.02531 ; brim
G1 X128.16 Y111.606 E.02538 ; brim
G1 X127.401 Y111.879 E.0253 ; brim
G1 X126.617 Y112.076 E.02534 ; brim
G1 X125.816 Y112.196 E.0254 ; brim
G1 X125.008 Y112.236 E.02536 ; brim
G1 X124.183 Y112.196 E.0259 ; brim
G1 X123.383 Y112.076 E.02535 ; brim
G1 X122.599 Y111.879 E.02534 ; brim
G1 X121.839 Y111.605 E.02534 ; brim
G1 X121.108 Y111.259 E.02535 ; brim
G1 X120.414 Y110.841 E.02539 ; brim
G1 X119.768 Y110.361 E.02526 ; brim
G1 X119.173 Y109.821 E.02518 ; brim
G1 X118.643 Y109.237 E.02473 ; brim
G1 X118.158 Y108.585 E.02549 ; brim
G1 X117.712 Y107.836 E.02733 ; brim
G1 X117.346 Y107.042 E.02739 ; brim
G1 X116.967 Y105.817 E.0402 ; brim
G1 X116.791 Y104.679 E.03611 ; brim
G1 X116.769 Y103.723 E.03 ; brim
G1 X116.86 Y102.748 E.03068 ; brim
G1 X117.118 Y101.611 E.03658 ; brim
G1 X117.475 Y100.656 E.03194 ; brim
G1 X117.947 Y99.754 E.03194 ; brim
M204 P1000 ; adjust acceleration
G1 X118.259 Y99.963 F10800 ; move to first brim point
M204 P800 ; adjust acceleration
G1 F1200
G1 X118.959 Y99.156 E.03348 ; brim
G1 X119.852 Y98.553 E.0338 ; brim
G1 X121.106 Y98.175 E.04107 ; brim
G1 X128.879 Y98.17 E.24372 ; brim
G1 X130.139 Y98.553 E.04128 ; brim
G1 X131.176 Y99.277 E.03963 ; brim
G1 X131.795 Y100.048 E.03101 ; brim
G1 X132.213 Y100.879 E.02916 ; brim
G1 X132.515 Y101.699 E.0274 ; brim
G1 X132.709 Y102.472 E.02499 ; brim
G1 X132.821 Y103.229 E.024 ; brim
G1 X132.859 Y103.973 E.02335 ; brim
G1 X132.828 Y104.704 E.02296 ; brim
G1 X132.721 Y105.469 E.02419 ; brim
G1 X132.539 Y106.221 E.02428 ; brim
G1 X132.275 Y106.973 E.02499 ; brim
G1 X131.946 Y107.676 E.02433 ; brim
G1 X131.54 Y108.358 E.02487 ; brim
G1 X131.078 Y108.982 E.02435 ; brim
G1 X130.559 Y109.556 E.02429 ; brim
G1 X129.987 Y110.074 E.0242 ; brim
G1 X129.366 Y110.535 E.02423 ; brim
G1 X128.706 Y110.931 E.02415 ; brim
G1 X128.007 Y111.261 E.02422 ; brim
G1 X127.283 Y111.52 E.02414 ; brim
G1 X126.534 Y111.708 E.02418 ; brim
G1 X125.77 Y111.821 E.02424 ; brim
G1 X124.999 Y111.859 E.02419 ; brim
G1 X124.211 Y111.819 E.02473 ; brim
G1 X123.449 Y111.705 E.02418 ; brim
G1 X122.701 Y111.515 E.02418 ; brim
G1 X121.975 Y111.254 E.02418 ; brim
G1 X121.279 Y110.922 E.02419 ; brim
G1 X120.617 Y110.523 E.02423 ; brim
G1 X120.001 Y110.064 E.0241 ; brim
G1 X119.434 Y109.548 E.02403 ; brim
G1 X118.929 Y108.991 E.02359 ; brim
G1 X118.466 Y108.368 E.02433 ; brim
G1 X118.041 Y107.652 E.02611 ; brim
G1 X117.694 Y106.896 E.02607 ; brim
G1 X117.338 Y105.746 E.03776 ; brim
G1 X117.168 Y104.657 E.03454 ; brim
G1 X117.145 Y103.746 E.02859 ; brim
G1 X117.23 Y102.819 E.02918 ; brim
G1 X117.476 Y101.731 E.03499 ; brim
G1 X117.824 Y100.799 E.03117 ; brim
G1 X118.231 Y100.016 E.02769 ; brim
M204 P1000 ; adjust acceleration
G1 X118.565 Y100.19 F10800 ; move to first brim point
M204 P800 ; adjust acceleration
G1 F1200
G1 X119.225 Y99.424 E.03171 ; brim
G1 X120.037 Y98.883 E.03058 ; brim
G1 X121.187 Y98.545 E.03758 ; brim
G1 X128.799 Y98.539 E.23868 ; brim
G1 X129.951 Y98.881 E.03767 ; brim
G1 X130.9 Y99.536 E.03617 ; brim
G1 X131.468 Y100.236 E.02824 ; brim
G1 X131.871 Y101.039 E.02818 ; brim
G1 X132.152 Y101.801 E.02548 ; brim
G1 X132.338 Y102.537 E.0238 ; brim
G1 X132.445 Y103.258 E.02285 ; brim
G1 X132.482 Y103.966 E.02222 ; brim
G1 X132.451 Y104.679 E.02238 ; brim
G1 X132.349 Y105.407 E.02304 ; brim
G1 X132.175 Y106.123 E.02311 ; brim
G1 X131.922 Y106.839 E.02381 ; brim
G1 X131.609 Y107.508 E.02315 ; brim
G1 X131.222 Y108.156 E.02369 ; brim
G1 X130.781 Y108.749 E.02317 ; brim
G1 X130.286 Y109.296 E.02312 ; brim
G1 X129.741 Y109.788 E.02304 ; brim
G1 X129.149 Y110.226 E.02307 ; brim
G1 X128.52 Y110.602 E.02299 ; brim
G1 X127.855 Y110.916 E.02306 ; brim
G1 X127.165 Y111.162 E.02298 ; brim
G1 X126.452 Y111.34 E.02302 ; brim
G1 X125.724 Y111.447 E.02307 ; brim
G1 X124.991 Y111.482 E.02303 ; brim
G1 X124.24 Y111.443 E.02355 ; brim
G1 X123.515 Y111.333 E.02301 ; brim
G1 X122.803 Y111.152 E.02302 ; brim
G1 X122.113 Y110.902 E.02302 ; brim
G1 X121.45 Y110.586 E.02303 ; brim
G1 X120.82 Y110.206 E.02307 ; brim
G1 X120.234 Y109.768 E.02295 ; brim
G1 X119.707 Y109.288 E.02234 ; brim
G1 X119.226 Y108.758 E.02243 ; brim
G1 X118.775 Y108.151 E.02373 ; brim
G1 X118.379 Y107.485 E.02427 ; brim
G1 X118.041 Y106.75 E.02538 ; brim
G1 X117.708 Y105.673 E.03533 ; brim
G1 X117.545 Y104.635 E.03297 ; brim
G1 X117.522 Y103.769 E.02717 ; brim
G1 X117.601 Y102.889 E.02769 ; brim
G1 X117.833 Y101.85 E.03338 ; brim
G1 X118.173 Y100.942 E.03039 ; brim
G1 X118.538 Y100.243 E.02472 ; brim
M204 P1000 ; adjust acceleration
G1 X118.871 Y100.418 F10800 ; move to first brim point
M204 P800 ; adjust acceleration
G1 F1200
G1 X118.906 Y100.353 E.0023 ; brim
G1 X119.49 Y99.693 E.02764 ; brim
G1 X120.219 Y99.215 E.02734 ; brim
G1 X121.265 Y98.914 E.03412 ; brim
G1 X128.721 Y98.909 E.23378 ; brim
G1 X129.765 Y99.211 E.03407 ; brim
G1 X130.627 Y99.797 E.03269 ; brim
G1 X131.14 Y100.424 E.02541 ; brim
G1 X131.529 Y101.198 E.02718 ; brim
G1 X131.789 Y101.903 E.02355 ; brim
G1 X131.97 Y102.62 E.02319 ; brim
G1 X132.069 Y103.287 E.02113 ; brim
G1 X132.105 Y103.959 E.02109 ; brim
G1 X132.075 Y104.653 E.0218 ; brim
G1 X131.977 Y105.344 E.02188 ; brim
G1 X131.811 Y106.024 E.02195 ; brim
G1 X131.57 Y106.704 E.02262 ; brim
G1 X131.272 Y107.338 E.02197 ; brim
G1 X130.913 Y107.939 E.02194 ; brim
G1 X130.495 Y108.503 E.02201 ; brim
G1 X130.025 Y109.023 E.02196 ; brim
G1 X129.509 Y109.491 E.02187 ; brim
G1 X128.947 Y109.908 E.02191 ; brim
G1 X128.35 Y110.265 E.02183 ; brim
G1 X127.719 Y110.564 E.0219 ; brim
G1 X127.064 Y110.799 E.02182 ; brim
M73 Q5 S13
G1 X126.388 Y110.968 E.02186 ; brim
G1 X125.696 Y111.071 E.02191 ; brim
G1 X125 Y111.105 E.02186 ; brim
G1 X124.287 Y111.069 E.02238 ; brim
G1 X123.598 Y110.965 E.02185 ; brim
M73 P5 R13
G1 X122.922 Y110.794 E.02186 ; brim
G1 X122.266 Y110.558 E.02186 ; brim
G1 X121.636 Y110.258 E.02187 ; brim
G1 X121.038 Y109.898 E.02191 ; brim
G1 X120.48 Y109.482 E.0218 ; brim
G1 X119.98 Y109.028 E.02121 ; brim
G1 X119.523 Y108.526 E.02126 ; brim
G1 X119.084 Y107.934 E.02312 ; brim
G1 X118.709 Y107.302 E.02304 ; brim
G1 X118.389 Y106.604 E.02407 ; brim
G1 X118.078 Y105.601 E.03293 ; brim
G1 X117.921 Y104.612 E.0314 ; brim
G1 X117.898 Y103.791 E.02576 ; brim
G1 X117.972 Y102.958 E.0262 ; brim
G1 X118.191 Y101.97 E.03175 ; brim
G1 X118.522 Y101.085 E.0296 ; brim
G1 X118.844 Y100.471 E.02173 ; brim
M204 P1000 ; adjust acceleration
G1 X119.177 Y100.647 F10800 ; move to first brim point
M204 P800 ; adjust acceleration
G1 F1200
G1 X119.228 Y100.55 E.00343 ; brim
G1 X119.753 Y99.965 E.02466 ; brim
G1 X120.398 Y99.547 E.02409 ; brim
G1 X121.341 Y99.284 E.03068 ; brim
G1 X128.642 Y99.279 E.22892 ; brim
G1 X129.631 Y99.564 E.03229 ; brim
G1 X130.352 Y100.057 E.02737 ; brim
G1 X130.835 Y100.646 E.02388 ; brim
G1 X131.186 Y101.356 E.02485 ; brim
G1 X131.431 Y102.023 E.02229 ; brim
G1 X131.602 Y102.703 E.02198 ; brim
G1 X131.693 Y103.316 E.01944 ; brim
G1 X131.728 Y103.952 E.01996 ; brim
