; generated by PrusaSlicer 2.5.0-rc2+win64 on 2022-09-03 at 00:47:27 UTC


;
;
; 

; external perimeters extrusion width = 0.45mm
; perimeters extrusion width = 0.45mm
; infill extrusion width = 0.45mm
; solid infill extrusion width = 0.45mm
; top infill extrusion width = 0.40mm
; first layer extrusion width = 0.42mm

; external perimeters extrusion width = 0.45mm
; perimeters extrusion width = 0.45mm
; infill extrusion width = 0.45mm
; solid infill extrusion width = 0.45mm
; top infill extrusion width = 0.40mm
; first layer extrusion width = 0.42mm

M73 P0 R28
M73 Q0 S29
M201 X1000 Y1000 Z200 E8000 ; sets maximum accelerations, mm/sec^2
M203 X200 Y200 Z12 E120 ; sets maximum feedrates, mm / sec
M204 P1250 R1250 T1500 ; sets acceleration (P, T) and retract acceleration (R), mm/sec^2
M205 X8.00 Y8.00 Z0.40 E4.50 ; sets the jerk limits, mm/sec
M205 S0 T0 ; sets the minimum extruding and travel feed rate, mm/sec
M107 ; disable fan
;TYPE:Custom
M862.3 P "MK3SMMU2S" ; printer model check
M862.1 P0.4 ; nozzle diameter check
M115 U3.11.0 ; tell printer latest fw version
G90 ; use absolute coordinates
M83 ; extruder relative mode
M104 S225 ; set extruder temp
M140 S60 ; set bed temp
M190 S60 ; wait for bed temp
M109 S225 ; wait for extruder temp
G28 W ; home all without mesh bed level

G4 S30 ; wait 30s for probe to reach temp -peter villano

G80 ; mesh bed leveling

; Send the filament type to the MMU2.0 unit.
; E stands for extruder number, F stands for filament type (0: default; 1:flex; 2: PVA)
M403 E0 F0
M403 E1 F0
M403 E2 F0
M403 E3 F0
M403 E4 F0


;go outside print area
G1 Y-3 F1000
G1 Z0.4 F1000
; select extruder
T0
; initial load
G1 X55 E29 F1073
G1 X5 E29 F1800
G1 X55 E8 F2000
G1 Z0.3 F1000
G92 E0
G1 X240 E25 F2200
G1 Y-2 F1000
M73 P0 R27
G1 X55 E25 F1400
G1 Z0.2 F1000
M73 P1 R27
M73 Q1 S29
G1 X5 E4 F1000
G92 E0


M221 S95
G92 E0

; Don't change E values below. Excessive value can damage the printer.
M907 E430 ; set extruder motor current
G21 ; set units to millimeters
G90 ; use absolute coordinates
M83 ; use relative distances for extrusion
T0 ; change extruder
M900 K0.05 ; Filament gcode LA 1.5
M900 K30 ; Filament gcode LA 1.0
G1 Z.2 F720 ; Move to the first layer height
M107 ; disable fan
;LAYER_CHANGE
;Z:0.2
;HEIGHT:0.2
;BEFORE_LAYER_CHANGE
G92 E0.0
;0.2


G1 E-.8 F2100 ; retract
G1 Z.6 F720 ; lift Z
G1 Z.2 ; move to next layer (0)
;AFTER_LAYER_CHANGE
;0.2
G1 Z.6 ; lift Z
G1 X11.536 Y23.662 F10800 ; move to first skirt point
G1 Z.2 F720 ; restore layer Z
G1 E.8 F2100 ;  ; unretract
M204 P800 ; adjust acceleration
;TYPE:Skirt/Brim
;WIDTH:0.42
;HEIGHT:0.2
G1 F1200
G1 X12.29 Y23.305 E.02614 ; skirt
G1 X59.711 Y5.732 E1.58569 ; skirt
G1 X60.92 Y5.333 E.0399 ; skirt
G1 X62.013 Y5.098 E.03504 ; skirt
G1 X63.346 Y5.012 E.04189 ; skirt
G1 X144.028 Y5.012 E2.52974 ; skirt
G1 X145.196 Y5.138 E.03681 ; skirt
M73 Q1 S28
G1 X224.011 Y23.187 E2.53516 ; skirt
G1 X225.404 Y24.108 E.05239 ; skirt
M73 P2 R27
G1 X240.513 Y44.939 E.80685 ; skirt
G1 X241.078 Y45.91 E.03522 ; skirt
M73 Q2 S28
G1 X241.471 Y47.106 E.03947 ; skirt
G1 X241.625 Y48.567 E.04606 ; skirt
G1 X241.601 Y187.736 E4.36354 ; skirt
G1 X241.332 Y189.571 E.05817 ; skirt
G1 X240.821 Y191.114 E.05097 ; skirt
G1 X240.064 Y192.59 E.05201 ; skirt
G1 X239.038 Y194.047 E.05586 ; skirt
G1 X237.599 Y195.623 E.06691 ; skirt
G1 X236.247 Y196.796 E.05613 ; skirt
G1 X234.501 Y197.991 E.06635 ; skirt
G1 X232.587 Y198.991 E.0677 ; skirt
G1 X230.531 Y199.74 E.06861 ; skirt
G1 X229.601 Y199.95 E.02988 ; skirt
G1 X228.612 Y200.052 E.03119 ; skirt
G1 X101.286 Y204.985 E3.9952 ; skirt
G1 X99.916 Y204.778 E.04346 ; skirt
G1 X57.5 Y192.756 E1.38232 ; skirt
G1 X56.569 Y192.306 E.0324 ; skirt
M73 P3 R27
G1 X55.66 Y191.652 E.0351 ; skirt
G1 X43.548 Y181.493 E.49567 ; skirt
G1 X42.968 Y180.891 E.02622 ; skirt
M73 Q3 S28
G1 X42.443 Y180.161 E.02819 ; skirt
G1 X9.445 Y114.252 E2.31107 ; skirt
G1 X8.973 Y113.069 E.03993 ; skirt
G1 X8.626 Y111.924 E.03752 ; skirt
G1 X8.439 Y110.938 E.03146 ; skirt
G1 X8.376 Y109.958 E.0308 ; skirt
G1 X8.377 Y28.92 E2.54087 ; skirt
G1 X8.583 Y27.598 E.04196 ; skirt
G1 X9.089 Y26.341 E.04249 ; skirt
G1 X9.816 Y25.177 E.04301 ; skirt
G1 X10.788 Y24.173 E.04381 ; skirt
G1 X11.487 Y23.696 E.02654 ; skirt
M204 P1000 ; adjust acceleration
; printing object forevermask v2.stl id:1 copy 0
;WIPE_START
G1 F8640
G1 X12.29 Y23.305 E-.20621 ; wipe and retract
G1 X14.539 Y22.472 E-.55379 ; wipe and retract
;WIPE_END
G1 E-.04 F2100 ; retract
G1 Z.6 F720 ; lift Z
G1 X170.933 Y53.074 F10800 ; move to first perimeter point
G1 X189.528 Y59.963 ; move to first perimeter point
G1 X189.723 Y60.003 ; move to first perimeter point
G1 X210.655 Y61.379 ; move to first perimeter point
G1 X210.672 Y61.554 ; move to first perimeter point
G1 X210.692 Y61.721 ; move to first perimeter point
G1 X210.716 Y61.88 ; move to first perimeter point
G1 X210.744 Y62.03 ; move to first perimeter point
G1 X210.775 Y62.169 ; move to first perimeter point
G1 X210.81 Y62.296 ; move to first perimeter point
G1 X210.85 Y62.411 ; move to first perimeter point
G1 X210.899 Y62.523 ; move to first perimeter point
G1 X210.951 Y62.628 ; move to first perimeter point
G1 X211.007 Y62.728 ; move to first perimeter point
G1 X211.068 Y62.822 ; move to first perimeter point
G1 X211.131 Y62.91 ; move to first perimeter point
G1 X211.199 Y62.992 ; move to first perimeter point
G1 X211.27 Y63.068 ; move to first perimeter point
G1 X211.345 Y63.138 ; move to first perimeter point
G1 X211.423 Y63.201 ; move to first perimeter point
G1 X211.504 Y63.257 ; move to first perimeter point
G1 X211.589 Y63.306 ; move to first perimeter point
G1 X211.677 Y63.348 ; move to first perimeter point
G1 X211.767 Y63.381 ; move to first perimeter point
G1 X211.859 Y63.407 ; move to first perimeter point
G1 X211.954 Y63.423 ; move to first perimeter point
G1 X212.049 Y63.431 ; move to first perimeter point
G1 X212.146 Y63.43 ; move to first perimeter point
G1 X221.775 Y63.042 ; move to first perimeter point
G1 Z.2 F720 ; restore layer Z
G1 E.8 F2100 ;  ; unretract
M204 P800 ; adjust acceleration
;TYPE:Perimeter
;WIDTH:0.516335
G1 F1200
G1 X221.622 Y63.1 E.00646 ; perimeter
G1 X221.405 Y63.235 E.01007 ; perimeter
;WIDTH:0.559914
G1 X221.254 Y63.362 E.00848 ; perimeter
;WIDTH:0.603493
G1 X221.103 Y63.489 E.0092 ; perimeter
;WIDTH:0.647072
G1 X220.952 Y63.616 E.00991 ; perimeter
G1 X221.014 Y63.418 E.01043 ; perimeter
;WIDTH:0.603493
G1 X221.076 Y63.22 E.00968 ; perimeter
;WIDTH:0.559914
G1 X221.139 Y63.022 E.00893 ; perimeter
;WIDTH:0.516335
G1 X221.71 Y61.907 E.04933 ; perimeter
G1 X221.636 Y62.522 E.02438 ; perimeter
G1 X221.675 Y62.827 E.01214 ; perimeter
G1 X221.75 Y62.987 E.00694 ; perimeter
M204 P1000 ; adjust acceleration
;WIPE_START
G1 F8640
G1 X221.622 Y63.1 E-.03938 ; wipe and retract
G1 X221.405 Y63.235 E-.05908 ; wipe and retract
G1 X221.254 Y63.362 E-.04556 ; wipe and retract
G1 X221.103 Y63.489 E-.04556 ; wipe and retract
G1 X220.952 Y63.616 E-.04556 ; wipe and retract
G1 X221.014 Y63.418 E-.04794 ; wipe and retract
G1 X221.076 Y63.22 E-.04794 ; wipe and retract
G1 X221.139 Y63.022 E-.04794 ; wipe and retract
G1 X221.71 Y61.907 E-.28933 ; wipe and retract
G1 X221.663 Y62.301 E-.09169 ; wipe and retract
;WIPE_END
G1 E-.04 F2100 ; retract
G1 Z.6 F720 ; lift Z
G1 X221.895 Y62.256 F10800 ; move to first perimeter point
G1 X222.032 Y63.355 ; move to first perimeter point
G1 X223.199 Y63.072 ; move to first perimeter point
G1 X223.247 Y63.062 ; move to first perimeter point
G1 X223.294 Y63.053 ; move to first perimeter point
G1 X223.341 Y63.046 ; move to first perimeter point
G1 X223.39 Y63.041 ; move to first perimeter point
G1 X223.888 Y63.072 ; move to first perimeter point
G1 X223.959 Y63.624 ; move to first perimeter point
G1 X223.91 Y63.768 ; move to first perimeter point
G1 X223.839 Y63.967 ; move to first perimeter point
G1 X223.745 Y64.227 ; move to first perimeter point
G1 X223.629 Y64.543 ; move to first perimeter point
G1 X223.561 Y64.728 ; move to first perimeter point
G1 X223.509 Y64.869 ; move to first perimeter point
G1 X223.716 Y64.945 ; move to first perimeter point
G1 Z.2 F720 ; restore layer Z
G1 E.8 F2100 ;  ; unretract
M204 P800 ; adjust acceleration
;WIDTH:0.419999
G1 F1200
G1 X223.961 Y64.253 E.02302 ; perimeter
G1 X224.144 Y63.512 E.02393 ; perimeter
G1 X224.122 Y63.127 E.01211 ; perimeter
G1 X223.953 Y62.918 E.00842 ; perimeter
G1 X224.428 Y62.747 E.01585 ; perimeter
G1 X224.645 Y62.488 E.01058 ; perimeter
G1 X226.707 Y57.529 E.16841 ; perimeter
G1 X227.388 Y55.971 E.05332 ; perimeter
G1 X228.06 Y54.502 E.05065 ; perimeter
G1 X228.714 Y53.133 E.04757 ; perimeter
G1 X229.658 Y51.283 E.0651 ; perimeter
G1 X230.538 Y49.71 E.05653 ; perimeter
G1 X231.077 Y48.836 E.03219 ; perimeter
G1 X231.569 Y48.115 E.02738 ; perimeter
G1 X232.161 Y47.379 E.02961 ; perimeter
G1 X232.808 Y46.729 E.02876 ; perimeter
G1 X233.464 Y46.197 E.02648 ; perimeter
G1 X233.948 Y45.89 E.01798 ; perimeter
G1 X234.435 Y45.671 E.01674 ; perimeter
G1 X234.953 Y45.526 E.01687 ; perimeter
G1 X235.334 Y45.484 E.01201 ; perimeter
G1 X235.819 Y45.506 E.01522 ; perimeter
;WIDTH:0.465207
G1 X236.284 Y45.656 E.01718 ; perimeter
;WIDTH:0.508727
G1 X236.504 Y45.781 E.00978 ; perimeter
;WIDTH:0.552246
G1 X237.222 Y46.18 E.0348 ; perimeter
;WIDTH:0.517932
G1 X237.62 Y46.507 E.02034 ; perimeter
;WIDTH:0.531612
G1 X237.97 Y46.945 E.02276 ; perimeter
;WIDTH:0.550178
G1 X238.179 Y47.347 E.01913 ; perimeter
;WIDTH:0.551688
G1 X238.319 Y47.838 E.02158 ; perimeter
G1 X238.398 Y48.603 E.03256 ; perimeter
;WIDTH:0.540745
G1 X238.352 Y49.418 E.03379 ; perimeter
;WIDTH:0.523446
G1 X238.271 Y49.925 E.02048 ; perimeter
G1 X238.15 Y50.438 E.02106 ; perimeter
;WIDTH:0.523278
G1 X237.986 Y50.961 E.02191 ; perimeter
;WIDTH:0.519174
G1 X237.776 Y51.506 E.02314 ; perimeter
;WIDTH:0.507667
G1 X237.475 Y52.164 E.02797 ; perimeter
;WIDTH:0.480766
G1 X237.22 Y52.656 E.02015 ; perimeter
;WIDTH:0.462419
G1 X236.686 Y53.59 E.03754 ; perimeter
;WIDTH:0.430105
G1 X236.366 Y54.106 E.01953 ; perimeter
;WIDTH:0.416846
G1 X236.08 Y54.526 E.0158 ; perimeter
;WIDTH:0.404444
G1 X235.743 Y54.985 E.01712 ; perimeter
;WIDTH:0.377747
G1 X235.326 Y55.526 E.01902 ; perimeter
;WIDTH:0.404763
G1 X235.264 Y55.561 E.00214 ; perimeter
;WIDTH:0.450546
G1 X235.203 Y55.597 E.00241 ; perimeter
;WIDTH:0.496328
G1 X235.141 Y55.632 E.00268 ; perimeter
;WIDTH:0.542111
G1 X235.08 Y55.668 E.00295 ; perimeter
;WIDTH:0.587894
G1 X235.018 Y55.703 E.00322 ; perimeter
;WIDTH:0.633676
G1 X234.957 Y55.739 E.00349 ; perimeter
G1 X234.977 Y55.671 E.00347 ; perimeter
;WIDTH:0.587894
G1 X234.997 Y55.603 E.0032 ; perimeter
;WIDTH:0.542111
G1 X235.016 Y55.536 E.00293 ; perimeter
;WIDTH:0.496328
G1 X235.036 Y55.468 E.00266 ; perimeter
;WIDTH:0.450546
G1 X235.056 Y55.4 E.00239 ; perimeter
;WIDTH:0.404763
G1 X235.076 Y55.332 E.00212 ; perimeter
;WIDTH:0.379092
G1 X235.491 Y54.762 E.01973 ; perimeter
;WIDTH:0.404444
G1 X235.784 Y54.32 E.01593 ; perimeter
;WIDTH:0.417386
G1 X236.088 Y53.846 E.01752 ; perimeter
;WIDTH:0.450601
G1 X236.565 Y53.003 E.03283 ; perimeter
;WIDTH:0.463606
G1 X236.863 Y52.433 E.02252 ; perimeter
;WIDTH:0.481831
G1 X237.091 Y51.95 E.01946 ; perimeter
;WIDTH:0.507667
G1 X237.35 Y51.321 E.02631 ; perimeter
;WIDTH:0.519174
G1 X237.537 Y50.805 E.02173 ; perimeter
;WIDTH:0.523446
G1 X237.802 Y49.824 E.04059 ; perimeter
;WIDTH:0.523843
G1 X237.898 Y49.179 E.02608 ; perimeter
;WIDTH:0.532628
G1 X237.882 Y48.283 E.03652 ; perimeter
;WIDTH:0.544957
G1 X237.782 Y47.761 E.02219 ; perimeter
G1 X237.606 Y47.289 E.02102 ; perimeter
;WIDTH:0.53793
G1 X237.291 Y46.837 E.02269 ; perimeter
;WIDTH:0.513212
G1 X236.848 Y46.501 E.02172 ; perimeter
;WIDTH:0.539715
G1 X236.602 Y46.408 E.01088 ; perimeter
;WIDTH:0.566217
G1 X236.356 Y46.315 E.01146 ; perimeter
G1 X236.193 Y46.337 E.00715 ; perimeter
;WIDTH:0.517478
G1 X236.03 Y46.358 E.00648 ; perimeter
;WIDTH:0.468739
G1 X235.867 Y46.38 E.00582 ; perimeter
;WIDTH:0.419999
G1 X235.359 Y46.523 E.01654 ; perimeter
G1 X234.909 Y46.781 E.01627 ; perimeter
G1 X234.389 Y47.244 E.02185 ; perimeter
G1 X233.951 Y47.761 E.02123 ; perimeter
G1 X233.494 Y48.389 E.02434 ; perimeter
G1 X233.071 Y49.08 E.02543 ; perimeter
G1 X232.67 Y49.807 E.02601 ; perimeter
G1 X232.342 Y50.461 E.02295 ; perimeter
G1 X229.984 Y55.729 E.18096 ; perimeter
G1 X228.515 Y59.164 E.11714 ; perimeter
G1 X228.353 Y59.668 E.01659 ; perimeter
M73 P4 R27
G1 X228.335 Y59.936 E.00842 ; perimeter
G1 X228.856 Y60.304 E.01998 ; perimeter
G1 X227.91 Y60.798 E.03345 ; perimeter
G1 X227.653 Y61.076 E.01189 ; perimeter
G1 X223.493 Y70.764 E.33056 ; perimeter
G1 X222.553 Y73.002 E.07611 ; perimeter
G1 X222.337 Y73.601 E.01996 ; perimeter
G1 X222.338 Y73.988 E.01215 ; perimeter
G1 X222.4 Y74.108 E.00423 ; perimeter
G1 X222.63 Y74.305 E.00948 ; perimeter
G1 X222.918 Y74.431 E.00984 ; perimeter
G1 X223.515 Y74.54 E.01903 ; perimeter
G1 X224.359 Y74.576 E.02651 ; perimeter
G1 X225.72 Y74.554 E.04267 ; perimeter
G1 X226.603 Y74.504 E.02774 ; perimeter
G1 X227.382 Y74.431 E.02452 ; perimeter
G1 X228.13 Y74.332 E.02368 ; perimeter
G1 X229.021 Y74.188 E.02829 ; perimeter
G1 X229.557 Y74.081 E.01714 ; perimeter
G1 X230.564 Y73.836 E.03247 ; perimeter
G1 X231.361 Y73.594 E.02614 ; perimeter
G1 X232.361 Y73.223 E.03345 ; perimeter
G1 X233.158 Y72.845 E.02762 ; perimeter
G1 X234.012 Y72.317 E.03151 ; perimeter
G1 X234.291 Y72.104 E.011 ; perimeter
G1 X234.988 Y71.462 E.02971 ; perimeter
G1 X235.401 Y70.897 E.02196 ; perimeter
;WIDTH:0.464126
G1 X235.478 Y70.792 E.00455 ; perimeter
;WIDTH:0.508252
G1 X235.555 Y70.687 E.00503 ; perimeter
;WIDTH:0.552378
G1 X235.631 Y70.582 E.0055 ; perimeter
;WIDTH:0.596504
G1 X235.708 Y70.477 E.00598 ; perimeter
G1 X235.874 Y70.054 E.0209 ; perimeter
;WIDTH:0.554997
G1 X236.006 Y69.321 E.03172 ; perimeter
;WIDTH:0.532783
G1 X236.012 Y68.819 E.02047 ; perimeter
G1 X235.933 Y68.229 E.02424 ; perimeter
;WIDTH:0.52004
G1 X235.783 Y67.641 E.02408 ; perimeter
;WIDTH:0.497852
G1 X235.631 Y67.313 E.01368 ; perimeter
;WIDTH:0.466985
G1 X235.479 Y66.985 E.01275 ; perimeter
;WIDTH:0.436117
G1 X235.269 Y66.673 E.01228 ; perimeter
;WIDTH:0.413075
G1 X234.965 Y66.342 E.01382 ; perimeter
;WIDTH:0.419388
G1 X234.919 Y66.273 E.0026 ; perimeter
;WIDTH:0.462957
G1 X234.872 Y66.205 E.0029 ; perimeter
;WIDTH:0.506526
G1 X234.825 Y66.136 E.0032 ; perimeter
;WIDTH:0.550096
G1 X234.779 Y66.067 E.0035 ; perimeter
;WIDTH:0.593665
G1 X234.732 Y65.998 E.0038 ; perimeter
;WIDTH:0.637234
G1 X234.686 Y65.93 E.0041 ; perimeter
G1 X234.751 Y65.946 E.00335 ; perimeter
;WIDTH:0.592722
G1 X234.817 Y65.961 E.0031 ; perimeter
;WIDTH:0.54821
G1 X234.883 Y65.977 E.00285 ; perimeter
;WIDTH:0.503698
G1 X234.949 Y65.993 E.0026 ; perimeter
;WIDTH:0.459186
G1 X235.015 Y66.009 E.00235 ; perimeter
;WIDTH:0.414674
G1 X235.081 Y66.024 E.0021 ; perimeter
;WIDTH:0.391918
G1 X235.406 Y66.296 E.01228 ; perimeter
;WIDTH:0.422564
G1 X235.724 Y66.662 E.01533 ; perimeter
;WIDTH:0.451173
G1 X235.869 Y66.873 E.00867 ; perimeter
;WIDTH:0.479782
G1 X236.014 Y67.083 E.00928 ; perimeter
;WIDTH:0.499827
G1 X236.256 Y67.624 E.02251 ; perimeter
;WIDTH:0.529945
G1 X236.437 Y68.276 E.02741 ; perimeter
G1 X236.498 Y68.947 E.02729 ; perimeter
;WIDTH:0.531267
G1 X236.478 Y69.5 E.02247 ; perimeter
;WIDTH:0.554997
M73 Q4 S28
G1 X236.376 Y70.154 E.0282 ; perimeter
;WIDTH:0.596504
G1 X236.222 Y70.676 E.02501 ; perimeter
G1 X236.209 Y70.782 E.00496 ; perimeter
;WIDTH:0.552378
G1 X236.195 Y70.889 E.00456 ; perimeter
;WIDTH:0.508252
G1 X236.181 Y70.996 E.00417 ; perimeter
;WIDTH:0.464126
G1 X236.167 Y71.103 E.00377 ; perimeter
;WIDTH:0.419999
G1 X236.045 Y71.4 E.01006 ; perimeter
G1 X235.744 Y71.995 E.02093 ; perimeter
G1 X235.426 Y72.495 E.01857 ; perimeter
G1 X235.114 Y72.899 E.01601 ; perimeter
M73 P4 R26
G1 X234.777 Y73.27 E.01571 ; perimeter
G1 X234.405 Y73.626 E.01616 ; perimeter
G1 X233.995 Y73.968 E.01672 ; perimeter
G1 X233.547 Y74.294 E.01738 ; perimeter
G1 X233.06 Y74.605 E.01812 ; perimeter
G1 X232.533 Y74.9 E.01894 ; perimeter
