; generated by PrusaSlicer 2.1.1+ on 2019-12-19 at 19:13:21 UTC

; 

; external perimeters extrusion width = 0.45mm
; perimeters extrusion width = 0.45mm
; infill extrusion width = 0.45mm
; solid infill extrusion width = 0.45mm
; top infill extrusion width = 0.40mm
; first layer extrusion width = 0.42mm

M73 P0 R71
M73 Q0 S71
M201 X1000 Y1000 Z1000 E5000 ; sets maximum accelerations, mm/sec^2
M203 X200 Y200 Z12 E120 ; sets maximum feedrates, mm/sec
M204 P1250 R1250 T1250 ; sets acceleration (P, T) and retract acceleration (R), mm/sec^2
M205 X8.00 Y8.00 Z0.40 E1.50 ; sets the jerk limits, mm/sec
M205 S0 T0 ; sets the minimum extruding and travel feed rate, mm/sec
M107
M862.3 P "MK3SMMU2S" ; printer model check
M862.1 P0.4 ; nozzle diameter check
M115 U3.8.1 ; tell printer latest fw version
G90 ; use absolute coordinates
M83 ; extruder relative mode
M104 S215 ; set extruder temp
M140 S60 ; set bed temp
Tx
M190 S60 ; wait for bed temp
M109 S215 ; wait for extruder temp
G28 W ; home all without mesh bed level
G80 ; mesh bed leveling

;go outside print area
G1 Y-3.0 F1000.0
G1 Z0.4 F1000.0
; select extruder
Tc
; purge line
G1 X55.0 F2000.0
G1 Z0.3 F1000.0
G92 E0.0
G1 X240.0 E25.0 F2200.0
M73 Q0 S71
M73 P0 R71
G1 Y-2.0 F1000.0
G1 X55.0 E25 F1400.0
G1 Z0.20 F1000.0
G1 X5.0 E4.0 F1000.0

M221 S95
G92 E0.0
G21 ; set units to millimeters
G90 ; use absolute coordinates
M83 ; use relative distances for extrusion
M900 K30 ; Filament gcode
;BEFORE_LAYER_CHANGE
G92 E0.0
;0.2


G1 Z0.200 F10800.000
;AFTER_LAYER_CHANGE
;0.2
G1 E-0.80000 F2100.00000
G1 Z0.800 F10800.000
G1 X78.952 Y71.091
G1 Z0.200
G1 E0.80000 F2100.00000
M204 S1000
G1 F1200
G1 X81.823 Y67.902 E0.13454
G1 X92.341 Y60.261 E0.40763
G1 X104.215 Y54.974 E0.40752
G1 X116.931 Y52.270 E0.40763
G1 X129.710 Y52.258 E0.40066
G1 X142.642 Y54.970 E0.41431
G1 X154.324 Y60.157 E0.40077
G1 X165.209 Y68.065 E0.42182
G1 X173.749 Y77.568 E0.40061
G1 X180.250 Y88.831 E0.40775
G1 X184.265 Y101.193 E0.40752
G1 X185.611 Y114.342 E0.41443
G1 X184.263 Y127.052 E0.40077
G1 X180.244 Y139.417 E0.40764
G1 X173.745 Y150.672 E0.40752
G1 X165.043 Y160.336 E0.40775
G1 X154.528 Y167.975 E0.40752
G1 X142.651 Y173.263 E0.40764
G1 X129.934 Y175.966 E0.40763
G1 X116.936 Y175.966 E0.40752
G1 X104.216 Y173.262 E0.40775
G1 X92.342 Y167.976 E0.40752
G1 X81.824 Y160.335 E0.40763
G1 X73.264 Y150.847 E0.40066
G1 X66.540 Y139.198 E0.42171
G1 X62.603 Y127.039 E0.40072
G1 X61.257 Y113.894 E0.41431
G1 X62.606 Y101.184 E0.40077
G1 X66.624 Y88.819 E0.40764
G1 X73.123 Y77.564 E0.40752
G1 X78.912 Y71.135 E0.27122
G1 F8640
G1 X81.114 Y68.689 E-0.76000
G1 E-0.04000 F2100.00000
G1 Z0.800 F10800.000
G1 X80.685 Y72.732
G1 Z0.200
G1 E0.80000 F2100.00000
G1 F1200
G1 X83.428 Y69.686 E0.12852
G1 X93.540 Y62.339 E0.39190
G1 X104.959 Y57.255 E0.39191
G1 X117.185 Y54.657 E0.39191
G1 X129.684 Y54.657 E0.39191
G1 X141.910 Y57.255 E0.39191
G1 X153.329 Y62.339 E0.39191
G1 X163.441 Y69.686 E0.39190
G1 X171.804 Y78.975 E0.39191
G1 X178.054 Y89.800 E0.39191
G1 X181.917 Y101.687 E0.39191
G1 X183.223 Y114.118 E0.39191
G1 X181.917 Y126.549 E0.39191
G1 X178.054 Y138.436 E0.39191
G1 X171.804 Y149.261 E0.39191
G1 X163.441 Y158.550 E0.39191
G1 X153.329 Y165.897 E0.39190
G1 X141.910 Y170.981 E0.39191
G1 X129.684 Y173.579 E0.39190
G1 X117.185 Y173.579 E0.39191
G1 X104.959 Y170.981 E0.39191
G1 X93.540 Y165.897 E0.39191
G1 X83.428 Y158.550 E0.39190
G1 X75.064 Y149.261 E0.39191
G1 X68.815 Y138.436 E0.39191
G1 X64.952 Y126.549 E0.39191
G1 X63.645 Y114.118 E0.39191
G1 X64.952 Y101.687 E0.39191
G1 X68.815 Y89.800 E0.39191
G1 X75.064 Y78.975 E0.39191
G1 X80.645 Y72.777 E0.26150
G1 F8640
G1 X82.847 Y70.331 E-0.76000
G1 E-0.04000 F2100.00000
G1 Z0.800 F10800.000
G1 X69.529 Y139.448
G1 Z0.200
G1 E0.80000 F2100.00000
G1 F1200
G1 X97.376 Y167.295 E1.23546
G1 X98.338 Y167.723 E0.03303
G1 X69.264 Y138.649 E1.28991
G1 X69.074 Y138.321 E0.01191
G1 X68.884 Y137.736 E0.01928
G1 X99.300 Y168.151 E1.34943
G1 X100.262 Y168.580 E0.03303
G1 X68.628 Y136.946 E1.40349
M73 Q1 S70
M73 P1 R70
G1 X68.371 Y136.155 E0.02607
G1 X101.223 Y169.008 E1.45756
G1 X102.185 Y169.436 E0.03303
G1 X68.114 Y135.365 E1.51162
G1 X67.857 Y134.575 E0.02607
G1 X103.147 Y169.864 E1.56569
G1 X104.109 Y170.293 E0.03303
G1 X67.600 Y133.784 E1.61976
G1 X67.343 Y132.994 E0.02607
G1 X105.063 Y170.714 E1.67351
G1 X105.741 Y170.858 E0.02173
G1 X67.087 Y132.203 E1.71496
G1 X66.830 Y131.413 E0.02607
G1 X106.419 Y171.002 E1.75642
G1 X107.096 Y171.146 E0.02173
G1 X66.573 Y130.623 E1.79788
G1 X66.316 Y129.832 E0.02607
G1 X107.774 Y171.290 E1.83933
G1 X108.451 Y171.434 E0.02173
G1 X66.059 Y129.042 E1.88079
G1 X65.803 Y128.251 E0.02607
G1 X109.129 Y171.578 E1.92225
G1 X109.807 Y171.722 E0.02173
G1 X65.546 Y127.461 E1.96370
G1 X65.289 Y126.671 E0.02607
G1 X110.484 Y171.866 E2.00516
G1 X111.162 Y172.010 E0.02173
G1 X65.182 Y126.030 E2.03998
G1 X65.119 Y125.434 E0.01881
G1 X111.839 Y172.154 E2.07282
G1 X112.517 Y172.298 E0.02173
G1 X65.056 Y124.837 E2.10566
G1 X64.994 Y124.241 E0.01881
G1 X113.195 Y172.442 E2.13851
G1 X113.872 Y172.586 E0.02173
G1 X64.931 Y123.645 E2.17135
G1 X64.868 Y123.049 E0.01881
G1 X114.550 Y172.730 E2.20419
G1 X115.227 Y172.874 E0.02173
G1 X64.806 Y122.453 E2.23704
M73 Q3 S69
M73 P2 R69
G1 X64.743 Y121.856 E0.01881
G1 X115.905 Y173.018 E2.26988
G1 X116.583 Y173.162 E0.02173
G1 X64.680 Y121.260 E2.30272
G1 X64.618 Y120.664 E0.01881
G1 X117.250 Y173.296 E2.33513
G1 X117.784 Y173.296 E0.01674
G1 X64.555 Y120.068 E2.36159
G1 X64.492 Y119.471 E0.01881
G1 X118.318 Y173.296 E2.38804
G1 X118.851 Y173.296 E0.01674
G1 X64.430 Y118.875 E2.41449
G1 X64.367 Y118.279 E0.01881
G1 X119.385 Y173.296 E2.44094
G1 X119.918 Y173.296 E0.01674
G1 X64.304 Y117.683 E2.46740
G1 X64.242 Y117.086 E0.01881
G1 X120.452 Y173.296 E2.49385
G1 X120.985 Y173.296 E0.01674
G1 X64.179 Y116.490 E2.52030
G1 X64.116 Y115.894 E0.01881
G1 X121.519 Y173.296 E2.54676
G1 X122.053 Y173.296 E0.01674
G1 X64.054 Y115.298 E2.57321
G1 X63.991 Y114.701 E0.01881
G1 X122.586 Y173.296 E2.59966
G1 X123.120 Y173.296 E0.01674
G1 X63.931 Y114.108 E2.62601
G1 X63.982 Y113.625 E0.01523
G1 X123.653 Y173.296 E2.64743
G1 X124.187 Y173.296 E0.01674
G1 X64.032 Y113.142 E2.66885
M73 Q4 S68
M73 P4 R68
G1 X64.083 Y112.659 E0.01523
G1 X124.720 Y173.296 E2.69027
G1 X125.254 Y173.296 E0.01674
G1 X64.134 Y112.176 E2.71169
G1 X64.185 Y111.694 E0.01523
G1 X125.788 Y173.296 E2.73312
G1 X126.321 Y173.296 E0.01674
G1 X64.235 Y111.211 E2.75454
G1 X64.286 Y110.728 E0.01523
G1 X126.855 Y173.296 E2.77596
G1 X127.388 Y173.296 E0.01674
G1 X64.337 Y110.245 E2.79738
G1 X64.388 Y109.762 E0.01523
G1 X127.922 Y173.296 E2.81880
G1 X128.455 Y173.296 E0.01674
G1 X64.438 Y109.279 E2.84022
G1 X64.489 Y108.797 E0.01523
G1 X128.989 Y173.296 E2.86164
G1 X129.523 Y173.296 E0.01674
G1 X64.540 Y108.314 E2.88307
G1 X64.591 Y107.831 E0.01523
G1 X129.986 Y173.226 E2.90136
G1 X130.426 Y173.132 E0.01411
G1 X64.641 Y107.348 E2.91863
G1 X64.692 Y106.865 E0.01523
G1 X130.866 Y173.039 E2.93590
G1 X131.306 Y172.945 E0.01411
G1 X64.743 Y106.382 E2.95318
M73 Q5 S67
M73 P5 R67
G1 X64.794 Y105.900 E0.01523
G1 X131.746 Y172.852 E2.97045
G1 X132.186 Y172.758 E0.01411
G1 X64.844 Y105.417 E2.98772
G1 X64.895 Y104.934 E0.01523
G1 X132.626 Y172.665 E3.00499
G1 X133.066 Y172.571 E0.01411
G1 X64.946 Y104.451 E3.02226
G1 X64.997 Y103.968 E0.01523
G1 X133.506 Y172.478 E3.03953
G1 X133.946 Y172.384 E0.01411
G1 X65.047 Y103.485 E3.05681
G1 X65.098 Y103.003 E0.01523
G1 X134.386 Y172.291 E3.07408
G1 X134.826 Y172.197 E0.01411
G1 X65.149 Y102.520 E3.09135
G1 X65.200 Y102.037 E0.01523
G1 X135.266 Y172.104 E3.10862
G1 X135.706 Y172.010 E0.01411
G1 X65.282 Y101.586 E3.12448
G1 X65.413 Y101.183 E0.01328
G1 X136.146 Y171.917 E3.13820
G1 X136.586 Y171.823 E0.01411
G1 X65.544 Y100.781 E3.15191
G1 X65.675 Y100.378 E0.01328
G1 X137.026 Y171.729 E3.16563
M73 Q7 S66
M73 P7 R66
G1 X137.466 Y171.636 E0.01411
G1 X65.806 Y99.975 E3.17935
G1 X65.936 Y99.572 E0.01328
G1 X137.906 Y171.542 E3.19307
G1 X138.346 Y171.449 E0.01411
G1 X66.067 Y99.170 E3.20678
G1 X66.198 Y98.767 E0.01328
G1 X138.786 Y171.355 E3.22050
G1 X139.226 Y171.262 E0.01411
G1 X66.329 Y98.364 E3.23422
G1 X66.460 Y97.962 E0.01328
G1 X139.667 Y171.168 E3.24794
G1 X140.107 Y171.075 E0.01411
G1 X66.591 Y97.559 E3.26165
G1 X66.722 Y97.156 E0.01328
G1 X140.547 Y170.981 E3.27537
G1 X140.987 Y170.888 E0.01411
G1 X66.852 Y96.753 E3.28909
G1 X66.983 Y96.351 E0.01328
G1 X141.427 Y170.794 E3.30281
G1 X141.860 Y170.693 E0.01394
G1 X67.114 Y95.948 E3.31621
G1 X67.245 Y95.545 E0.01328
G1 X142.229 Y170.529 E3.32678
M73 Q8 S65
M73 P8 R65
G1 X142.598 Y170.365 E0.01268
G1 X67.376 Y95.143 E3.33735
G1 X67.507 Y94.740 E0.01328
G1 X142.967 Y170.200 E3.34793
G1 X143.336 Y170.036 E0.01268
G1 X67.638 Y94.337 E3.35850
G1 X67.768 Y93.934 E0.01328
G1 X143.706 Y169.872 E3.36908
G1 X144.075 Y169.707 E0.01268
G1 X67.899 Y93.532 E3.37965
G1 X68.030 Y93.129 E0.01328
G1 X144.444 Y169.543 E3.39023
G1 X144.813 Y169.378 E0.01268
G1 X68.161 Y92.726 E3.40080
G1 X68.292 Y92.324 E0.01328
G1 X145.182 Y169.214 E3.41138
G1 X145.552 Y169.050 E0.01268
G1 X68.423 Y91.921 E3.42195
G1 X68.553 Y91.518 E0.01328
G1 X145.921 Y168.885 E3.43252
G1 X146.290 Y168.721 E0.01268
G1 X68.684 Y91.115 E3.44310
G1 X68.815 Y90.713 E0.01328
G1 X146.659 Y168.557 E3.45367
M73 Q10 S64
M73 P10 R64
G1 X147.028 Y168.392 E0.01268
G1 X68.946 Y90.310 E3.46425
G1 X69.078 Y89.909 E0.01326
G1 X147.397 Y168.228 E3.47476
G1 X147.767 Y168.063 E0.01268
G1 X69.273 Y89.570 E3.48248
G1 X69.469 Y89.232 E0.01225
G1 X148.136 Y167.899 E3.49019
G1 X148.505 Y167.735 E0.01268
G1 X69.664 Y88.894 E3.49791
G1 X69.859 Y88.555 E0.01225
G1 X148.874 Y167.570 E3.50563
G1 X149.243 Y167.406 E0.01268
G1 X70.055 Y88.217 E3.51334
G1 X70.250 Y87.879 E0.01225
G1 X149.613 Y167.242 E3.52106
G1 X149.982 Y167.077 E0.01268
G1 X70.445 Y87.541 E3.52877
G1 X70.641 Y87.202 E0.01225
G1 X150.351 Y166.913 E3.53649
G1 X150.720 Y166.748 E0.01268
G1 X70.836 Y86.864 E3.54420
M73 Q11 S63
M73 P11 R63
G1 X71.031 Y86.526 E0.01225
G1 X151.089 Y166.584 E3.55192
G1 X151.459 Y166.420 E0.01268
G1 X71.226 Y86.188 E3.55963
G1 X71.422 Y85.849 E0.01225
G1 X151.828 Y166.255 E3.56735
G1 X152.197 Y166.091 E0.01268
G1 X71.617 Y85.511 E3.57506
G1 X71.812 Y85.173 E0.01225
G1 X152.566 Y165.927 E3.58278
G1 X152.935 Y165.762 E0.01268
G1 X72.008 Y84.834 E3.59049
G1 X72.203 Y84.496 E0.01225
G1 X153.285 Y165.579 E3.59735
G1 X153.594 Y165.354 E0.01198
G1 X72.398 Y84.158 E3.60240
G1 X72.594 Y83.820 E0.01225
G1 X153.903 Y165.129 E3.60745
G1 X154.212 Y164.905 E0.01198
G1 X72.789 Y83.481 E3.61249
G1 X72.984 Y83.143 E0.01225
G1 X154.522 Y164.680 E3.61754
M73 Q13 S62
M73 P13 R62
G1 X154.831 Y164.456 E0.01198
G1 X73.180 Y82.805 E3.62258
G1 X73.375 Y82.467 E0.01225
G1 X155.140 Y164.231 E3.62763
G1 X155.449 Y164.007 E0.01198
G1 X73.570 Y82.128 E3.63268
G1 X73.765 Y81.790 E0.01225
G1 X155.758 Y163.782 E3.63772
G1 X156.067 Y163.558 E0.01198
G1 X73.961 Y81.452 E3.64277
G1 X74.156 Y81.113 E0.01225
G1 X156.376 Y163.333 E3.64782
G1 X156.685 Y163.109 E0.01198
G1 X74.351 Y80.775 E3.65286
G1 X74.547 Y80.437 E0.01225
G1 X156.994 Y162.884 E3.65791
G1 X157.303 Y162.660 E0.01198
G1 X74.742 Y80.099 E3.66295
G1 X74.937 Y79.760 E0.01225
G1 X157.612 Y162.435 E3.66800
G1 X157.921 Y162.211 E0.01198
G1 X75.133 Y79.422 E3.67305
M73 Q14 S61
M73 P14 R61
G1 X75.338 Y79.094 E0.01215
G1 X158.230 Y161.986 E3.67765
G1 X158.539 Y161.762 E0.01198
G1 X75.591 Y78.813 E3.68015
G1 X75.843 Y78.532 E0.01185
G1 X158.848 Y161.537 E3.68264
G1 X159.157 Y161.312 E0.01198
G1 X76.096 Y78.251 E3.68514
G1 X76.349 Y77.971 E0.01185
G1 X159.466 Y161.088 E3.68763
G1 X159.775 Y160.863 E0.01198
G1 X76.602 Y77.690 E3.69013
G1 X76.855 Y77.409 E0.01185
G1 X160.084 Y160.639 E3.69262
G1 X160.393 Y160.414 E0.01198
G1 X77.107 Y77.128 E3.69512
G1 X77.360 Y76.848 E0.01185
G1 X160.702 Y160.190 E3.69761
G1 X161.011 Y159.965 E0.01198
G1 X77.613 Y76.567 E3.70011
G1 X77.866 Y76.286 E0.01185
G1 X161.320 Y159.741 E3.70260
M73 Q16 S60
M73 P16 R60
G1 X161.629 Y159.516 E0.01198
G1 X78.119 Y76.005 E3.70510
G1 X78.371 Y75.725 E0.01185
G1 X161.938 Y159.292 E3.70759
G1 X162.248 Y159.067 E0.01198
G1 X78.624 Y75.444 E3.71009
G1 X78.877 Y75.163 E0.01185
G1 X162.557 Y158.843 E3.71258
G1 X162.866 Y158.618 E0.01198
G1 X79.130 Y74.882 E3.71508
G1 X79.383 Y74.601 E0.01185
G1 X163.175 Y158.394 E3.71757
G1 X163.251 Y158.338 E0.00294
G1 X163.441 Y158.127 E0.00894
G1 X79.635 Y74.321 E3.71819
G1 X79.888 Y74.040 E0.01185
G1 X163.694 Y157.846 E3.71819
G1 X163.947 Y157.565 E0.01185
G1 X80.141 Y73.759 E3.71819
G1 X80.394 Y73.478 E0.01185
G1 X164.200 Y157.284 E3.71819
G1 X164.452 Y157.004 E0.01185
G1 X80.647 Y73.198 E3.71819
M73 Q17 S59
M73 P17 R58
G1 X80.899 Y72.917 E0.01185
G1 X164.705 Y156.723 E3.71819
G1 X164.958 Y156.442 E0.01185
G1 X81.152 Y72.636 E3.71819
G1 X81.405 Y72.355 E0.01185
G1 X165.211 Y156.161 E3.71819
G1 X165.464 Y155.880 E0.01185
G1 X81.658 Y72.075 E3.71819
G1 X81.911 Y71.794 E0.01185
G1 X165.717 Y155.600 E3.71819
G1 X165.969 Y155.319 E0.01185
G1 X82.163 Y71.513 E3.71819
G1 X82.416 Y71.232 E0.01185
G1 X166.222 Y155.038 E3.71819
G1 X166.475 Y154.757 E0.01185
G1 X82.669 Y70.951 E3.71819
G1 X82.922 Y70.671 E0.01185
G1 X166.728 Y154.477 E3.71819
G1 X166.981 Y154.196 E0.01185
G1 X83.175 Y70.390 E3.71819
G1 X83.427 Y70.109 E0.01185
G1 X167.233 Y153.915 E3.71819
M73 Q19 S57
M73 P19 R57
G1 X167.486 Y153.634 E0.01185
G1 X83.694 Y69.842 E3.71757
G1 X84.003 Y69.618 E0.01198
G1 X167.739 Y153.354 E3.71508
G1 X167.992 Y153.073 E0.01185
G1 X84.312 Y69.393 E3.71258
G1 X84.621 Y69.169 E0.01198
G1 X168.245 Y152.792 E3.71009
G1 X168.497 Y152.511 E0.01185
G1 X84.930 Y68.944 E3.70759
G1 X85.239 Y68.720 E0.01198
G1 X168.750 Y152.230 E3.70510
G1 X169.003 Y151.950 E0.01185
G1 X85.548 Y68.495 E3.70260
G1 X85.857 Y68.271 E0.01198
G1 X169.256 Y151.669 E3.70011
G1 X169.509 Y151.388 E0.01185
G1 X86.166 Y68.046 E3.69761
G1 X86.475 Y67.821 E0.01198
G1 X169.761 Y151.107 E3.69512
G1 X170.014 Y150.827 E0.01185
G1 X86.784 Y67.597 E3.69262
M73 Q20 S56
M73 P20 R56
G1 X87.094 Y67.372 E0.01198
G1 X170.267 Y150.546 E3.69013
G1 X170.520 Y150.265 E0.01185
G1 X87.403 Y67.148 E3.68763
G1 X87.712 Y66.923 E0.01198
G1 X170.773 Y149.984 E3.68514
G1 X171.025 Y149.704 E0.01185
G1 X88.021 Y66.699 E3.68264
G1 X88.330 Y66.474 E0.01198
G1 X171.278 Y149.423 E3.68015
G1 X171.531 Y149.142 E0.01185
G1 X88.639 Y66.250 E3.67765
G1 X88.948 Y66.025 E0.01198
G1 X171.736 Y148.814 E3.67305
G1 X171.931 Y148.475 E0.01225
G1 X89.257 Y65.801 E3.66800
G1 X89.566 Y65.576 E0.01198
G1 X172.127 Y148.137 E3.66295
G1 X172.322 Y147.799 E0.01225
G1 X89.875 Y65.352 E3.65791
G1 X90.184 Y65.127 E0.01198
G1 X172.517 Y147.461 E3.65286
M73 Q22 S55
M73 P22 R55
G1 X172.713 Y147.122 E0.01225
G1 X90.493 Y64.903 E3.64781
G1 X90.802 Y64.678 E0.01198
G1 X172.908 Y146.784 E3.64277
G1 X173.103 Y146.446 E0.01225
G1 X91.111 Y64.454 E3.63772
G1 X91.420 Y64.229 E0.01198
G1 X173.299 Y146.107 E3.63268
G1 X173.494 Y145.769 E0.01225
G1 X91.729 Y64.004 E3.62763
G1 X92.038 Y63.780 E0.01198
G1 X173.689 Y145.431 E3.62258
G1 X173.884 Y145.093 E0.01225
G1 X92.347 Y63.555 E3.61754
G1 X92.656 Y63.331 E0.01198
G1 X174.080 Y144.754 E3.61249
G1 X174.275 Y144.416 E0.01225
G1 X92.965 Y63.106 E3.60744
G1 X93.274 Y62.882 E0.01198
G1 X174.470 Y144.078 E3.60240
G1 X174.666 Y143.740 E0.01225
G1 X93.583 Y62.657 E3.59735
M73 Q23 S54
M73 P24 R54
G1 X93.682 Y62.586 E0.00383
G1 X93.933 Y62.474 E0.00863
G1 X174.861 Y143.401 E3.59049
G1 X175.056 Y143.063 E0.01225
G1 X94.303 Y62.309 E3.58277
G1 X94.672 Y62.145 E0.01268
G1 X175.252 Y142.725 E3.57506
G1 X175.447 Y142.387 E0.01225
G1 X95.041 Y61.981 E3.56734
G1 X95.410 Y61.816 E0.01268
G1 X175.642 Y142.048 E3.55963
G1 X175.838 Y141.710 E0.01225
G1 X95.779 Y61.652 E3.55191
G1 X96.149 Y61.487 E0.01268
G1 X176.033 Y141.372 E3.54420
G1 X176.228 Y141.033 E0.01225
G1 X96.518 Y61.323 E3.53648
G1 X96.887 Y61.159 E0.01268
G1 X176.423 Y140.695 E3.52877
G1 X176.619 Y140.357 E0.01225
G1 X97.256 Y60.994 E3.52105
G1 X97.625 Y60.830 E0.01268
G1 X176.814 Y140.019 E3.51334
M73 Q25 S53
M73 P25 R53
G1 X177.009 Y139.680 E0.01225
G1 X97.994 Y60.666 E3.50562
