; generated by PrusaSlicer 2.4.2+win64 on 2022-07-08 at 17:08:32 UTC


;
;
; 

; external perimeters extrusion width = 0.45mm
; perimeters extrusion width = 0.45mm
; infill extrusion width = 0.45mm
; solid infill extrusion width = 0.45mm
; top infill extrusion width = 0.40mm
; first layer extrusion width = 0.42mm

M73 P0 R16
M73 Q0 S16
M201 X1000 Y1000 Z200 E8000 ; sets maximum accelerations, mm/sec^2
M203 X200 Y200 Z12 E120 ; sets maximum feedrates, mm / sec
M204 P1250 R1250 T1500 ; sets acceleration (P, T) and retract acceleration (R), mm/sec^2
M205 X8.00 Y8.00 Z0.40 E4.50 ; sets the jerk limits, mm/sec
M205 S0 T0 ; sets the minimum extruding and travel feed rate, mm/sec
M107 ; disable fan
;TYPE:Custom
M862.3 P "MK3SMMU2S" ; printer model check
M862.1 P0.4 ; nozzle diameter check
M115 U3.11.0 ; tell printer latest fw version
G90 ; use absolute coordinates
M83 ; extruder relative mode
M104 S225 ; set extruder temp
M140 S60 ; set bed temp
M190 S60 ; wait for bed temp
M109 S225 ; wait for extruder temp
G28 W ; home all without mesh bed level
G80 ; mesh bed leveling

; Send the filament type to the MMU2.0 unit.
; E stands for extruder number, F stands for filament type (0: default; 1:flex; 2: PVA)
M403 E0 F0
M403 E1 F0
M403 E2 F0
M403 E3 F0
M403 E4 F0


;go outside print area
G1 Y-3 F1000
G1 Z0.4 F1000
; select extruder
T0
; initial load
G1 X55 E29 F1073
G1 X5 E29 F1800
M73 P0 R15
M73 Q0 S15
G1 X55 E8 F2000
G1 Z0.3 F1000
G92 E0
G1 X240 E25 F2200
G1 Y-2 F1000
M73 P1 R15
M73 Q1 S15
G1 X55 E25 F1400
G1 Z0.2 F1000
M73 P2 R15
M73 Q2 S15
G1 X5 E4 F1000
G92 E0


M221 S95
G92 E0

; Don't change E values below. Excessive value can damage the printer.

G21 ; set units to millimeters
G90 ; use absolute coordinates
M83 ; use relative distances for extrusion
M900 K0.05 ; Filament gcode LA 1.5
M900 K30 ; Filament gcode LA 1.0
M107 ; disable fan
;LAYER_CHANGE
;Z:0.2
;HEIGHT:0.2
;BEFORE_LAYER_CHANGE
G92 E0.0
;0.2


G1 E-.8 F2100 ; retract
G1 Z.4 F720 ; lift Z
;AFTER_LAYER_CHANGE
;0.2
G1 X110.242 Y92.525 F10800 ; move to first skirt point
G1 Z.2 F720 ; restore layer Z
G1 E.8 F2100 ;  ; unretract
M204 P800 ; adjust acceleration
;TYPE:Skirt/Brim
;WIDTH:0.42
G1 F1200
G1 X111.34 Y91.332 E.05087 ; skirt
G1 X112.784 Y90.027 E.06102 ; skirt
G1 X114.331 Y88.888 E.06021 ; skirt
G1 X116.033 Y87.882 E.06199 ; skirt
G1 X117.8 Y87.067 E.06102 ; skirt
G1 X119.33 Y86.527 E.05087 ; skirt
G1 X121.251 Y86.043 E.06212 ; skirt
G1 X123.177 Y85.762 E.06102 ; skirt
G1 X125.095 Y85.676 E.06021 ; skirt
G1 X127.069 Y85.787 E.06199 ; skirt
G1 X128.991 Y86.093 E.06102 ; skirt
G1 X130.563 Y86.494 E.05087 ; skirt
G1 X132.429 Y87.161 E.06213 ; skirt
G1 X134.186 Y87.999 E.06102 ; skirt
G1 X135.824 Y88.992 E.06008 ; skirt
G1 X137.407 Y90.185 E.06213 ; skirt
G1 X138.834 Y91.508 E.06102 ; skirt
G1 X140.143 Y92.995 E.06213 ; skirt
G1 X141.096 Y94.308 E.05087 ; skirt
G1 X142.09 Y95.981 E.06102 ; skirt
G1 X142.9 Y97.718 E.06008 ; skirt
G1 X143.551 Y99.589 E.06213 ; skirt
G1 X144.002 Y101.486 E.06111 ; skirt
G1 X144.229 Y103.089 E.05077 ; skirt
G1 X144.324 Y105.033 E.06102 ; skirt
G1 X144.226 Y106.946 E.06008 ; skirt
G1 X143.932 Y108.87 E.06102 ; skirt
G1 X143.437 Y110.789 E.06213 ; skirt
G1 X142.886 Y112.315 E.05087 ; skirt
G1 X142.06 Y114.077 E.06102 ; skirt
G1 X141.074 Y115.725 E.06022 ; skirt
G1 X139.895 Y117.312 E.06199 ; skirt
G1 X138.581 Y118.747 E.06102 ; skirt
G1 X137.38 Y119.838 E.05087 ; skirt
G1 X135.795 Y121.028 E.06213 ; skirt
G1 X134.128 Y122.032 E.06102 ; skirt
G1 X132.336 Y122.877 E.06213 ; skirt
G1 X130.53 Y123.516 E.06008 ; skirt
G1 X128.639 Y123.978 E.06102 ; skirt
G1 X126.676 Y124.251 E.06213 ; skirt
G1 X125.056 Y124.324 E.05087 ; skirt
G1 X123.112 Y124.232 E.06102 ; skirt
G1 X121.152 Y123.937 E.06213 ; skirt
G1 X119.296 Y123.463 E.06008 ; skirt
G1 X117.468 Y122.796 E.06103 ; skirt
G1 X115.685 Y121.931 E.06213 ; skirt
G1 X114.298 Y121.09 E.05087 ; skirt
G1 X112.733 Y119.932 E.06102 ; skirt
G1 X111.269 Y118.597 E.06213 ; skirt
G1 X109.99 Y117.17 E.06008 ; skirt
G1 X108.842 Y115.599 E.06102 ; skirt
M73 Q3 S15
G1 X108.01 Y114.206 E.05087 ; skirt
G1 X107.156 Y112.418 E.06213 ; skirt
M73 P3 R15
G1 X106.501 Y110.586 E.06102 ; skirt
G1 X106.026 Y108.662 E.06212 ; skirt
G1 X105.757 Y106.765 E.06008 ; skirt
G1 X105.677 Y104.82 E.06102 ; skirt
G1 X105.797 Y102.842 E.06213 ; skirt
G1 X106.045 Y101.239 E.05087 ; skirt
G1 X106.52 Y99.352 E.06102 ; skirt
G1 X107.195 Y97.489 E.06213 ; skirt
G1 X108.029 Y95.759 E.06021 ; skirt
G1 X109.042 Y94.102 E.06089 ; skirt
G1 X110.205 Y92.573 E.06024 ; skirt
M204 P1000 ; adjust acceleration
G1 X110.505 Y92.801 F10800 ; move to first skirt point
M204 P800 ; adjust acceleration
G1 F1200
G1 X111.604 Y91.601 E.05103 ; skirt
G1 X113.023 Y90.319 E.05996 ; skirt
G1 X114.538 Y89.203 E.059 ; skirt
G1 X116.207 Y88.217 E.06078 ; skirt
G1 X117.944 Y87.416 E.05996 ; skirt
G1 X119.437 Y86.888 E.04965 ; skirt
G1 X121.321 Y86.414 E.06091 ; skirt
G1 X123.213 Y86.137 E.05996 ; skirt
G1 X125.093 Y86.053 E.059 ; skirt
G1 X127.028 Y86.162 E.06078 ; skirt
G1 X128.917 Y86.462 E.05996 ; skirt
G1 X130.451 Y86.854 E.04965 ; skirt
G1 X132.281 Y87.508 E.06092 ; skirt
G1 X134.007 Y88.331 E.05996 ; skirt
G1 X135.613 Y89.304 E.05887 ; skirt
G1 X137.164 Y90.473 E.06091 ; skirt
G1 X138.566 Y91.774 E.05996 ; skirt
G1 X139.85 Y93.232 E.06091 ; skirt
G1 X140.78 Y94.514 E.04965 ; skirt
G1 X141.757 Y96.158 E.05996 ; skirt
G1 X142.55 Y97.86 E.05887 ; skirt
G1 X143.189 Y99.694 E.06091 ; skirt
G1 X143.632 Y101.558 E.06005 ; skirt
G1 X143.854 Y103.123 E.04956 ; skirt
G1 X143.947 Y105.033 E.05996 ; skirt
G1 X143.851 Y106.908 E.05887 ; skirt
G1 X143.562 Y108.798 E.05996 ; skirt
G1 X143.076 Y110.679 E.06091 ; skirt
G1 X142.538 Y112.169 E.04965 ; skirt
G1 X141.727 Y113.9 E.05996 ; skirt
G1 X140.761 Y115.515 E.059 ; skirt
G1 X139.604 Y117.071 E.06078 ; skirt
G1 X138.313 Y118.481 E.05996 ; skirt
G1 X137.141 Y119.546 E.04965 ; skirt
G1 X135.587 Y120.713 E.06091 ; skirt
G1 X133.95 Y121.7 E.05996 ; skirt
G1 X132.192 Y122.529 E.06091 ; skirt
G1 X130.422 Y123.155 E.05887 ; skirt
G1 X128.565 Y123.609 E.05996 ; skirt
G1 X126.64 Y123.876 E.06091 ; skirt
G1 X125.058 Y123.947 E.04965 ; skirt
G1 X123.148 Y123.856 E.05996 ; skirt
G1 X121.227 Y123.568 E.06091 ; skirt
G1 X119.408 Y123.103 E.05886 ; skirt
G1 X117.611 Y122.447 E.05996 ; skirt
G1 X115.864 Y121.599 E.06091 ; skirt
G1 X114.509 Y120.778 E.04965 ; skirt
G1 X112.972 Y119.64 E.05996 ; skirt
G1 X111.536 Y118.331 E.06091 ; skirt
G1 X110.283 Y116.933 E.05887 ; skirt
G1 X109.155 Y115.389 E.05996 ; skirt
G1 X108.343 Y114.03 E.04966 ; skirt
G1 X107.506 Y112.276 E.06091 ; skirt
G1 X106.861 Y110.476 E.05996 ; skirt
G1 X106.396 Y108.59 E.06091 ; skirt
G1 X106.132 Y106.731 E.05887 ; skirt
G1 X106.054 Y104.82 E.05996 ; skirt
G1 X106.172 Y102.881 E.06091 ; skirt
G1 X106.415 Y101.316 E.04966 ; skirt
G1 X106.88 Y99.461 E.05996 ; skirt
G1 X107.543 Y97.635 E.06091 ; skirt
G1 X108.36 Y95.94 E.059 ; skirt
G1 X109.355 Y94.312 E.05983 ; skirt
G1 X110.469 Y92.849 E.05764 ; skirt
M204 P1000 ; adjust acceleration
;WIPE_START
G1 F8640
G1 X111.604 Y91.601 E-.38964 ; wipe and retract
G1 X112.794 Y90.525 E-.37036 ; wipe and retract
;WIPE_END
G1 E-.04 F2100 ; retract
G1 Z.6 F720 ; lift Z
G1 X112.537 Y94.524 F10800 ; move to first brim point
G1 Z.2 F720 ; restore layer Z
G1 E.8 F2100 ;  ; unretract
M204 P800 ; adjust acceleration
G1 F1200
G1 X113.133 Y93.85 E.0282 ; brim
G1 X113.695 Y93.28 E.02511 ; brim
G1 X114.317 Y92.711 E.02643 ; brim
G1 X114.967 Y92.174 E.02641 ; brim
G1 X116.078 Y91.378 E.04289 ; brim
G1 X116.773 Y90.948 E.0256 ; brim
G1 X117.485 Y90.555 E.0255 ; brim
G1 X118.225 Y90.193 E.02585 ; brim
G1 X118.972 Y89.873 E.02547 ; brim
G1 X119.744 Y89.588 E.02581 ; brim
G1 X120.529 Y89.342 E.0258 ; brim
G1 X121.327 Y89.136 E.02584 ; brim
G1 X122.123 Y88.973 E.02548 ; brim
G1 X122.95 Y88.846 E.02621 ; brim
G1 X123.796 Y88.761 E.02667 ; brim
G1 X125.163 Y88.717 E.04287 ; brim
G1 X125.98 Y88.746 E.02563 ; brim
G1 X126.8 Y88.816 E.02581 ; brim
G1 X127.614 Y88.928 E.02578 ; brim
G1 X128.415 Y89.079 E.02555 ; brim
G1 X129.206 Y89.269 E.02551 ; brim
G1 X129.994 Y89.501 E.02576 ; brim
G1 X130.772 Y89.774 E.02585 ; brim
G1 X131.525 Y90.081 E.02548 ; brim
G1 X132.289 Y90.439 E.02646 ; brim
G1 X133.032 Y90.835 E.02641 ; brim
G1 X134.189 Y91.557 E.04276 ; brim
G1 X134.854 Y92.037 E.02571 ; brim
G1 X135.49 Y92.545 E.02551 ; brim
G1 X136.106 Y93.092 E.02582 ; brim
G1 X136.687 Y93.662 E.02552 ; brim
G1 X137.252 Y94.275 E.02614 ; brim
G1 X137.779 Y94.908 E.02584 ; brim
G1 X138.273 Y95.568 E.02583 ; brim
G1 X138.739 Y96.26 E.02615 ; brim
G1 X139.163 Y96.965 E.02582 ; brim
G1 X139.556 Y97.701 E.02616 ; brim
G1 X139.907 Y98.448 E.02588 ; brim
G1 X140.219 Y99.21 E.0258 ; brim
G1 X140.499 Y100.007 E.02648 ; brim
G1 X140.737 Y100.815 E.02641 ; brim
G1 X141.032 Y102.149 E.04285 ; brim
G1 X141.153 Y102.946 E.02527 ; brim
G1 X141.235 Y103.743 E.02511 ; brim
M73 Q4 S15
G1 X141.277 Y104.545 E.02518 ; brim
G1 X141.28 Y105.346 E.02512 ; brim
G1 X141.241 Y106.18 E.02617 ; brim
G1 X141.157 Y107.026 E.02667 ; brim
M73 P4 R15
G1 X140.931 Y108.371 E.04277 ; brim
G1 X140.74 Y109.169 E.02572 ; brim
G1 X140.51 Y109.959 E.02579 ; brim
G1 X140.243 Y110.726 E.02546 ; brim
G1 X139.934 Y111.49 E.02582 ; brim
G1 X139.591 Y112.229 E.02556 ; brim
G1 X139.207 Y112.957 E.02581 ; brim
G1 X138.787 Y113.664 E.02577 ; brim
G1 X138.337 Y114.342 E.02553 ; brim
G1 X137.84 Y115.014 E.0262 ; brim
G1 X137.3 Y115.671 E.02667 ; brim
G1 X136.364 Y116.663 E.04275 ; brim
G1 X135.772 Y117.212 E.02533 ; brim
G1 X135.156 Y117.728 E.02518 ; brim
G1 X134.517 Y118.212 E.02515 ; brim
G1 X133.856 Y118.665 E.02513 ; brim
G1 X133.144 Y119.101 E.02618 ; brim
G1 X132.397 Y119.507 E.02667 ; brim
G1 X131.157 Y120.075 E.04276 ; brim
G1 X130.39 Y120.365 E.0257 ; brim
G1 X129.608 Y120.618 E.02577 ; brim
G1 X128.812 Y120.831 E.02583 ; brim
G1 X128.017 Y121.002 E.02551 ; brim
G1 X127.214 Y121.132 E.0255 ; brim
G1 X126.394 Y121.224 E.02586 ; brim
G1 X125.583 Y121.273 E.02549 ; brim
G1 X124.759 Y121.282 E.02582 ; brim
G1 X123.916 Y121.247 E.02645 ; brim
G1 X123.078 Y121.17 E.02641 ; brim
G1 X121.729 Y120.952 E.04282 ; brim
G1 X120.911 Y120.762 E.02636 ; brim
G1 X120.107 Y120.531 E.02622 ; brim
G1 X119.318 Y120.26 E.02615 ; brim
G1 X118.533 Y119.944 E.02652 ; brim
G1 X117.796 Y119.603 E.02548 ; brim
G1 X117.067 Y119.22 E.02581 ; brim
G1 X116.366 Y118.806 E.02551 ; brim
G1 X115.679 Y118.352 E.02585 ; brim
G1 X115.021 Y117.867 E.0256 ; brim
G1 X114.386 Y117.349 E.02572 ; brim
G1 X113.775 Y116.796 E.02581 ; brim
G1 X113.196 Y116.217 E.02568 ; brim
G1 X112.298 Y115.19 E.04277 ; brim
G1 X111.789 Y114.519 E.02641 ; brim
G1 X111.314 Y113.822 E.02645 ; brim
G1 X110.896 Y113.138 E.02516 ; brim
G1 X110.507 Y112.423 E.02551 ; brim
G1 X110.155 Y111.691 E.02547 ; brim
G1 X109.843 Y110.952 E.02515 ; brim
G1 X109.562 Y110.178 E.02581 ; brim
G1 X109.317 Y109.381 E.02616 ; brim
G1 X109.115 Y108.581 E.02585 ; brim
G1 X108.952 Y107.76 E.02625 ; brim
G1 X108.777 Y106.406 E.04281 ; brim
G1 X108.728 Y105.608 E.02508 ; brim
G1 X108.718 Y104.805 E.02517 ; brim
G1 X108.749 Y103.974 E.02609 ; brim
G1 X108.822 Y103.153 E.02585 ; brim
G1 X108.938 Y102.326 E.02616 ; brim
G1 X109.096 Y101.506 E.02619 ; brim
G1 X109.293 Y100.706 E.02584 ; brim
G1 X109.533 Y99.908 E.02612 ; brim
G1 X109.811 Y99.132 E.02585 ; brim
G1 X110.128 Y98.367 E.02597 ; brim
G1 X110.739 Y97.139 E.043 ; brim
G1 X111.168 Y96.408 E.02657 ; brim
G1 X111.626 Y95.711 E.02617 ; brim
G1 X112.1 Y95.063 E.02516 ; brim
G1 X112.499 Y94.57 E.01988 ; brim
M204 P1000 ; adjust acceleration
G1 X112.792 Y94.808 F10800 ; move to first brim point
M204 P800 ; adjust acceleration
G1 F1200
G1 X113.411 Y94.105 E.02935 ; brim
G1 X113.96 Y93.548 E.02453 ; brim
G1 X114.568 Y92.992 E.02583 ; brim
G1 X115.202 Y92.469 E.02576 ; brim
G1 X116.282 Y91.695 E.04169 ; brim
G1 X116.959 Y91.276 E.02496 ; brim
G1 X117.663 Y90.887 E.0252 ; brim
G1 X118.386 Y90.534 E.02525 ; brim
G1 X119.116 Y90.222 E.02487 ; brim
G1 X119.87 Y89.944 E.02521 ; brim
G1 X120.637 Y89.704 E.02521 ; brim
G1 X121.417 Y89.502 E.02524 ; brim
G1 X122.195 Y89.343 E.02489 ; brim
G1 X123.002 Y89.22 E.02561 ; brim
G1 X123.828 Y89.137 E.02602 ; brim
G1 X125.156 Y89.094 E.04167 ; brim
G1 X125.952 Y89.122 E.02499 ; brim
G1 X126.754 Y89.191 E.02521 ; brim
G1 X127.549 Y89.299 E.02518 ; brim
G1 X128.331 Y89.446 E.02495 ; brim
G1 X129.113 Y89.635 E.02521 ; brim
G1 X129.883 Y89.862 E.02516 ; brim
G1 X130.643 Y90.128 E.02525 ; brim
G1 X131.378 Y90.428 E.02489 ; brim
G1 X132.124 Y90.778 E.02586 ; brim
G1 X132.849 Y91.165 E.02576 ; brim
G1 X133.974 Y91.866 E.04157 ; brim
G1 X134.622 Y92.334 E.02507 ; brim
G1 X135.25 Y92.837 E.02522 ; brim
G1 X135.852 Y93.371 E.02523 ; brim
G1 X136.42 Y93.927 E.02493 ; brim
G1 X136.971 Y94.526 E.02554 ; brim
G1 X137.486 Y95.146 E.02524 ; brim
G1 X137.968 Y95.79 E.02523 ; brim
G1 X138.423 Y96.466 E.02555 ; brim
G1 X138.837 Y97.155 E.02522 ; brim
G1 X139.221 Y97.875 E.02556 ; brim
G1 X139.564 Y98.604 E.02528 ; brim
G1 X139.868 Y99.348 E.0252 ; brim
G1 X140.141 Y100.127 E.02588 ; brim
G1 X140.373 Y100.915 E.02576 ; brim
G1 X140.66 Y102.212 E.04165 ; brim
G1 X140.779 Y102.989 E.02464 ; brim
G1 X140.859 Y103.776 E.02482 ; brim
G1 X140.9 Y104.56 E.0246 ; brim
G1 X140.903 Y105.342 E.02454 ; brim
G1 X140.864 Y106.157 E.02557 ; brim
G1 X140.783 Y106.983 E.02601 ; brim
G1 X140.563 Y108.29 E.04157 ; brim
G1 X140.375 Y109.077 E.02537 ; brim
G1 X140.149 Y109.849 E.0252 ; brim
G1 X139.889 Y110.598 E.02487 ; brim
G1 X139.587 Y111.343 E.02523 ; brim
G1 X139.251 Y112.066 E.02497 ; brim
G1 X138.876 Y112.777 E.02521 ; brim
G1 X138.465 Y113.467 E.02518 ; brim
G1 X138.025 Y114.129 E.02493 ; brim
G1 X137.54 Y114.786 E.0256 ; brim
G1 X137.013 Y115.427 E.02601 ; brim
G1 X136.103 Y116.39 E.04155 ; brim
G1 X135.525 Y116.926 E.0247 ; brim
G1 X134.925 Y117.43 E.02459 ; brim
G1 X134.293 Y117.909 E.02485 ; brim
G1 X133.647 Y118.351 E.02454 ; brim
G1 X132.951 Y118.776 E.02558 ; brim
G1 X132.222 Y119.173 E.02601 ; brim
G1 X131.017 Y119.725 E.04156 ; brim
G1 X130.27 Y120.008 E.02506 ; brim
G1 X129.506 Y120.255 E.02517 ; brim
G1 X128.728 Y120.463 E.02523 ; brim
G1 X127.942 Y120.632 E.02521 ; brim
G1 X127.158 Y120.759 E.0249 ; brim
G1 X126.357 Y120.848 E.02527 ; brim
G1 X125.565 Y120.896 E.0249 ; brim
G1 X124.76 Y120.905 E.02522 ; brim
G1 X123.946 Y120.871 E.02555 ; brim
G1 X123.119 Y120.795 E.02606 ; brim
G1 X121.809 Y120.583 E.04161 ; brim
G1 X121.01 Y120.398 E.02571 ; brim
G1 X120.225 Y120.173 E.02562 ; brim
G1 X119.454 Y119.908 E.02554 ; brim
G1 X118.687 Y119.6 E.02591 ; brim
G1 X117.958 Y119.263 E.02518 ; brim
G1 X117.247 Y118.889 E.02521 ; brim
G1 X116.563 Y118.484 E.02492 ; brim
G1 X115.891 Y118.04 E.02526 ; brim
G1 X115.249 Y117.567 E.02501 ; brim
G1 X114.628 Y117.06 E.02513 ; brim
G1 X114.032 Y116.52 E.02522 ; brim
G1 X113.467 Y115.955 E.02504 ; brim
G1 X112.595 Y114.957 E.04157 ; brim
G1 X112.092 Y114.295 E.02605 ; brim
G1 X111.633 Y113.622 E.02555 ; brim
G1 X111.22 Y112.945 E.02486 ; brim
G1 X110.84 Y112.247 E.02492 ; brim
G1 X110.497 Y111.532 E.02488 ; brim
G1 X110.193 Y110.81 E.02456 ; brim
G1 X109.918 Y110.054 E.02522 ; brim
G1 X109.679 Y109.275 E.02556 ; brim
G1 X109.482 Y108.494 E.02525 ; brim
G1 X109.323 Y107.693 E.0256 ; brim
G1 X109.153 Y106.377 E.04161 ; brim
G1 X109.105 Y105.598 E.02445 ; brim
G1 X109.095 Y104.815 E.02458 ; brim
G1 X109.125 Y104.002 E.02549 ; brim
G1 X109.196 Y103.2 E.02525 ; brim
G1 X109.309 Y102.393 E.02555 ; brim
G1 X109.463 Y101.592 E.02559 ; brim
G1 X109.655 Y100.81 E.02524 ; brim
G1 X109.89 Y100.031 E.02551 ; brim
G1 X110.161 Y99.272 E.02525 ; brim
G1 X110.474 Y98.518 E.02562 ; brim
G1 X111.068 Y97.324 E.04179 ; brim
G1 X111.485 Y96.611 E.02592 ; brim
G1 X111.933 Y95.93 E.02557 ; brim
G1 X112.396 Y95.297 E.02458 ; brim
G1 X112.754 Y94.854 E.01785 ; brim
M204 P1000 ; adjust acceleration
G1 X113.047 Y95.092 F10800 ; move to first brim point
M204 P800 ; adjust acceleration
G1 F1200
G1 X113.688 Y94.36 E.0305 ; brim
G1 X114.225 Y93.817 E.02394 ; brim
G1 X114.812 Y93.28 E.02493 ; brim
