; generated by PrusaSlicer 2.4.2+win64 on 2022-07-08 at 19:37:33 UTC


;
;
; 

; external perimeters extrusion width = 0.45mm
; perimeters extrusion width = 0.45mm
; infill extrusion width = 0.45mm
; solid infill extrusion width = 0.45mm
; top infill extrusion width = 0.40mm
; first layer extrusion width = 0.42mm

M73 P0 R119
M73 Q0 S120
M201 X1000 Y1000 Z200 E8000 ; sets maximum accelerations, mm/sec^2
M203 X200 Y200 Z12 E120 ; sets maximum feedrates, mm / sec
M204 P1250 R1250 T1500 ; sets acceleration (P, T) and retract acceleration (R), mm/sec^2
M205 X8.00 Y8.00 Z0.40 E4.50 ; sets the jerk limits, mm/sec
M205 S0 T0 ; sets the minimum extruding and travel feed rate, mm/sec
M107 ; disable fan
;TYPE:Custom
M862.3 P "MK3SMMU2S" ; printer model check
M862.1 P0.4 ; nozzle diameter check
M115 U3.11.0 ; tell printer latest fw version
G90 ; use absolute coordinates
M83 ; extruder relative mode
M104 S225 ; set extruder temp
M140 S60 ; set bed temp
M190 S60 ; wait for bed temp
M109 S225 ; wait for extruder temp
G28 W ; home all without mesh bed level
G80 ; mesh bed leveling

; Send the filament type to the MMU2.0 unit.
; E stands for extruder number, F stands for filament type (0: default; 1:flex; 2: PVA)
M403 E0 F0
M403 E1 F0
M403 E2 F0
M403 E3 F0
M403 E4 F0


;go outside print area
G1 Y-3 F1000
G1 Z0.4 F1000
; select extruder
T0
; initial load
G1 X55 E29 F1073
G1 X5 E29 F1800
G1 X55 E8 F2000
G1 Z0.3 F1000
G92 E0
G1 X240 E25 F2200
G1 Y-2 F1000
G1 X55 E25 F1400
G1 Z0.2 F1000
M73 P0 R118
M73 Q0 S119
G1 X5 E4 F1000
G92 E0


M221 S95
G92 E0

; Don't change E values below. Excessive value can damage the printer.

G21 ; set units to millimeters
G90 ; use absolute coordinates
M83 ; use relative distances for extrusion
M900 K0.05 ; Filament gcode LA 1.5
M900 K30 ; Filament gcode LA 1.0
M107 ; disable fan
;LAYER_CHANGE
;Z:0.2
;HEIGHT:0.2
;BEFORE_LAYER_CHANGE
G92 E0.0
;0.2


G1 E-.8 F2100 ; retract
G1 Z.4 F720 ; lift Z
;AFTER_LAYER_CHANGE
;0.2
G1 X54.445 Y54.445 F10800 ; move to first skirt point
G1 Z.2 F720 ; restore layer Z
G1 E.8 F2100 ;  ; unretract
M204 P800 ; adjust acceleration
;TYPE:Skirt/Brim
;WIDTH:0.42
G1 F1200
G1 X70.846 Y38.045 E.72723 ; skirt
G1 X72.047 Y37.398 E.04278 ; skirt
G1 X73.745 Y37.684 E.05399 ; skirt
G1 X121.13 Y65.96 E1.73013 ; skirt
G1 X121.593 Y66.32 E.01839 ; skirt
G1 X199.374 Y144.102 E3.44897 ; skirt
G1 X200.022 Y145.303 E.04278 ; skirt
G1 X199.902 Y146.662 E.04278 ; skirt
G1 X199.374 Y147.464 E.03008 ; skirt
G1 X174.82 Y172.018 E1.08878 ; skirt
G1 X173.619 Y172.665 E.04278 ; skirt
G1 X172.26 Y172.546 E.04278 ; skirt
G1 X171.587 Y172.137 E.02468 ; skirt
G1 X95.655 Y106.647 E3.14396 ; skirt
G1 X50.626 Y61.627 E1.99649 ; skirt
G1 X49.978 Y60.426 E.04278 ; skirt
G1 X50.098 Y59.067 E.04278 ; skirt
G1 X50.626 Y58.265 E.03008 ; skirt
G1 X54.403 Y54.488 E.1675 ; skirt
M204 P1000 ; adjust acceleration
; printing object combo jig 1mm.stl id:0 copy 0
;WIPE_START
G1 F8640
G1 X56.73 Y52.16 E-.76 ; wipe and retract
;WIPE_END
G1 E-.04 F2100 ; retract
G1 Z.6 F720 ; lift Z
G1 X110.357 Y79.202 F10800 ; move to first perimeter point
G1 Z.2 F720 ; restore layer Z
G1 E.8 F2100 ;  ; unretract
M204 P800 ; adjust acceleration
;TYPE:Perimeter
G1 F1200
G1 X119.912 Y69.647 E.42367 ; perimeter
G1 X196.047 Y145.783 E3.37597 ; perimeter
G1 X173.139 Y168.691 E1.01578 ; perimeter
G1 X102.429 Y97.98 E3.13543 ; perimeter
G1 X97.208 Y103.201 E.2315 ; perimeter
G1 X53.953 Y59.946 E1.918 ; perimeter
G1 X72.527 Y41.372 E.8236 ; perimeter
G1 X110.315 Y79.16 E1.67557 ; perimeter
M204 P1000 ; adjust acceleration
G1 X110.357 Y78.669 F10800 ; move to first perimeter point
M204 P800 ; adjust acceleration
G1 F1200
G1 X119.912 Y69.114 E.42367 ; perimeter
G1 X196.58 Y145.783 E3.39962 ; perimeter
G1 X173.139 Y169.224 E1.03942 ; perimeter
G1 X102.429 Y98.513 E3.13543 ; perimeter
M73 P1 R118
M73 Q1 S119
G1 X97.208 Y103.734 E.2315 ; perimeter
M73 Q1 S118
G1 X53.42 Y59.946 E1.94164 ; perimeter
G1 X72.527 Y40.839 E.84725 ; perimeter
M73 P1 R117
G1 X110.315 Y78.627 E1.67557 ; perimeter
M204 P1000 ; adjust acceleration
G1 X110.357 Y78.136 F10800 ; move to first perimeter point
M204 P800 ; adjust acceleration
;TYPE:External perimeter
G1 F1200
G1 X119.912 Y68.581 E.42367 ; perimeter
G1 X197.114 Y145.783 E3.42326 ; perimeter
G1 X173.139 Y169.757 E1.06307 ; perimeter
G1 X102.429 Y99.047 E3.13543 ; perimeter
G1 X97.208 Y104.268 E.2315 ; perimeter
G1 X52.886 Y59.946 E1.96529 ; perimeter
G1 X72.527 Y40.306 E.8709 ; perimeter
G1 X110.315 Y78.093 E1.67557 ; perimeter
M204 P1000 ; adjust acceleration
G1 X110.681 Y78.37 F10800 ; move inwards before travel
G1 E-.8 F2100 ; retract
G1 Z.6 F720 ; lift Z
G1 X119.791 Y69.929 F10800 ; move to first infill point
G1 Z.2 F720 ; restore layer Z
G1 E.8 F2100 ;  ; unretract
M204 P800 ; adjust acceleration
;TYPE:Solid infill
;WIDTH:0.423609
G1 F1200
G1 X195.646 Y145.784 E3.39575 ; infill
G1 X195.377 Y146.053 E.01205 ; infill
G1 X119.641 Y70.318 E3.39038 ; infill
G1 X119.372 Y70.587 E.01205 ; infill
G1 X195.108 Y146.323 E3.39038 ; infill
G1 X194.838 Y146.592 E.01205 ; infill
G1 X119.103 Y70.856 E3.39038 ; infill
G1 X118.834 Y71.125 E.01205 ; infill
G1 X194.569 Y146.861 E3.39038 ; infill
G1 X194.3 Y147.13 E.01205 ; infill
G1 X118.565 Y71.395 E3.39038 ; infill
G1 X118.295 Y71.664 E.01205 ; infill
M73 Q1 S117
G1 X194.031 Y147.399 E3.39038 ; infill
G1 X193.762 Y147.668 E.01205 ; infill
M73 P2 R116
G1 X118.026 Y71.933 E3.39038 ; infill
G1 X117.757 Y72.202 E.01205 ; infill
M73 Q2 S117
G1 X193.492 Y147.938 E3.39038 ; infill
G1 X193.223 Y148.207 E.01205 ; infill
G1 X117.488 Y72.471 E3.39038 ; infill
G1 X117.219 Y72.741 E.01205 ; infill
G1 X192.954 Y148.476 E3.39038 ; infill
G1 X192.685 Y148.745 E.01205 ; infill
G1 X116.949 Y73.01 E3.39038 ; infill
G1 X116.68 Y73.279 E.01205 ; infill
G1 X192.416 Y149.014 E3.39038 ; infill
G1 X192.147 Y149.284 E.01205 ; infill
G1 X116.411 Y73.548 E3.39038 ; infill
G1 X116.142 Y73.817 E.01205 ; infill
G1 X191.877 Y149.553 E3.39038 ; infill
G1 X191.608 Y149.822 E.01205 ; infill
G1 X115.873 Y74.087 E3.39038 ; infill
G1 X115.604 Y74.356 E.01205 ; infill
G1 X191.339 Y150.091 E3.39038 ; infill
G1 X191.07 Y150.36 E.01205 ; infill
M73 Q2 S116
G1 X115.334 Y74.625 E3.39038 ; infill
G1 X115.065 Y74.894 E.01205 ; infill
M73 P2 R115
G1 X190.801 Y150.63 E3.39038 ; infill
G1 X190.531 Y150.899 E.01205 ; infill
G1 X114.796 Y75.163 E3.39038 ; infill
G1 X114.527 Y75.432 E.01205 ; infill
G1 X190.262 Y151.168 E3.39038 ; infill
G1 X189.993 Y151.437 E.01205 ; infill
M73 P3 R115
M73 Q3 S116
G1 X114.258 Y75.702 E3.39038 ; infill
G1 X113.988 Y75.971 E.01205 ; infill
G1 X189.724 Y151.706 E3.39038 ; infill
G1 X189.455 Y151.975 E.01205 ; infill
G1 X113.719 Y76.24 E3.39038 ; infill
G1 X113.45 Y76.509 E.01205 ; infill
G1 X189.185 Y152.245 E3.39038 ; infill
G1 X188.916 Y152.514 E.01205 ; infill
G1 X113.181 Y76.778 E3.39038 ; infill
G1 X112.912 Y77.048 E.01205 ; infill
G1 X188.647 Y152.783 E3.39038 ; infill
G1 X188.378 Y153.052 E.01205 ; infill
G1 X112.642 Y77.317 E3.39038 ; infill
G1 X112.373 Y77.586 E.01205 ; infill
M73 Q3 S115
G1 X188.109 Y153.321 E3.39038 ; infill
G1 X187.84 Y153.591 E.01205 ; infill
M73 P3 R114
G1 X112.104 Y77.855 E3.39038 ; infill
G1 X111.835 Y78.124 E.01205 ; infill
G1 X187.57 Y153.86 E3.39038 ; infill
G1 X187.301 Y154.129 E.01205 ; infill
G1 X111.566 Y78.394 E3.39038 ; infill
G1 X111.297 Y78.663 E.01205 ; infill
G1 X187.032 Y154.398 E3.39038 ; infill
G1 X186.763 Y154.667 E.01205 ; infill
G1 X111.027 Y78.932 E3.39038 ; infill
G1 X110.758 Y79.201 E.01205 ; infill
M73 P4 R114
M73 Q4 S115
G1 X186.494 Y154.937 E3.39038 ; infill
G1 X186.224 Y155.206 E.01205 ; infill
G1 X110.489 Y79.47 E3.39038 ; infill
G1 X110.357 Y79.602 E.0059 ; infill
G1 X72.527 Y41.772 E1.69351 ; infill
G1 X72.39 Y41.909 E.00615 ; infill
G1 X185.955 Y155.475 E5.08389 ; infill
G1 X185.686 Y155.744 E.01205 ; infill
G1 X72.12 Y42.178 E5.08389 ; infill
G1 X71.851 Y42.448 E.01205 ; infill
M73 Q4 S114
G1 X185.417 Y156.013 E5.08389 ; infill
G1 X185.148 Y156.282 E.01205 ; infill
M73 P4 R113
G1 X71.582 Y42.717 E5.08389 ; infill
G1 X71.313 Y42.986 E.01205 ; infill
G1 X184.878 Y156.552 E5.08389 ; infill
G1 X184.609 Y156.821 E.01205 ; infill
G1 X71.044 Y43.255 E5.08389 ; infill
G1 X70.774 Y43.524 E.01205 ; infill
G1 X184.34 Y157.09 E5.08389 ; infill
G1 X184.071 Y157.359 E.01205 ; infill
M73 P5 R113
G1 X70.505 Y43.794 E5.08389 ; infill
G1 X70.236 Y44.063 E.01205 ; infill
M73 Q5 S114
G1 X183.802 Y157.628 E5.08389 ; infill
G1 X183.533 Y157.898 E.01205 ; infill
G1 X69.967 Y44.332 E5.08389 ; infill
G1 X69.698 Y44.601 E.01205 ; infill
M73 P5 R112
M73 Q5 S113
G1 X183.263 Y158.167 E5.08389 ; infill
G1 X182.994 Y158.436 E.01205 ; infill
G1 X69.428 Y44.87 E5.08389 ; infill
G1 X69.159 Y45.14 E.01205 ; infill
G1 X182.725 Y158.705 E5.08389 ; infill
G1 X182.456 Y158.974 E.01205 ; infill
G1 X68.89 Y45.409 E5.08389 ; infill
G1 X68.621 Y45.678 E.01205 ; infill
G1 X182.187 Y159.244 E5.08389 ; infill
G1 X181.917 Y159.513 E.01205 ; infill
G1 X68.352 Y45.947 E5.08389 ; infill
G1 X68.083 Y46.216 E.01205 ; infill
M73 P6 R112
G1 X181.648 Y159.782 E5.08389 ; infill
G1 X181.379 Y160.051 E.01205 ; infill
M73 P6 R111
M73 Q6 S112
G1 X67.813 Y46.485 E5.08389 ; infill
G1 X67.544 Y46.755 E.01205 ; infill
G1 X181.11 Y160.32 E5.08389 ; infill
G1 X180.841 Y160.59 E.01205 ; infill
G1 X67.275 Y47.024 E5.08389 ; infill
G1 X67.006 Y47.293 E.01205 ; infill
G1 X180.571 Y160.859 E5.08389 ; infill
G1 X180.302 Y161.128 E.01205 ; infill
G1 X66.737 Y47.562 E5.08389 ; infill
G1 X66.467 Y47.831 E.01205 ; infill
G1 X180.033 Y161.397 E5.08389 ; infill
G1 X179.764 Y161.666 E.01205 ; infill
G1 X66.198 Y48.101 E5.08389 ; infill
G1 X65.929 Y48.37 E.01205 ; infill
M73 Q6 S111
G1 X179.495 Y161.935 E5.08389 ; infill
G1 X179.226 Y162.205 E.01205 ; infill
M73 P7 R110
G1 X65.66 Y48.639 E5.08389 ; infill
G1 X65.391 Y48.908 E.01205 ; infill
M73 Q7 S111
G1 X178.956 Y162.474 E5.08389 ; infill
G1 X178.687 Y162.743 E.01205 ; infill
G1 X65.121 Y49.177 E5.08389 ; infill
G1 X64.852 Y49.447 E.01205 ; infill
G1 X178.418 Y163.012 E5.08389 ; infill
G1 X178.149 Y163.281 E.01205 ; infill
G1 X64.583 Y49.716 E5.08389 ; infill
G1 X64.314 Y49.985 E.01205 ; infill
G1 X177.88 Y163.551 E5.08389 ; infill
G1 X177.61 Y163.82 E.01205 ; infill
G1 X64.045 Y50.254 E5.08389 ; infill
G1 X63.776 Y50.523 E.01205 ; infill
M73 P7 R109
M73 Q7 S110
G1 X177.341 Y164.089 E5.08389 ; infill
G1 X177.072 Y164.358 E.01205 ; infill
G1 X63.506 Y50.792 E5.08389 ; infill
G1 X63.237 Y51.062 E.01205 ; infill
M73 P8 R109
G1 X176.803 Y164.627 E5.08389 ; infill
G1 X176.534 Y164.897 E.01205 ; infill
M73 Q8 S110
G1 X62.968 Y51.331 E5.08389 ; infill
G1 X62.699 Y51.6 E.01205 ; infill
G1 X176.264 Y165.166 E5.08389 ; infill
G1 X175.995 Y165.435 E.01205 ; infill
G1 X62.43 Y51.869 E5.08389 ; infill
G1 X62.16 Y52.138 E.01205 ; infill
G1 X175.726 Y165.704 E5.08389 ; infill
G1 X175.457 Y165.973 E.01205 ; infill
M73 Q8 S109
G1 X61.891 Y52.408 E5.08389 ; infill
G1 X61.622 Y52.677 E.01205 ; infill
M73 P8 R108
G1 X175.188 Y166.242 E5.08389 ; infill
G1 X174.919 Y166.512 E.01205 ; infill
G1 X61.353 Y52.946 E5.08389 ; infill
G1 X61.084 Y53.215 E.01205 ; infill
G1 X174.649 Y166.781 E5.08389 ; infill
G1 X174.38 Y167.05 E.01205 ; infill
M73 P9 R108
G1 X60.814 Y53.484 E5.08389 ; infill
G1 X60.545 Y53.754 E.01205 ; infill
M73 Q9 S109
G1 X174.111 Y167.319 E5.08389 ; infill
G1 X173.842 Y167.588 E.01205 ; infill
G1 X60.276 Y54.023 E5.08389 ; infill
G1 X60.007 Y54.292 E.01205 ; infill
G1 X173.573 Y167.858 E5.08389 ; infill
G1 X173.303 Y168.127 E.01205 ; infill
M73 P9 R107
M73 Q9 S108
G1 X59.738 Y54.561 E5.08389 ; infill
G1 X59.469 Y54.83 E.01205 ; infill
G1 X102.324 Y97.685 E1.91845 ; infill
G1 X102.054 Y97.954 E.01205 ; infill
G1 X59.199 Y55.099 E1.91845 ; infill
G1 X58.93 Y55.369 E.01205 ; infill
G1 X101.785 Y98.224 E1.91845 ; infill
G1 X101.516 Y98.493 E.01205 ; infill
G1 X58.661 Y55.638 E1.91845 ; infill
G1 X58.392 Y55.907 E.01205 ; infill
G1 X101.247 Y98.762 E1.91845 ; infill
G1 X100.978 Y99.031 E.01205 ; infill
G1 X58.123 Y56.176 E1.91845 ; infill
G1 X57.853 Y56.445 E.01205 ; infill
G1 X100.708 Y99.3 E1.91845 ; infill
G1 X100.439 Y99.57 E.01205 ; infill
G1 X57.584 Y56.715 E1.91845 ; infill
G1 X57.315 Y56.984 E.01205 ; infill
G1 X100.17 Y99.839 E1.91845 ; infill
G1 X99.901 Y100.108 E.01205 ; infill
M73 P10 R107
G1 X57.046 Y57.253 E1.91845 ; infill
G1 X56.777 Y57.522 E.01205 ; infill
G1 X99.632 Y100.377 E1.91845 ; infill
G1 X99.362 Y100.646 E.01205 ; infill
M73 Q10 S108
G1 X56.507 Y57.791 E1.91845 ; infill
G1 X56.238 Y58.061 E.01205 ; infill
G1 X99.093 Y100.916 E1.91845 ; infill
G1 X98.824 Y101.185 E.01205 ; infill
G1 X55.969 Y58.33 E1.91845 ; infill
G1 X55.7 Y58.599 E.01205 ; infill
G1 X98.555 Y101.454 E1.91845 ; infill
G1 X98.286 Y101.723 E.01205 ; infill
G1 X55.431 Y58.868 E1.91845 ; infill
G1 X55.162 Y59.137 E.01205 ; infill
M73 Q10 S107
G1 X98.017 Y101.992 E1.91845 ; infill
G1 X97.747 Y102.261 E.01205 ; infill
M73 P10 R106
G1 X54.892 Y59.406 E1.91845 ; infill
G1 X54.623 Y59.676 E.01205 ; infill
G1 X97.478 Y102.531 E1.91845 ; infill
G1 X97.209 Y102.8 E.01205 ; infill
G1 X54.234 Y59.825 E1.92382 ; infill
M204 P1000 ; adjust acceleration
; stop printing object combo jig 1mm.stl id:0 copy 0
M106 S84.15 ; enable fan
;LAYER_CHANGE
;Z:0.4
;HEIGHT:0.2
;BEFORE_LAYER_CHANGE
G92 E0.0
;0.4


;WIPE_START
G1 F8640
G1 X56.561 Y62.152 E-.76 ; wipe and retract
;WIPE_END
G1 E-.04 F2100 ; retract
G1 Z.6 F720 ; lift Z
;AFTER_LAYER_CHANGE
;0.4
M104 S215 ; set temperature
G1 X53.857 Y64.857 F10800 ; move to first skirt point
G1 Z.4 F720 ; restore layer Z
G1 E.8 F2100 ;  ; unretract
;TYPE:Skirt/Brim
;WIDTH:0.42
G1 F3000
G1 X50.626 Y61.627 E.14326 ; skirt
G1 X49.978 Y60.426 E.04278 ; skirt
G1 X50.098 Y59.067 E.04278 ; skirt
G1 X50.626 Y58.265 E.03008 ; skirt
G1 X70.846 Y38.045 E.89661 ; skirt
G1 X72.047 Y37.398 E.04278 ; skirt
G1 X73.745 Y37.684 E.05399 ; skirt
G1 X121.13 Y65.96 E1.73013 ; skirt
G1 X121.593 Y66.32 E.01839 ; skirt
G1 X199.374 Y144.102 E3.44897 ; skirt
G1 X200.022 Y145.303 E.04278 ; skirt
G1 X199.902 Y146.662 E.04278 ; skirt
G1 X199.374 Y147.464 E.03008 ; skirt
G1 X174.82 Y172.018 E1.08878 ; skirt
G1 X173.619 Y172.665 E.04278 ; skirt
G1 X172.26 Y172.546 E.04278 ; skirt
G1 X171.587 Y172.137 E.02468 ; skirt
G1 X95.655 Y106.647 E3.14396 ; skirt
G1 X53.899 Y64.9 E1.85134 ; skirt
; printing object combo jig 1mm.stl id:0 copy 0
;WIPE_START
G1 F8640
G1 X51.572 Y62.573 E-.76 ; wipe and retract
;WIPE_END
G1 E-.04 F2100 ; retract
G1 Z.8 F720 ; lift Z
G1 X59.338 Y64.746 F10800 ; move to first perimeter point
G1 X109.709 Y77.772 ; move to first perimeter point
G1 X110.357 Y78.42 ; move to first perimeter point
G1 X110.357 Y79.025 ; move to first perimeter point
G1 Z.4 F720 ; restore layer Z
G1 E.8 F2100 ;  ; unretract
M204 P800 ; adjust acceleration
;TYPE:Perimeter
;WIDTH:0.45
G1 F3600
G1 X119.912 Y69.471 E.45738 ; perimeter
G1 X196.224 Y145.783 E3.65302 ; perimeter
G1 X173.139 Y168.868 E1.10505 ; perimeter
G1 X102.429 Y98.157 E3.38488 ; perimeter
G1 X97.891 Y102.694 E.2172 ; perimeter
G1 X54.46 Y59.262 E2.07905 ; perimeter
G1 X72.527 Y41.195 E.86486 ; perimeter
G1 X110.315 Y78.983 E1.80888 ; perimeter
M204 P1000 ; adjust acceleration
G1 X110.357 Y78.45 F10800 ; move to first perimeter point
M204 P800 ; adjust acceleration
G1 F3600
G1 X119.912 Y68.895 E.45738 ; perimeter
G1 X196.8 Y145.783 E3.68058 ; perimeter
G1 X173.139 Y169.443 E1.13261 ; perimeter
G1 X102.429 Y98.733 E3.38488 ; perimeter
G1 X97.891 Y103.27 E.2172 ; perimeter
G1 X53.884 Y59.262 E2.10661 ; perimeter
G1 X72.527 Y40.62 E.89242 ; perimeter
G1 X110.315 Y78.407 E1.80888 ; perimeter
M204 P1000 ; adjust acceleration
G1 X110.357 Y77.874 F10800 ; move to first perimeter point
M204 P800 ; adjust acceleration
;TYPE:External perimeter
G1 F2100
G1 X119.912 Y68.319 E.45738 ; perimeter
G1 X197.375 Y145.783 E3.70814 ; perimeter
G1 X173.139 Y170.019 E1.16017 ; perimeter
G1 X102.429 Y99.308 E3.38488 ; perimeter
G1 X97.891 Y103.846 E.2172 ; perimeter
G1 X53.308 Y59.262 E2.13417 ; perimeter
G1 X72.527 Y40.044 E.91998 ; perimeter
