; generated by PrusaSlicer 2.4.2+win64 on 2022-07-08 at 17:43:14 UTC


;
;
; 

; external perimeters extrusion width = 0.45mm
; perimeters extrusion width = 0.45mm
; infill extrusion width = 0.45mm
; solid infill extrusion width = 0.45mm
; top infill extrusion width = 0.40mm
; first layer extrusion width = 0.42mm

M73 P0 R16
M73 Q0 S16
M201 X1000 Y1000 Z200 E8000 ; sets maximum accelerations, mm/sec^2
M203 X200 Y200 Z12 E120 ; sets maximum feedrates, mm / sec
M204 P1250 R1250 T1500 ; sets acceleration (P, T) and retract acceleration (R), mm/sec^2
M205 X8.00 Y8.00 Z0.40 E4.50 ; sets the jerk limits, mm/sec
M205 S0 T0 ; sets the minimum extruding and travel feed rate, mm/sec
M107 ; disable fan
;TYPE:Custom
M862.3 P "MK3SMMU2S" ; printer model check
M862.1 P0.4 ; nozzle diameter check
M115 U3.11.0 ; tell printer latest fw version
G90 ; use absolute coordinates
M83 ; extruder relative mode
M104 S225 ; set extruder temp
M140 S60 ; set bed temp
M190 S60 ; wait for bed temp
M109 S225 ; wait for extruder temp
G28 W ; home all without mesh bed level
G80 ; mesh bed leveling

; Send the filament type to the MMU2.0 unit.
; E stands for extruder number, F stands for filament type (0: default; 1:flex; 2: PVA)
M403 E0 F0
M403 E1 F0
M403 E2 F0
M403 E3 F0
M403 E4 F0


;go outside print area
G1 Y-3 F1000
G1 Z0.4 F1000
; select extruder
T0
; initial load
G1 X55 E29 F1073
G1 X5 E29 F1800
G1 X55 E8 F2000
G1 Z0.3 F1000
G92 E0
G1 X240 E25 F2200
G1 Y-2 F1000
M73 P1 R15
M73 Q1 S16
G1 X55 E25 F1400
G1 Z0.2 F1000
M73 P2 R15
M73 Q2 S15
G1 X5 E4 F1000
G92 E0


M221 S95
G92 E0

; Don't change E values below. Excessive value can damage the printer.

G21 ; set units to millimeters
G90 ; use absolute coordinates
M83 ; use relative distances for extrusion
M900 K0.05 ; Filament gcode LA 1.5
M900 K30 ; Filament gcode LA 1.0
M107 ; disable fan
;LAYER_CHANGE
;Z:0.2
;HEIGHT:0.2
;BEFORE_LAYER_CHANGE
G92 E0.0
;0.2


G1 E-.8 F2100 ; retract
G1 Z.4 F720 ; lift Z
;AFTER_LAYER_CHANGE
;0.2
G1 X110.461 Y92.902 F10800 ; move to first skirt point
G1 Z.2 F720 ; restore layer Z
G1 E.8 F2100 ;  ; unretract
M204 P800 ; adjust acceleration
;TYPE:Skirt/Brim
;WIDTH:0.42
G1 F1200
G1 X111.754 Y91.498 E.05985 ; skirt
G1 X112.983 Y90.394 E.05178 ; skirt
G1 X114.52 Y89.255 E.05999 ; skirt
G1 X116.216 Y88.249 E.06184 ; skirt
G1 X117.711 Y87.547 E.05178 ; skirt
G1 X119.507 Y86.901 E.05985 ; skirt
G1 X121.426 Y86.427 E.06198 ; skirt
G1 X123.06 Y86.186 E.05177 ; skirt
G1 X125.038 Y86.086 E.06209 ; skirt
G1 X126.475 Y86.143 E.04511 ; skirt
G1 X127.939 Y86.316 E.0462 ; skirt
G1 X130.528 Y86.912 E.0833 ; skirt
G1 X131.919 Y87.397 E.0462 ; skirt
G1 X133.241 Y87.975 E.04523 ; skirt
G1 X134.573 Y88.687 E.04735 ; skirt
G1 X135.814 Y89.482 E.04621 ; skirt
G1 X137.43 Y90.743 E.06427 ; skirt
G1 X138.849 Y92.119 E.06198 ; skirt
G1 X146.961 Y101.261 E.3832 ; skirt
G1 X147.654 Y103.088 E.06127 ; skirt
G1 X147.654 Y111.912 E.2767 ; skirt
G1 X146.847 Y113.86 E.06609 ; skirt
G1 X143.86 Y116.847 E.13247 ; skirt
G1 X143.085 Y117.392 E.02969 ; skirt
G1 X132.88 Y122.194 E.35364 ; skirt
G1 X131.384 Y122.804 E.05063 ; skirt
G1 X129.908 Y123.266 E.0485 ; skirt
G1 X128.081 Y123.661 E.0586 ; skirt
G1 X126.539 Y123.851 E.04874 ; skirt
G1 X124.966 Y123.914 E.04934 ; skirt
G1 X123.023 Y123.811 E.061 ; skirt
G1 X121.071 Y123.501 E.06197 ; skirt
G1 X119.472 Y123.088 E.05178 ; skirt
G1 X117.677 Y122.439 E.05985 ; skirt
G1 X115.897 Y121.579 E.06198 ; skirt
G1 X114.485 Y120.722 E.05177 ; skirt
G1 X112.902 Y119.539 E.06198 ; skirt
G1 X111.498 Y118.246 E.05985 ; skirt
G1 X110.394 Y117.017 E.05178 ; skirt
G1 X109.255 Y115.48 E.05999 ; skirt
G1 X108.249 Y113.784 E.06184 ; skirt
G1 X107.547 Y112.289 E.05178 ; skirt
G1 X106.901 Y110.493 E.05985 ; skirt
G1 X106.427 Y108.574 E.06198 ; skirt
M73 P3 R15
M73 Q3 S15
G1 X106.186 Y106.94 E.05178 ; skirt
G1 X106.086 Y104.966 E.06198 ; skirt
G1 X106.189 Y103.023 E.061 ; skirt
G1 X106.498 Y101.074 E.06187 ; skirt
G1 X106.912 Y99.472 E.05188 ; skirt
G1 X107.561 Y97.677 E.05985 ; skirt
G1 X108.421 Y95.897 E.06198 ; skirt
G1 X109.28 Y94.483 E.05188 ; skirt
G1 X110.425 Y92.95 E.05999 ; skirt
M204 P1000 ; adjust acceleration
G1 X110.727 Y93.175 F10800 ; move to first skirt point
M204 P800 ; adjust acceleration
G1 F1200
G1 X112.021 Y91.765 E.06003 ; skirt
G1 X113.219 Y90.688 E.05052 ; skirt
G1 X114.728 Y89.569 E.05888 ; skirt
G1 X116.395 Y88.582 E.06074 ; skirt
G1 X117.853 Y87.896 E.05052 ; skirt
G1 X119.616 Y87.262 E.05875 ; skirt
G1 X121.501 Y86.796 E.06088 ; skirt
G1 X123.095 Y86.561 E.05052 ; skirt
G1 X125.038 Y86.463 E.06099 ; skirt
G1 X126.513 Y86.525 E.0463 ; skirt
G1 X127.915 Y86.694 E.04428 ; skirt
G1 X129.366 Y86.984 E.04641 ; skirt
G1 X130.76 Y87.381 E.04542 ; skirt
G1 X133.165 Y88.358 E.08142 ; skirt
G1 X134.44 Y89.047 E.04542 ; skirt
G1 X135.627 Y89.812 E.04428 ; skirt
G1 X137.181 Y91.027 E.06187 ; skirt
G1 X138.576 Y92.378 E.06088 ; skirt
G1 X146.679 Y101.511 E.38281 ; skirt
G1 X147.277 Y103.088 E.05288 ; skirt
G1 X147.277 Y111.912 E.2767 ; skirt
G1 X146.581 Y113.593 E.05704 ; skirt
G1 X143.593 Y116.581 E.13247 ; skirt
G1 X142.925 Y117.051 E.02563 ; skirt
G1 X132.719 Y121.853 E.35364 ; skirt
G1 X131.32 Y122.426 E.0474 ; skirt
G1 X129.844 Y122.893 E.04854 ; skirt
G1 X128.37 Y123.228 E.0474 ; skirt
G1 X126.54 Y123.473 E.0579 ; skirt
G1 X124.966 Y123.537 E.04938 ; skirt
G1 X123.063 Y123.436 E.05974 ; skirt
G1 X121.146 Y123.132 E.06087 ; skirt
G1 X119.586 Y122.729 E.05052 ; skirt
G1 X117.824 Y122.092 E.05875 ; skirt
G1 X116.075 Y121.247 E.06088 ; skirt
G1 X114.698 Y120.411 E.05052 ; skirt
G1 X113.143 Y119.249 E.06087 ; skirt
G1 X111.765 Y117.979 E.05875 ; skirt
G1 X110.688 Y116.781 E.05052 ; skirt
G1 X109.569 Y115.272 E.05888 ; skirt
G1 X108.581 Y113.605 E.06074 ; skirt
G1 X107.896 Y112.147 E.05052 ; skirt
G1 X107.262 Y110.384 E.05875 ; skirt
G1 X106.796 Y108.499 E.06088 ; skirt
G1 X106.561 Y106.905 E.05052 ; skirt
G1 X106.463 Y104.966 E.06088 ; skirt
G1 X106.564 Y103.063 E.05974 ; skirt
G1 X106.867 Y101.149 E.06077 ; skirt
G1 X107.271 Y99.586 E.05062 ; skirt
G1 X107.908 Y97.824 E.05875 ; skirt
G1 X108.753 Y96.075 E.06088 ; skirt
G1 X109.591 Y94.695 E.05062 ; skirt
G1 X110.691 Y93.224 E.05761 ; skirt
M204 P1000 ; adjust acceleration
;WIPE_START
G1 F8640
G1 X112.021 Y91.765 E-.45585 ; wipe and retract
G1 X113.001 Y90.884 E-.30415 ; wipe and retract
;WIPE_END
G1 E-.04 F2100 ; retract
G1 Z.6 F720 ; lift Z
G1 X112.771 Y94.901 F10800 ; move to first brim point
G1 Z.2 F720 ; restore layer Z
G1 E.8 F2100 ;  ; unretract
M204 P800 ; adjust acceleration
G1 F1200
G1 X113.09 Y94.506 E.01594 ; brim
G1 X113.63 Y93.923 E.0249 ; brim
G1 X114.192 Y93.374 E.02466 ; brim
G1 X115.241 Y92.481 E.04319 ; brim
G1 X115.879 Y92.009 E.0249 ; brim
G1 X116.533 Y91.572 E.02465 ; brim
G1 X117.733 Y90.887 E.04332 ; brim
G1 X118.5 Y90.518 E.02668 ; brim
G1 X119.287 Y90.19 E.02674 ; brim
G1 X120.019 Y89.928 E.02436 ; brim
G1 X120.767 Y89.701 E.02454 ; brim
G1 X122.115 Y89.391 E.04335 ; brim
G1 X122.925 Y89.263 E.02571 ; brim
G1 X123.751 Y89.176 E.02606 ; brim
G1 X124.584 Y89.132 E.02616 ; brim
G1 X125.406 Y89.132 E.02576 ; brim
G1 X126.228 Y89.174 E.0258 ; brim
G1 X127.05 Y89.259 E.02593 ; brim
G1 X128.41 Y89.497 E.04328 ; brim
G1 X129.205 Y89.694 E.02565 ; brim
G1 X129.981 Y89.928 E.02544 ; brim
G1 X130.752 Y90.206 E.0257 ; brim
G1 X131.507 Y90.521 E.02566 ; brim
G1 X132.743 Y91.143 E.04337 ; brim
G1 X133.483 Y91.584 E.02701 ; brim
G1 X134.186 Y92.055 E.02654 ; brim
G1 X134.861 Y92.561 E.02645 ; brim
G1 X135.509 Y93.104 E.0265 ; brim
G1 X136.128 Y93.681 E.02654 ; brim
G1 X136.713 Y94.287 E.0264 ; brim
G1 X137.242 Y94.896 E.02529 ; brim
G1 X137.746 Y95.539 E.02561 ; brim
G1 X138.406 Y96.502 E.03662 ; brim
G1 X138.88 Y97.298 E.02905 ; brim
G1 X139.296 Y98.102 E.02839 ; brim
G1 X139.764 Y99.171 E.03656 ; brim
G1 X140.067 Y100.005 E.02783 ; brim
G1 X140.196 Y100.432 E.01399 ; brim
G1 X140.72 Y100.462 E.01645 ; brim
G1 X141.86 Y100.836 E.03761 ; brim
G1 X142.766 Y101.392 E.03335 ; brim
G1 X143.509 Y102.127 E.03276 ; brim
G1 X144.021 Y102.843 E.02759 ; brim
G1 X144.613 Y104.753 E.06273 ; brim
G1 X144.613 Y110.225 E.17154 ; brim
G1 X144.208 Y111.761 E.04983 ; brim
M73 P4 R15
M73 Q4 S15
G1 X143.524 Y112.864 E.04068 ; brim
G1 X142.565 Y113.755 E.04105 ; brim
G1 X141.773 Y114.204 E.02854 ; brim
G1 X140.463 Y114.578 E.04274 ; brim
G1 X137.623 Y114.6 E.08905 ; brim
G1 X137.247 Y115.099 E.01957 ; brim
G1 X136.6 Y115.834 E.0307 ; brim
G1 X135.801 Y116.632 E.03542 ; brim
G1 X135.053 Y117.283 E.03108 ; brim
G1 X134.072 Y118.026 E.03859 ; brim
G1 X133.061 Y118.674 E.03764 ; brim
G1 X131.998 Y119.247 E.03789 ; brim
G1 X131.062 Y119.67 E.03219 ; brim
G1 X130.007 Y120.063 E.03531 ; brim
G1 X128.79 Y120.414 E.03969 ; brim
G1 X127.858 Y120.614 E.02991 ; brim
G1 X126.621 Y120.79 E.03917 ; brim
G1 X125.541 Y120.864 E.03392 ; brim
G1 X124.506 Y120.866 E.03244 ; brim
G1 X123.703 Y120.82 E.02524 ; brim
G1 X122.898 Y120.734 E.02537 ; brim
G1 X122.098 Y120.606 E.02541 ; brim
G1 X121.305 Y120.437 E.02542 ; brim
G1 X120.489 Y120.219 E.02648 ; brim
G1 X119.671 Y119.952 E.027 ; brim
G1 X118.392 Y119.433 E.04326 ; brim
G1 X117.685 Y119.087 E.02469 ; brim
G1 X116.989 Y118.704 E.02491 ; brim
G1 X115.83 Y117.957 E.04322 ; brim
G1 X115.176 Y117.468 E.0256 ; brim
G1 X114.552 Y116.95 E.02543 ; brim
G1 X113.954 Y116.4 E.02548 ; brim
G1 X113.387 Y115.822 E.02539 ; brim
G1 X112.823 Y115.182 E.02675 ; brim
G1 X112.293 Y114.514 E.02673 ; brim
G1 X111.513 Y113.372 E.04336 ; brim
G1 X111.1 Y112.665 E.02566 ; brim
G1 X110.723 Y111.938 E.02569 ; brim
G1 X110.387 Y111.198 E.02547 ; brim
G1 X110.087 Y110.438 E.02563 ; brim
G1 X109.671 Y109.122 E.04329 ; brim
G1 X109.479 Y108.327 E.02563 ; brim
G1 X109.329 Y107.529 E.02546 ; brim
G1 X109.22 Y106.717 E.02569 ; brim
G1 X109.152 Y105.901 E.02566 ; brim
G1 X109.133 Y104.521 E.04328 ; brim
G1 X109.18 Y103.704 E.02566 ; brim
G1 X109.267 Y102.889 E.0257 ; brim
G1 X109.396 Y102.088 E.02544 ; brim
G1 X109.566 Y101.288 E.02566 ; brim
G1 X109.947 Y99.961 E.04328 ; brim
G1 X110.227 Y99.193 E.02562 ; brim
G1 X110.543 Y98.444 E.02548 ; brim
G1 X110.906 Y97.697 E.02605 ; brim
G1 X111.304 Y96.975 E.02584 ; brim
G1 X111.745 Y96.266 E.02617 ; brim
G1 X112.223 Y95.58 E.02624 ; brim
G1 X112.733 Y94.948 E.02545 ; brim
M204 P1000 ; adjust acceleration
G1 X113.026 Y95.185 F10800 ; move to first brim point
M204 P800 ; adjust acceleration
G1 F1200
G1 X113.371 Y94.757 E.01721 ; brim
G1 X113.897 Y94.19 E.02426 ; brim
G1 X114.451 Y93.648 E.02431 ; brim
G1 X115.47 Y92.78 E.04197 ; brim
G1 X116.092 Y92.32 E.02426 ; brim
G1 X116.737 Y91.89 E.02431 ; brim
G1 X117.903 Y91.224 E.04208 ; brim
G1 X118.659 Y90.86 E.02632 ; brim
G1 X119.419 Y90.544 E.02581 ; brim
G1 X120.141 Y90.285 E.02406 ; brim
G1 X120.871 Y90.064 E.02391 ; brim
G1 X122.18 Y89.762 E.04212 ; brim
G1 X122.978 Y89.636 E.02535 ; brim
G1 X123.786 Y89.551 E.02545 ; brim
G1 X124.599 Y89.509 E.02554 ; brim
G1 X125.401 Y89.509 E.02514 ; brim
G1 X126.203 Y89.55 E.02519 ; brim
G1 X127.005 Y89.634 E.02527 ; brim
G1 X128.326 Y89.864 E.04205 ; brim
G1 X129.1 Y90.056 E.025 ; brim
G1 X129.867 Y90.288 E.02513 ; brim
G1 X130.62 Y90.559 E.02509 ; brim
G1 X131.356 Y90.867 E.02501 ; brim
G1 X132.556 Y91.47 E.04213 ; brim
G1 X133.278 Y91.9 E.02632 ; brim
G1 X133.964 Y92.36 E.02591 ; brim
G1 X134.623 Y92.854 E.02582 ; brim
G1 X135.256 Y93.383 E.02587 ; brim
G1 X135.861 Y93.946 E.02591 ; brim
G1 X136.432 Y94.538 E.02578 ; brim
G1 X136.948 Y95.132 E.02468 ; brim
G1 X137.438 Y95.757 E.0249 ; brim
G1 X138.092 Y96.71 E.03623 ; brim
G1 X138.553 Y97.486 E.0283 ; brim
G1 X138.953 Y98.259 E.0273 ; brim
G1 X139.416 Y99.316 E.03618 ; brim
G1 X139.711 Y100.129 E.02709 ; brim
G1 X139.913 Y100.801 E.022 ; brim
G1 X140.629 Y100.829 E.02246 ; brim
G1 X141.72 Y101.187 E.03601 ; brim
G1 X142.548 Y101.701 E.03055 ; brim
G1 X143.231 Y102.382 E.03025 ; brim
G1 X143.696 Y103.036 E.02516 ; brim
G1 X144.236 Y104.782 E.0573 ; brim
G1 X144.236 Y110.199 E.16987 ; brim
G1 X143.851 Y111.635 E.04661 ; brim
G1 X143.219 Y112.641 E.03725 ; brim
G1 X142.327 Y113.463 E.03802 ; brim
G1 X141.609 Y113.864 E.0258 ; brim
G1 X140.434 Y114.201 E.03832 ; brim
G1 X137.433 Y114.225 E.09408 ; brim
G1 X136.958 Y114.855 E.02475 ; brim
G1 X136.33 Y115.572 E.02989 ; brim
G1 X135.539 Y116.361 E.03503 ; brim
G1 X134.821 Y116.987 E.02987 ; brim
G1 X133.85 Y117.721 E.03816 ; brim
G1 X132.864 Y118.353 E.03672 ; brim
G1 X131.825 Y118.912 E.03701 ; brim
G1 X130.924 Y119.319 E.03098 ; brim
G1 X129.895 Y119.703 E.03444 ; brim
G1 X128.692 Y120.05 E.03926 ; brim
G1 X127.785 Y120.244 E.02908 ; brim
G1 X126.588 Y120.415 E.03791 ; brim
G1 X125.522 Y120.487 E.03351 ; brim
G1 X124.522 Y120.489 E.03134 ; brim
G1 X123.729 Y120.444 E.02491 ; brim
G1 X122.944 Y120.359 E.02477 ; brim
G1 X122.163 Y120.234 E.0248 ; brim
G1 X121.389 Y120.07 E.02481 ; brim
G1 X120.592 Y119.856 E.02586 ; brim
G1 X119.794 Y119.596 E.02632 ; brim
G1 X118.552 Y119.092 E.04202 ; brim
G1 X117.855 Y118.751 E.02435 ; brim
G1 X117.177 Y118.377 E.02427 ; brim
G1 X116.051 Y117.651 E.042 ; brim
G1 X115.413 Y117.175 E.02494 ; brim
G1 X114.797 Y116.663 E.02513 ; brim
G1 X114.213 Y116.126 E.02488 ; brim
G1 X113.66 Y115.561 E.02478 ; brim
G1 X113.109 Y114.936 E.02613 ; brim
G1 X112.593 Y114.285 E.02605 ; brim
G1 X111.835 Y113.176 E.04212 ; brim
G1 X111.433 Y112.487 E.025 ; brim
G1 X111.064 Y111.777 E.02508 ; brim
G1 X110.732 Y111.047 E.02517 ; brim
G1 X110.44 Y110.306 E.02497 ; brim
G1 X110.036 Y109.027 E.04206 ; brim
G1 X109.847 Y108.244 E.02527 ; brim
G1 X109.701 Y107.464 E.02486 ; brim
G1 X109.594 Y106.671 E.02509 ; brim
G1 X109.528 Y105.877 E.025 ; brim
G1 X109.51 Y104.536 E.04205 ; brim
G1 X109.555 Y103.74 E.025 ; brim
G1 X109.641 Y102.944 E.02509 ; brim
G1 X109.767 Y102.153 E.02513 ; brim
G1 X109.934 Y101.373 E.025 ; brim
G1 X110.304 Y100.084 E.04205 ; brim
G1 X110.576 Y99.335 E.02496 ; brim
G1 X110.889 Y98.596 E.02518 ; brim
G1 X111.243 Y97.866 E.02543 ; brim
G1 X111.632 Y97.162 E.02523 ; brim
G1 X112.063 Y96.47 E.02555 ; brim
G1 X112.529 Y95.801 E.02557 ; brim
G1 X112.988 Y95.231 E.02294 ; brim
M204 P1000 ; adjust acceleration
G1 X113.282 Y95.468 F10800 ; move to first brim point
M204 P800 ; adjust acceleration
G1 F1200
G1 X113.652 Y95.009 E.01848 ; brim
G1 X114.17 Y94.45 E.02391 ; brim
G1 X114.71 Y93.922 E.02367 ; brim
G1 X115.7 Y93.079 E.04075 ; brim
G1 X116.313 Y92.626 E.02391 ; brim
G1 X116.941 Y92.207 E.02367 ; brim
G1 X118.072 Y91.561 E.04085 ; brim
G1 X118.809 Y91.206 E.02564 ; brim
G1 X119.551 Y90.897 E.0252 ; brim
G1 X120.255 Y90.645 E.02347 ; brim
G1 X120.974 Y90.426 E.02356 ; brim
G1 X122.245 Y90.133 E.0409 ; brim
G1 X123.023 Y90.011 E.02468 ; brim
G1 X123.81 Y89.928 E.02483 ; brim
G1 X124.604 Y89.886 E.02492 ; brim
G1 X125.396 Y89.886 E.02483 ; brim
G1 X126.179 Y89.927 E.02458 ; brim
G1 X126.96 Y90.008 E.02461 ; brim
G1 X128.242 Y90.232 E.04082 ; brim
G1 X128.996 Y90.418 E.02434 ; brim
G1 X129.744 Y90.644 E.02452 ; brim
G1 X130.479 Y90.908 E.02448 ; brim
G1 X131.204 Y91.212 E.02465 ; brim
G1 X132.369 Y91.798 E.04088 ; brim
G1 X133.072 Y92.216 E.02564 ; brim
G1 X133.742 Y92.664 E.02528 ; brim
G1 X134.385 Y93.146 E.02519 ; brim
G1 X135.003 Y93.663 E.02524 ; brim
G1 X135.593 Y94.212 E.02529 ; brim
G1 X136.15 Y94.789 E.02516 ; brim
M73 P5 R15
G1 X136.655 Y95.369 E.02408 ; brim
G1 X137.131 Y95.975 E.02418 ; brim
G1 X137.777 Y96.918 E.03584 ; brim
G1 X138.226 Y97.674 E.02755 ; brim
M73 Q5 S15
G1 X138.61 Y98.416 E.02622 ; brim
G1 X139.068 Y99.462 E.03579 ; brim
G1 X139.354 Y100.252 E.02635 ; brim
G1 X139.631 Y101.172 E.03011 ; brim
G1 X140.54 Y101.197 E.02853 ; brim
G1 X141.543 Y101.52 E.03304 ; brim
G1 X142.298 Y101.984 E.02777 ; brim
G1 X142.953 Y102.637 E.02902 ; brim
G1 X143.37 Y103.229 E.02269 ; brim
G1 X143.859 Y104.81 E.0519 ; brim
G1 X143.859 Y110.174 E.16818 ; brim
G1 X143.496 Y111.508 E.04334 ; brim
G1 X142.915 Y112.416 E.0338 ; brim
G1 X142.09 Y113.168 E.035 ; brim
G1 X141.445 Y113.524 E.02308 ; brim
G1 X140.405 Y113.825 E.03396 ; brim
G1 X137.244 Y113.849 E.09911 ; brim
G1 X136.67 Y114.612 E.02994 ; brim
G1 X136.059 Y115.309 E.02907 ; brim
