; generated by PrusaSlicer 2.4.2+win64 on 2022-07-08 at 16:55:49 UTC


;
;
; 

; external perimeters extrusion width = 0.45mm
; perimeters extrusion width = 0.45mm
; infill extrusion width = 0.45mm
; solid infill extrusion width = 0.45mm
; top infill extrusion width = 0.40mm
; first layer extrusion width = 0.42mm

M73 P0 R17
M73 Q0 S18
M201 X1000 Y1000 Z200 E8000 ; sets maximum accelerations, mm/sec^2
M203 X200 Y200 Z12 E120 ; sets maximum feedrates, mm / sec
M204 P1250 R1250 T1500 ; sets acceleration (P, T) and retract acceleration (R), mm/sec^2
M205 X8.00 Y8.00 Z0.40 E4.50 ; sets the jerk limits, mm/sec
M205 S0 T0 ; sets the minimum extruding and travel feed rate, mm/sec
M107 ; disable fan
;TYPE:Custom
M862.3 P "MK3SMMU2S" ; printer model check
M862.1 P0.4 ; nozzle diameter check
M115 U3.11.0 ; tell printer latest fw version
G90 ; use absolute coordinates
M83 ; extruder relative mode
M104 S225 ; set extruder temp
M140 S60 ; set bed temp
M190 S60 ; wait for bed temp
M109 S225 ; wait for extruder temp
G28 W ; home all without mesh bed level
G80 ; mesh bed leveling

; Send the filament type to the MMU2.0 unit.
; E stands for extruder number, F stands for filament type (0: default; 1:flex; 2: PVA)
M403 E0 F0
M403 E1 F0
M403 E2 F0
M403 E3 F0
M403 E4 F0


;go outside print area
G1 Y-3 F1000
G1 Z0.4 F1000
; select extruder
T0
; initial load
G1 X55 E29 F1073
G1 X5 E29 F1800
G1 X55 E8 F2000
G1 Z0.3 F1000
G92 E0
G1 X240 E25 F2200
G1 Y-2 F1000
M73 P1 R17
M73 Q1 S18
G1 X55 E25 F1400
G1 Z0.2 F1000
G1 X5 E4 F1000
G92 E0


M221 S95
G92 E0

; Don't change E values below. Excessive value can damage the printer.

G21 ; set units to millimeters
G90 ; use absolute coordinates
M83 ; use relative distances for extrusion
M900 K0.05 ; Filament gcode LA 1.5
M900 K30 ; Filament gcode LA 1.0
M107 ; disable fan
;LAYER_CHANGE
;Z:0.2
;HEIGHT:0.2
;BEFORE_LAYER_CHANGE
G92 E0.0
;0.2


G1 E-.8 F2100 ; retract
M73 P2 R17
M73 Q2 S18
G1 Z.4 F720 ; lift Z
;AFTER_LAYER_CHANGE
;0.2
G1 X109.515 Y92.116 F10800 ; move to first skirt point
G1 Z.2 F720 ; restore layer Z
G1 E.8 F2100 ;  ; unretract
M204 P800 ; adjust acceleration
;TYPE:Skirt/Brim
;WIDTH:0.42
G1 F1200
G1 X110.863 Y90.649 E.06248 ; skirt
G1 X112.303 Y89.361 E.06056 ; skirt
G1 X113.859 Y88.217 E.06056 ; skirt
G1 X115.518 Y87.227 E.06056 ; skirt
G1 X117.294 Y86.388 E.0616 ; skirt
G1 X119.112 Y85.736 E.06057 ; skirt
G1 X121.334 Y85.192 E.07171 ; skirt
G1 X123.281 Y84.929 E.0616 ; skirt
G1 X125.211 Y84.857 E.06056 ; skirt
G1 X127.139 Y84.97 E.06057 ; skirt
G1 X129.108 Y85.279 E.06248 ; skirt
G1 X130.978 Y85.763 E.06057 ; skirt
G1 X132.823 Y86.437 E.0616 ; skirt
G1 X134.877 Y87.443 E.0717 ; skirt
G1 X136.513 Y88.47 E.06057 ; skirt
G1 X138.068 Y89.67 E.0616 ; skirt
G1 X139.454 Y90.969 E.05953 ; skirt
G1 X140.752 Y92.443 E.0616 ; skirt
G1 X141.882 Y94.01 E.06057 ; skirt
G1 X142.859 Y95.681 E.06069 ; skirt
G1 X143.691 Y97.487 E.06235 ; skirt
G1 X144.324 Y99.312 E.06057 ; skirt
G1 X144.78 Y101.189 E.06056 ; skirt
G1 X145.054 Y103.101 E.06057 ; skirt
G1 X145.144 Y105.064 E.0616 ; skirt
G1 X145.045 Y106.993 E.06056 ; skirt
G1 X144.69 Y109.252 E.07171 ; skirt
G1 X144.182 Y111.15 E.0616 ; skirt
G1 X143.518 Y112.928 E.05953 ; skirt
G1 X142.658 Y114.695 E.0616 ; skirt
G1 X141.648 Y116.341 E.06056 ; skirt
G1 X140.446 Y117.931 E.06248 ; skirt
G1 X139.137 Y119.351 E.06056 ; skirt
G1 X137.697 Y120.639 E.06057 ; skirt
G1 X136.113 Y121.801 E.0616 ; skirt
G1 X134.453 Y122.788 E.06057 ; skirt
G1 X132.376 Y123.745 E.07171 ; skirt
G1 X130.515 Y124.375 E.0616 ; skirt
G1 X128.634 Y124.814 E.06056 ; skirt
G1 X126.715 Y125.071 E.0607 ; skirt
G1 X124.789 Y125.143 E.06043 ; skirt
G1 X122.861 Y125.03 E.06056 ; skirt
G1 X120.892 Y124.721 E.06248 ; skirt
G1 X119.022 Y124.237 E.06056 ; skirt
G1 X117.177 Y123.563 E.0616 ; skirt
G1 X115.123 Y122.556 E.07171 ; skirt
G1 X113.487 Y121.53 E.06057 ; skirt
G1 X111.931 Y120.33 E.0616 ; skirt
G1 X110.543 Y119.028 E.05967 ; skirt
G1 X109.248 Y117.557 E.06146 ; skirt
G1 X108.118 Y115.99 E.06056 ; skirt
G1 X107.115 Y114.268 E.06248 ; skirt
G1 X106.309 Y112.513 E.06056 ; skirt
G1 X105.676 Y110.688 E.06057 ; skirt
G1 X105.22 Y108.811 E.06056 ; skirt
G1 X104.945 Y106.899 E.06057 ; skirt
G1 X104.856 Y104.936 E.0616 ; skirt
G1 X104.955 Y103.007 E.06056 ; skirt
G1 X105.31 Y100.748 E.0717 ; skirt
G1 X105.819 Y98.846 E.06173 ; skirt
G1 X106.482 Y97.072 E.0594 ; skirt
G1 X107.342 Y95.305 E.0616 ; skirt
G1 X108.352 Y93.659 E.06056 ; skirt
G1 X109.478 Y92.164 E.05868 ; skirt
M204 P1000 ; adjust acceleration
G1 X109.779 Y92.391 F10800 ; move to first skirt point
M204 P800 ; adjust acceleration
G1 F1200
G1 X111.128 Y90.918 E.06264 ; skirt
G1 X112.541 Y89.654 E.05943 ; skirt
G1 X114.068 Y88.531 E.05943 ; skirt
G1 X115.696 Y87.56 E.05943 ; skirt
G1 X117.435 Y86.738 E.06032 ; skirt
G1 X119.219 Y86.097 E.05943 ; skirt
G1 X121.406 Y85.563 E.07057 ; skirt
G1 X123.312 Y85.305 E.06032 ; skirt
G1 X125.206 Y85.234 E.05943 ; skirt
G1 X127.099 Y85.345 E.05943 ; skirt
G1 X129.031 Y85.648 E.06134 ; skirt
G1 X130.866 Y86.123 E.05943 ; skirt
G1 X132.674 Y86.783 E.06032 ; skirt
G1 X134.695 Y87.774 E.07057 ; skirt
G1 X136.3 Y88.782 E.05943 ; skirt
G1 X137.823 Y89.957 E.06032 ; skirt
G1 X139.185 Y91.234 E.05854 ; skirt
G1 X140.456 Y92.678 E.06032 ; skirt
G1 X141.566 Y94.215 E.05943 ; skirt
M73 P3 R17
G1 X142.524 Y95.855 E.05956 ; skirt
G1 X143.341 Y97.628 E.06122 ; skirt
G1 X143.963 Y99.419 E.05943 ; skirt
G1 X144.41 Y101.261 E.05943 ; skirt
G1 X144.679 Y103.137 E.05943 ; skirt
G1 X144.767 Y105.059 E.06032 ; skirt
G1 X144.67 Y106.952 E.05943 ; skirt
G1 X144.321 Y109.176 E.07057 ; skirt
G1 X143.823 Y111.034 E.06033 ; skirt
G1 X143.17 Y112.783 E.05854 ; skirt
G1 X142.328 Y114.513 E.06032 ; skirt
G1 X141.337 Y116.129 E.05943 ; skirt
G1 X140.157 Y117.689 E.06135 ; skirt
G1 X138.872 Y119.082 E.05943 ; skirt
G1 X137.459 Y120.346 E.05943 ; skirt
G1 X135.908 Y121.485 E.06032 ; skirt
G1 X134.279 Y122.454 E.05943 ; skirt
G1 X132.235 Y123.395 E.07057 ; skirt
G1 X130.412 Y124.012 E.06032 ; skirt
M73 Q3 S18
G1 X128.566 Y124.443 E.05943 ; skirt
G1 X126.683 Y124.695 E.05956 ; skirt
G1 X124.793 Y124.766 E.0593 ; skirt
G1 X122.901 Y124.655 E.05943 ; skirt
G1 X120.968 Y124.352 E.06135 ; skirt
G1 X119.133 Y123.877 E.05943 ; skirt
G1 X117.326 Y123.217 E.06032 ; skirt
G1 X115.305 Y122.226 E.07057 ; skirt
G1 X113.7 Y121.218 E.05943 ; skirt
G1 X112.176 Y120.043 E.06032 ; skirt
G1 X110.811 Y118.763 E.05868 ; skirt
G1 X109.543 Y117.322 E.06018 ; skirt
G1 X108.434 Y115.785 E.05943 ; skirt
G1 X107.449 Y114.094 E.06135 ; skirt
G1 X106.659 Y112.372 E.05943 ; skirt
G1 X106.037 Y110.581 E.05943 ; skirt
G1 X105.59 Y108.739 E.05943 ; skirt
G1 X105.321 Y106.863 E.05943 ; skirt
G1 X105.233 Y104.941 E.06032 ; skirt
G1 X105.33 Y103.048 E.05943 ; skirt
G1 X105.679 Y100.824 E.07057 ; skirt
G1 X106.178 Y98.962 E.06046 ; skirt
G1 X106.83 Y97.217 E.05841 ; skirt
G1 X107.672 Y95.487 E.06032 ; skirt
G1 X108.663 Y93.871 E.05943 ; skirt
G1 X109.743 Y92.439 E.05625 ; skirt
M204 P1000 ; adjust acceleration
;WIPE_START
G1 F8640
G1 X111.128 Y90.918 E-.47506 ; wipe and retract
G1 X112.048 Y90.095 E-.28494 ; wipe and retract
;WIPE_END
G1 E-.04 F2100 ; retract
G1 Z.6 F720 ; lift Z
G1 X111.795 Y94.138 F10800 ; move to first brim point
G1 Z.2 F720 ; restore layer Z
G1 E.8 F2100 ;  ; unretract
M204 P800 ; adjust acceleration
G1 F1200
G1 X112.091 Y93.78 E.01457 ; brim
G1 X112.644 Y93.174 E.02572 ; brim
G1 X113.224 Y92.596 E.02567 ; brim
G1 X113.84 Y92.039 E.02602 ; brim
G1 X114.484 Y91.512 E.0261 ; brim
G1 X115.15 Y91.017 E.02602 ; brim
G1 X115.834 Y90.56 E.02578 ; brim
G1 X116.544 Y90.133 E.026 ; brim
G1 X117.277 Y89.74 E.02606 ; brim
G1 X118.025 Y89.383 E.02599 ; brim
G1 X118.792 Y89.063 E.02605 ; brim
G1 X119.573 Y88.781 E.02604 ; brim
G1 X120.358 Y88.539 E.02575 ; brim
G1 X121.162 Y88.333 E.02603 ; brim
G1 X121.975 Y88.166 E.02604 ; brim
G1 X122.796 Y88.039 E.02604 ; brim
G1 X123.613 Y87.953 E.02575 ; brim
G1 X124.442 Y87.906 E.02604 ; brim
G1 X125.273 Y87.899 E.02606 ; brim
G1 X126.093 Y87.932 E.02572 ; brim
G1 X126.91 Y88.004 E.02572 ; brim
G1 X127.721 Y88.114 E.02568 ; brim
G1 X128.532 Y88.265 E.02585 ; brim
G1 X129.363 Y88.463 E.02678 ; brim
G1 X130.341 Y88.752 E.03198 ; brim
G1 X131.147 Y89.039 E.02682 ; brim
G1 X131.907 Y89.353 E.02577 ; brim
G1 X132.657 Y89.706 E.02601 ; brim
G1 X133.392 Y90.097 E.02607 ; brim
G1 X134.104 Y90.521 E.02601 ; brim
G1 X134.79 Y90.976 E.0258 ; brim
G1 X135.46 Y91.468 E.02605 ; brim
G1 X136.097 Y91.986 E.02575 ; brim
G1 X136.715 Y92.539 E.02599 ; brim
G1 X137.307 Y93.123 E.02608 ; brim
G1 X137.874 Y93.741 E.0263 ; brim
G1 X138.413 Y94.388 E.02639 ; brim
G1 X138.913 Y95.052 E.02608 ; brim
G1 X139.385 Y95.748 E.02635 ; brim
G1 X139.812 Y96.449 E.02575 ; brim
G1 X140.208 Y97.174 E.0259 ; brim
G1 X140.578 Y97.94 E.02667 ; brim
G1 X140.97 Y98.878 E.03187 ; brim
G1 X141.257 Y99.685 E.02687 ; brim
G1 X141.494 Y100.476 E.02587 ; brim
G1 X141.692 Y101.272 E.02573 ; brim
G1 X141.851 Y102.075 E.02568 ; brim
G1 X141.972 Y102.888 E.02575 ; brim
G1 X142.054 Y103.703 E.02568 ; brim
G1 X142.097 Y104.523 E.02576 ; brim
G1 X142.1 Y105.342 E.02569 ; brim
G1 X142.062 Y106.182 E.02637 ; brim
G1 X141.984 Y107.019 E.02633 ; brim
G1 X141.865 Y107.843 E.02612 ; brim
G1 X141.706 Y108.667 E.02632 ; brim
G1 X141.508 Y109.475 E.02608 ; brim
G1 X141.267 Y110.282 E.02639 ; brim
G1 X140.992 Y111.066 E.02607 ; brim
G1 X140.673 Y111.846 E.02643 ; brim
G1 X140.311 Y112.621 E.02679 ; brim
G1 X139.83 Y113.52 E.03198 ; brim
G1 X139.386 Y114.25 E.02678 ; brim
G1 X138.925 Y114.931 E.02581 ; brim
G1 X138.433 Y115.587 E.02573 ; brim
G1 X137.909 Y116.22 E.02576 ; brim
G1 X137.356 Y116.826 E.02572 ; brim
G1 X136.775 Y117.404 E.02568 ; brim
G1 X136.159 Y117.962 E.02605 ; brim
G1 X135.523 Y118.483 E.0258 ; brim
G1 X134.857 Y118.977 E.02598 ; brim
G1 X134.166 Y119.44 E.02607 ; brim
G1 X133.456 Y119.867 E.026 ; brim
G1 X132.723 Y120.26 E.02607 ; brim
G1 X131.975 Y120.617 E.02599 ; brim
G1 X131.208 Y120.937 E.02604 ; brim
G1 X130.428 Y121.219 E.02604 ; brim
G1 X129.634 Y121.464 E.02603 ; brim
G1 X128.839 Y121.667 E.02575 ; brim
G1 X128.025 Y121.834 E.02605 ; brim
G1 X127.204 Y121.961 E.02605 ; brim
G1 X126.383 Y122.047 E.02588 ; brim
G1 X125.557 Y122.094 E.02594 ; brim
G1 X124.727 Y122.101 E.02602 ; brim
G1 X123.908 Y122.069 E.02568 ; brim
G1 X123.09 Y121.996 E.02576 ; brim
G1 X122.279 Y121.886 E.02568 ; brim
G1 X121.471 Y121.735 E.02576 ; brim
G1 X120.674 Y121.547 E.02568 ; brim
G1 X119.881 Y121.319 E.02585 ; brim
G1 X119.073 Y121.043 E.02678 ; brim
G1 X118.127 Y120.661 E.03197 ; brim
G1 X117.354 Y120.299 E.02678 ; brim
G1 X116.625 Y119.913 E.02585 ; brim
G1 X115.921 Y119.495 E.02568 ; brim
G1 X115.235 Y119.042 E.02576 ; brim
G1 X114.573 Y118.558 E.02573 ; brim
G1 X113.927 Y118.036 E.02603 ; brim
G1 X113.315 Y117.489 E.02574 ; brim
G1 X112.724 Y116.91 E.02594 ; brim
G1 X111.941 Y116.045 E.03659 ; brim
G1 X111.402 Y115.374 E.02699 ; brim
G1 X110.917 Y114.706 E.02586 ; brim
G1 X110.469 Y114.021 E.02568 ; brim
G1 X110.053 Y113.314 E.02571 ; brim
G1 X109.672 Y112.588 E.02572 ; brim
G1 X109.325 Y111.843 E.02576 ; brim
G1 X109.015 Y111.084 E.02568 ; brim
G1 X108.742 Y110.311 E.02571 ; brim
G1 X108.506 Y109.524 E.02576 ; brim
G1 X108.308 Y108.728 E.02572 ; brim
G1 X108.148 Y107.925 E.02568 ; brim
G1 X108.027 Y107.112 E.02576 ; brim
G1 X107.946 Y106.297 E.02568 ; brim
G1 X107.903 Y105.477 E.02576 ; brim
G1 X107.9 Y104.658 E.02569 ; brim
G1 X107.937 Y103.817 E.02639 ; brim
G1 X108.016 Y102.98 E.02635 ; brim
G1 X108.135 Y102.155 E.02613 ; brim
G1 X108.295 Y101.33 E.02634 ; brim
G1 X108.496 Y100.513 E.02641 ; brim
G1 X108.737 Y99.703 E.02648 ; brim
G1 X109.013 Y98.922 E.02596 ; brim
G1 X109.332 Y98.141 E.02646 ; brim
G1 X109.778 Y97.201 E.03262 ; brim
G1 X110.186 Y96.451 E.02678 ; brim
G1 X110.615 Y95.748 E.02581 ; brim
G1 X111.075 Y95.069 E.02572 ; brim
G1 X111.757 Y94.184 E.03503 ; brim
M204 P1000 ; adjust acceleration
G1 X112.047 Y94.424 F10800 ; move to first brim point
M204 P800 ; adjust acceleration
G1 F1200
G1 X112.379 Y94.024 E.01631 ; brim
G1 X112.92 Y93.431 E.02515 ; brim
G1 X113.487 Y92.866 E.02511 ; brim
G1 X114.089 Y92.322 E.02545 ; brim
G1 X114.719 Y91.806 E.02553 ; brim
G1 X115.371 Y91.323 E.02544 ; brim
G1 X116.04 Y90.876 E.02521 ; brim
G1 X116.735 Y90.458 E.02543 ; brim
G1 X117.443 Y90.078 E.02521 ; brim
G1 X118.175 Y89.73 E.02541 ; brim
M73 P4 R17
G1 X118.924 Y89.416 E.02547 ; brim
G1 X119.688 Y89.139 E.02547 ; brim
G1 X120.456 Y88.903 E.02518 ; brim
G1 X121.242 Y88.701 E.02546 ; brim
G1 X122.038 Y88.538 E.02546 ; brim
G1 X122.84 Y88.414 E.02547 ; brim
G1 X123.639 Y88.329 E.02518 ; brim
G1 X124.45 Y88.283 E.02547 ; brim
G1 X125.263 Y88.276 E.02549 ; brim
G1 X126.064 Y88.308 E.02515 ; brim
G1 X126.863 Y88.378 E.02515 ; brim
G1 X127.657 Y88.486 E.02511 ; brim
G1 X128.45 Y88.633 E.02527 ; brim
G1 X129.261 Y88.826 E.02615 ; brim
G1 X130.229 Y89.112 E.03165 ; brim
G1 X131.016 Y89.393 E.02619 ; brim
G1 X131.758 Y89.7 E.02519 ; brim
G1 X132.492 Y90.046 E.02544 ; brim
G1 X133.21 Y90.428 E.0255 ; brim
G1 X133.908 Y90.843 E.02544 ; brim
G1 X134.578 Y91.288 E.02523 ; brim
G1 X135.233 Y91.769 E.02548 ; brim
G1 X135.856 Y92.275 E.02518 ; brim
G1 X136.46 Y92.816 E.02542 ; brim
G1 X137.039 Y93.388 E.02551 ; brim
G1 X137.594 Y93.992 E.02573 ; brim
G1 X138.114 Y94.618 E.02553 ; brim
G1 X138.603 Y95.268 E.0255 ; brim
G1 X139.065 Y95.948 E.02578 ; brim
G1 X139.483 Y96.634 E.02518 ; brim
G1 X139.87 Y97.342 E.02532 ; brim
G1 X140.232 Y98.09 E.02604 ; brim
G1 X140.62 Y99.018 E.03155 ; brim
G1 X140.9 Y99.807 E.02624 ; brim
G1 X141.132 Y100.58 E.02529 ; brim
G1 X141.325 Y101.358 E.02516 ; brim
G1 X141.481 Y102.144 E.02511 ; brim
G1 X141.599 Y102.939 E.02519 ; brim
G1 X141.678 Y103.736 E.02511 ; brim
G1 X141.72 Y104.538 E.02519 ; brim
G1 X141.723 Y105.339 E.02512 ; brim
G1 X141.687 Y106.152 E.02551 ; brim
G1 X141.61 Y106.97 E.02575 ; brim
G1 X141.494 Y107.776 E.02554 ; brim
G1 X141.338 Y108.582 E.02574 ; brim
G1 X141.145 Y109.372 E.0255 ; brim
G1 X140.91 Y110.161 E.02581 ; brim
G1 X140.641 Y110.928 E.02549 ; brim
G1 X140.33 Y111.691 E.02584 ; brim
G1 X139.977 Y112.447 E.02616 ; brim
G1 X139.5 Y113.337 E.03165 ; brim
G1 X139.067 Y114.05 E.02615 ; brim
G1 X138.615 Y114.716 E.02523 ; brim
G1 X138.134 Y115.357 E.02516 ; brim
G1 X137.621 Y115.976 E.0252 ; brim
G1 X137.08 Y116.569 E.02516 ; brim
G1 X136.512 Y117.134 E.02512 ; brim
G1 X135.91 Y117.679 E.02547 ; brim
G1 X135.287 Y118.189 E.02523 ; brim
G1 X134.636 Y118.671 E.02541 ; brim
M73 Q4 S18
G1 X133.961 Y119.124 E.02549 ; brim
G1 X133.265 Y119.541 E.02543 ; brim
G1 X132.557 Y119.922 E.02522 ; brim
G1 X131.825 Y120.271 E.02542 ; brim
G1 X131.076 Y120.584 E.02546 ; brim
G1 X130.312 Y120.86 E.02546 ; brim
G1 X129.536 Y121.099 E.02546 ; brim
G1 X128.758 Y121.299 E.02518 ; brim
G1 X127.962 Y121.462 E.02548 ; brim
G1 X127.159 Y121.586 E.02548 ; brim
G1 X126.357 Y121.671 E.02531 ; brim
G1 X125.549 Y121.717 E.02537 ; brim
G1 X124.737 Y121.724 E.02545 ; brim
G1 X123.937 Y121.693 E.02511 ; brim
G1 X123.137 Y121.622 E.02519 ; brim
G1 X122.343 Y121.514 E.02511 ; brim
G1 X121.553 Y121.367 E.02519 ; brim
G1 X120.773 Y121.184 E.02512 ; brim
G1 X119.999 Y120.961 E.02527 ; brim
G1 X119.209 Y120.692 E.02615 ; brim
G1 X118.273 Y120.314 E.03165 ; brim
M73 P4 R16
G1 X117.518 Y119.96 E.02615 ; brim
G1 X116.806 Y119.582 E.02527 ; brim
G1 X116.117 Y119.173 E.02512 ; brim
G1 X115.447 Y118.73 E.02519 ; brim
G1 X114.799 Y118.256 E.02516 ; brim
G1 X114.168 Y117.745 E.02545 ; brim
G1 X113.569 Y117.211 E.02517 ; brim
G1 X112.993 Y116.645 E.02534 ; brim
G1 X112.225 Y115.796 E.03589 ; brim
G1 X111.699 Y115.141 E.02633 ; brim
G1 X111.225 Y114.488 E.02528 ; brim
G1 X110.787 Y113.818 E.02512 ; brim
G1 X110.381 Y113.127 E.02515 ; brim
G1 X110.008 Y112.416 E.02515 ; brim
G1 X109.669 Y111.688 E.02519 ; brim
G1 X109.366 Y110.946 E.02511 ; brim
G1 X109.099 Y110.19 E.02515 ; brim
G1 X108.868 Y109.42 E.02519 ; brim
G1 X108.675 Y108.642 E.02516 ; brim
G1 X108.519 Y107.856 E.02511 ; brim
G1 X108.401 Y107.061 E.02519 ; brim
G1 X108.321 Y106.264 E.02511 ; brim
