; generated by PrusaSlicer 2.4.2+win64 on 2022-07-08 at 16:23:52 UTC


;
;
; 

; external perimeters extrusion width = 0.45mm
; perimeters extrusion width = 0.45mm
; infill extrusion width = 0.45mm
; solid infill extrusion width = 0.45mm
; top infill extrusion width = 0.40mm
; first layer extrusion width = 0.42mm

M73 P0 R15
M73 Q0 S15
M201 X1000 Y1000 Z200 E8000 ; sets maximum accelerations, mm/sec^2
M203 X200 Y200 Z12 E120 ; sets maximum feedrates, mm / sec
M204 P1250 R1250 T1500 ; sets acceleration (P, T) and retract acceleration (R), mm/sec^2
M205 X8.00 Y8.00 Z0.40 E4.50 ; sets the jerk limits, mm/sec
M205 S0 T0 ; sets the minimum extruding and travel feed rate, mm/sec
M107 ; disable fan
;TYPE:Custom
M862.3 P "MK3SMMU2S" ; printer model check
M862.1 P0.4 ; nozzle diameter check
M115 U3.11.0 ; tell printer latest fw version
G90 ; use absolute coordinates
M83 ; extruder relative mode
M104 S225 ; set extruder temp
M140 S60 ; set bed temp
M190 S60 ; wait for bed temp
M109 S225 ; wait for extruder temp
G28 W ; home all without mesh bed level
G80 ; mesh bed leveling

; Send the filament type to the MMU2.0 unit.
; E stands for extruder number, F stands for filament type (0: default; 1:flex; 2: PVA)
M403 E0 F0
M403 E1 F0
M403 E2 F0
M403 E3 F0
M403 E4 F0


;go outside print area
G1 Y-3 F1000
G1 Z0.4 F1000
; select extruder
T0
; initial load
G1 X55 E29 F1073
G1 X5 E29 F1800
G1 X55 E8 F2000
G1 Z0.3 F1000
G92 E0
G1 X240 E25 F2200
G1 Y-2 F1000
M73 P1 R15
M73 Q1 S15
G1 X55 E25 F1400
G1 Z0.2 F1000
M73 P2 R14
M73 Q2 S15
G1 X5 E4 F1000
G92 E0


M221 S95
G92 E0

; Don't change E values below. Excessive value can damage the printer.

G21 ; set units to millimeters
G90 ; use absolute coordinates
M83 ; use relative distances for extrusion
M900 K0.05 ; Filament gcode LA 1.5
M900 K30 ; Filament gcode LA 1.0
M107 ; disable fan
;LAYER_CHANGE
;Z:0.2
;HEIGHT:0.2
;BEFORE_LAYER_CHANGE
G92 E0.0
;0.2


G1 E-.8 F2100 ; retract
G1 Z.4 F720 ; lift Z
;AFTER_LAYER_CHANGE
;0.2
G1 X111.046 Y93.931 F10800 ; move to first skirt point
G1 Z.2 F720 ; restore layer Z
G1 E.8 F2100 ;  ; unretract
M204 P800 ; adjust acceleration
;TYPE:Skirt/Brim
;WIDTH:0.42
G1 F1200
G1 X112.254 Y92.61 E.05613 ; skirt
G1 X113.567 Y91.435 E.05525 ; skirt
G1 X114.998 Y90.39 E.05555 ; skirt
G1 X116.486 Y89.515 E.05413 ; skirt
G1 X118.21 Y88.704 E.05972 ; skirt
G1 X119.843 Y88.116 E.05442 ; skirt
G1 X121.552 Y87.686 E.05527 ; skirt
G1 X123.294 Y87.428 E.05522 ; skirt
G1 X125.033 Y87.346 E.05457 ; skirt
G1 X126.792 Y87.437 E.05522 ; skirt
G1 X128.521 Y87.7 E.05484 ; skirt
G1 X130.228 Y88.138 E.05525 ; skirt
G1 X131.77 Y88.696 E.05143 ; skirt
G1 X133.35 Y89.445 E.05483 ; skirt
G1 X134.86 Y90.356 E.05528 ; skirt
G1 X136.25 Y91.395 E.05443 ; skirt
G1 X137.542 Y92.576 E.05488 ; skirt
G1 X138.641 Y93.793 E.05141 ; skirt
G1 X139.69 Y95.209 E.05527 ; skirt
G1 X140.587 Y96.711 E.05484 ; skirt
G1 X141.327 Y98.285 E.05451 ; skirt
G1 X141.915 Y99.945 E.05523 ; skirt
G1 X142.332 Y101.643 E.05484 ; skirt
G1 X142.569 Y103.266 E.0514 ; skirt
G1 X142.654 Y105.013 E.05485 ; skirt
G1 X142.567 Y106.748 E.05447 ; skirt
G1 X142.308 Y108.478 E.05484 ; skirt
G1 X141.911 Y110.068 E.0514 ; skirt
G1 X141.322 Y111.728 E.05523 ; skirt
G1 X140.576 Y113.31 E.05485 ; skirt
M73 Q2 S14
G1 X139.683 Y114.802 E.05452 ; skirt
G1 X138.632 Y116.217 E.05527 ; skirt
G1 X137.455 Y117.511 E.05484 ; skirt
G1 X136.241 Y118.613 E.05141 ; skirt
G1 X134.827 Y119.666 E.05527 ; skirt
G1 X133.328 Y120.566 E.05484 ; skirt
G1 X131.734 Y121.319 E.05527 ; skirt
G1 X130.097 Y121.902 E.05448 ; skirt
G1 X128.4 Y122.324 E.05484 ; skirt
G1 X126.778 Y122.564 E.05141 ; skirt
G1 X125.017 Y122.654 E.05527 ; skirt
M73 P3 R14
G1 X123.271 Y122.569 E.05483 ; skirt
G1 X121.566 Y122.317 E.05403 ; skirt
G1 X119.974 Y121.924 E.05143 ; skirt
M73 Q3 S14
G1 X118.324 Y121.343 E.05484 ; skirt
G1 X116.75 Y120.608 E.05448 ; skirt
G1 X115.246 Y119.715 E.05481 ; skirt
G1 X113.923 Y118.747 E.05143 ; skirt
G1 X112.607 Y117.573 E.05527 ; skirt
G1 X111.439 Y116.304 E.05409 ; skirt
G1 X110.4 Y114.929 E.05402 ; skirt
G1 X109.404 Y113.336 E.0589 ; skirt
G1 X108.608 Y111.73 E.05621 ; skirt
G1 X107.992 Y110.094 E.05481 ; skirt
G1 X107.538 Y108.393 E.05519 ; skirt
G1 X107.251 Y106.637 E.0558 ; skirt
G1 X107.146 Y104.96 E.05268 ; skirt
G1 X107.229 Y103.282 E.05269 ; skirt
G1 X107.489 Y101.518 E.05589 ; skirt
G1 X107.919 Y99.802 E.05547 ; skirt
G1 X108.513 Y98.148 E.0551 ; skirt
G1 X109.206 Y96.675 E.05106 ; skirt
G1 X109.989 Y95.349 E.04827 ; skirt
G1 X111.011 Y93.98 E.05357 ; skirt
M204 P1000 ; adjust acceleration
G1 X111.312 Y94.205 F10800 ; move to first skirt point
M204 P800 ; adjust acceleration
G1 F1200
G1 X112.519 Y92.879 E.05619 ; skirt
G1 X113.805 Y91.728 E.05412 ; skirt
G1 X115.205 Y90.705 E.05437 ; skirt
G1 X116.661 Y89.849 E.05297 ; skirt
G1 X118.353 Y89.052 E.05863 ; skirt
G1 X119.953 Y88.477 E.05331 ; skirt
G1 X121.626 Y88.056 E.05409 ; skirt
G1 X123.331 Y87.804 E.05404 ; skirt
G1 X125.032 Y87.723 E.05339 ; skirt
G1 X126.753 Y87.812 E.05404 ; skirt
G1 X128.447 Y88.07 E.05372 ; skirt
G1 X130.117 Y88.498 E.05407 ; skirt
G1 X131.624 Y89.043 E.05025 ; skirt
G1 X133.172 Y89.778 E.05371 ; skirt
G1 X134.65 Y90.669 E.0541 ; skirt
G1 X136.01 Y91.685 E.05325 ; skirt
G1 X137.275 Y92.842 E.05376 ; skirt
G1 X138.349 Y94.031 E.05023 ; skirt
G1 X139.376 Y95.417 E.05409 ; skirt
G1 X140.254 Y96.888 E.05372 ; skirt
G1 X140.978 Y98.428 E.05333 ; skirt
G1 X141.554 Y100.053 E.05405 ; skirt
G1 X141.962 Y101.716 E.05372 ; skirt
G1 X142.193 Y103.301 E.05022 ; skirt
G1 X142.277 Y105.013 E.05372 ; skirt
G1 X142.192 Y106.71 E.05329 ; skirt
G1 X141.938 Y108.405 E.05372 ; skirt
G1 X141.55 Y109.959 E.05022 ; skirt
G1 X140.974 Y111.583 E.05405 ; skirt
G1 X140.243 Y113.133 E.05372 ; skirt
G1 X139.369 Y114.593 E.05333 ; skirt
G1 X138.341 Y115.978 E.05409 ; skirt
G1 X137.188 Y117.245 E.05372 ; skirt
G1 X136.002 Y118.321 E.05023 ; skirt
G1 X134.618 Y119.352 E.05409 ; skirt
G1 X133.15 Y120.234 E.05372 ; skirt
G1 X131.59 Y120.971 E.05409 ; skirt
G1 X129.989 Y121.541 E.0533 ; skirt
G1 X128.326 Y121.954 E.05372 ; skirt
G1 X126.741 Y122.189 E.05023 ; skirt
G1 X125.018 Y122.277 E.05409 ; skirt
G1 X123.308 Y122.194 E.05371 ; skirt
G1 X121.638 Y121.947 E.05291 ; skirt
G1 X120.082 Y121.562 E.05025 ; skirt
G1 X118.466 Y120.994 E.05372 ; skirt
G1 X116.926 Y120.275 E.0533 ; skirt
G1 X115.454 Y119.4 E.05369 ; skirt
G1 X114.161 Y118.454 E.05024 ; skirt
G1 X112.873 Y117.306 E.05409 ; skirt
G1 X111.729 Y116.063 E.05297 ; skirt
G1 X110.712 Y114.717 E.0529 ; skirt
G1 X109.733 Y113.152 E.05785 ; skirt
G1 X108.954 Y111.58 E.05503 ; skirt
G1 X108.351 Y109.979 E.05363 ; skirt
G1 X107.906 Y108.313 E.05407 ; skirt
G1 X107.626 Y106.594 E.05461 ; skirt
G1 X107.523 Y104.958 E.0514 ; skirt
G1 X107.604 Y103.319 E.05143 ; skirt
G1 X107.858 Y101.593 E.05471 ; skirt
G1 X108.28 Y99.912 E.05435 ; skirt
G1 X108.861 Y98.293 E.05392 ; skirt
G1 X109.539 Y96.85 E.05 ; skirt
G1 X110.302 Y95.561 E.04697 ; skirt
G1 X111.277 Y94.253 E.05115 ; skirt
M204 P1000 ; adjust acceleration
;WIPE_START
G1 F8640
G1 X112.519 Y92.879 E-.4276 ; wipe and retract
G1 X113.591 Y91.919 E-.3324 ; wipe and retract
;WIPE_END
G1 E-.04 F2100 ; retract
G1 Z.6 F720 ; lift Z
G1 X113.359 Y95.91 F10800 ; move to first brim point
G1 Z.2 F720 ; restore layer Z
G1 E.8 F2100 ;  ; unretract
M204 P800 ; adjust acceleration
G1 F1200
G1 X114.508 Y94.659 E.05325 ; brim
G1 X115.025 Y94.182 E.02206 ; brim
G1 X115.558 Y93.735 E.02179 ; brim
G1 X116.789 Y92.853 E.0475 ; brim
G1 X118.052 Y92.127 E.04567 ; brim
G1 X118.744 Y91.79 E.02412 ; brim
G1 X119.449 Y91.481 E.02416 ; brim
G1 X120.826 Y90.995 E.04578 ; brim
G1 X122.26 Y90.646 E.04626 ; brim
G1 X123.721 Y90.443 E.04626 ; brim
G1 X125.182 Y90.388 E.04583 ; brim
G1 X126.611 Y90.476 E.04489 ; brim
G1 X128.026 Y90.703 E.04495 ; brim
G1 X129.413 Y91.069 E.04497 ; brim
G1 X130.759 Y91.569 E.04502 ; brim
G1 X132.064 Y92.207 E.04555 ; brim
G1 X133.274 Y92.955 E.04461 ; brim
G1 X134.429 Y93.836 E.04555 ; brim
G1 X135.479 Y94.815 E.04498 ; brim
M73 P4 R14
G1 X136.427 Y95.891 E.04499 ; brim
G1 X137.272 Y97.066 E.04537 ; brim
G1 X137.966 Y98.261 E.04334 ; brim
G1 X138.572 Y99.582 E.04557 ; brim
G1 X139.038 Y100.94 E.045 ; brim
M73 Q4 S14
G1 X139.372 Y102.356 E.04562 ; brim
G1 X139.562 Y103.779 E.04503 ; brim
G1 X139.612 Y105.227 E.04541 ; brim
G1 X139.525 Y106.605 E.0433 ; brim
G1 X139.294 Y108.039 E.04555 ; brim
G1 X138.926 Y109.428 E.04505 ; brim
G1 X138.417 Y110.792 E.04564 ; brim
G1 X137.785 Y112.077 E.04491 ; brim
G1 X137.041 Y113.28 E.04435 ; brim
G1 X136.16 Y114.434 E.04553 ; brim
G1 X135.189 Y115.475 E.04462 ; brim
G1 X134.112 Y116.424 E.04501 ; brim
G1 X132.947 Y117.263 E.04502 ; brim
G1 X131.689 Y117.992 E.04559 ; brim
G1 X130.372 Y118.59 E.04534 ; brim
G1 X129.066 Y119.036 E.04327 ; brim
G1 X127.65 Y119.371 E.04562 ; brim
G1 X126.206 Y119.563 E.04569 ; brim
G1 X124.765 Y119.612 E.04522 ; brim
G1 X123.431 Y119.529 E.0419 ; brim
G1 X122.012 Y119.305 E.04502 ; brim
G1 X120.717 Y118.971 E.04195 ; brim
G1 X119.353 Y118.478 E.04548 ; brim
G1 X118.06 Y117.86 E.04494 ; brim
G1 X116.84 Y117.123 E.04469 ; brim
G1 X115.733 Y116.299 E.04328 ; brim
G1 X114.656 Y115.322 E.04557 ; brim
G1 X113.697 Y114.263 E.0448 ; brim
G1 X112.856 Y113.134 E.04414 ; brim
G1 X112.071 Y111.874 E.04654 ; brim
G1 X111.404 Y110.535 E.04693 ; brim
G1 X110.9 Y109.202 E.04467 ; brim
G1 X110.528 Y107.838 E.04433 ; brim
G1 X110.394 Y107.148 E.02204 ; brim
G1 X110.291 Y106.458 E.02188 ; brim
G1 X110.186 Y104.84 E.05084 ; brim
G1 X110.257 Y103.547 E.04062 ; brim
G1 X110.351 Y102.801 E.02357 ; brim
G1 X110.48 Y102.064 E.02347 ; brim
G1 X110.637 Y101.374 E.02219 ; brim
G1 X110.827 Y100.692 E.02219 ; brim
G1 X111.052 Y100.011 E.02248 ; brim
G1 X111.307 Y99.346 E.02235 ; brim
G1 X111.908 Y98.067 E.0443 ; brim
G1 X112.236 Y97.482 E.02104 ; brim
G1 X112.6 Y96.917 E.02105 ; brim
G1 X113.012 Y96.346 E.02209 ; brim
G1 X113.322 Y95.957 E.01562 ; brim
M204 P1000 ; adjust acceleration
G1 X113.617 Y96.191 F10800 ; move to first brim point
M204 P800 ; adjust acceleration
G1 F1200
G1 X113.744 Y96.032 E.00638 ; brim
G1 X114.769 Y94.931 E.04717 ; brim
G1 X115.271 Y94.468 E.02142 ; brim
G1 X115.794 Y94.029 E.02142 ; brim
G1 X117.001 Y93.165 E.04652 ; brim
G1 X118.223 Y92.463 E.04419 ; brim
G1 X118.905 Y92.131 E.0238 ; brim
G1 X119.594 Y91.829 E.02358 ; brim
G1 X120.942 Y91.354 E.04482 ; brim
G1 X122.339 Y91.015 E.04508 ; brim
G1 X123.745 Y90.819 E.04449 ; brim
G1 X125.168 Y90.765 E.04466 ; brim
G1 X126.56 Y90.85 E.04373 ; brim
G1 X127.939 Y91.071 E.04379 ; brim
G1 X129.291 Y91.426 E.04381 ; brim
G1 X130.602 Y91.912 E.04385 ; brim
G1 X131.874 Y92.533 E.04438 ; brim
G1 X133.053 Y93.261 E.04345 ; brim
G1 X134.179 Y94.118 E.04438 ; brim
G1 X135.202 Y95.071 E.04382 ; brim
G1 X136.127 Y96.119 E.04383 ; brim
G1 X136.951 Y97.264 E.04422 ; brim
G1 X137.628 Y98.427 E.04219 ; brim
G1 X138.218 Y99.714 E.04441 ; brim
G1 X138.673 Y101.036 E.04383 ; brim
G1 X139 Y102.415 E.04445 ; brim
G1 X139.186 Y103.802 E.04386 ; brim
G1 X139.235 Y105.212 E.04426 ; brim
G1 X139.151 Y106.554 E.04216 ; brim
G1 X138.927 Y107.952 E.04439 ; brim
G1 X138.569 Y109.305 E.04388 ; brim
G1 X138.074 Y110.634 E.04447 ; brim
G1 X137.459 Y111.887 E.04375 ; brim
G1 X136.735 Y113.059 E.04319 ; brim
G1 X135.877 Y114.184 E.04437 ; brim
G1 X134.933 Y115.198 E.04345 ; brim
G1 X133.87 Y116.135 E.04442 ; brim
G1 X132.735 Y116.952 E.04385 ; brim
G1 X131.508 Y117.661 E.04442 ; brim
G1 X130.242 Y118.236 E.04362 ; brim
G1 X128.97 Y118.671 E.04213 ; brim
G1 X127.591 Y118.998 E.04445 ; brim
G1 X126.184 Y119.187 E.04451 ; brim
G1 X124.779 Y119.235 E.04408 ; brim
G1 X123.481 Y119.155 E.04078 ; brim
G1 X122.097 Y118.937 E.0439 ; brim
G1 X120.836 Y118.613 E.04082 ; brim
G1 X119.507 Y118.134 E.04432 ; brim
G1 X118.247 Y117.532 E.04378 ; brim
G1 X117.057 Y116.815 E.04355 ; brim
G1 X115.979 Y116.013 E.04213 ; brim
G1 X114.929 Y115.062 E.04441 ; brim
G1 X113.994 Y114.03 E.04366 ; brim
G1 X113.172 Y112.928 E.04312 ; brim
G1 X112.405 Y111.698 E.04544 ; brim
G1 X111.753 Y110.392 E.04576 ; brim
G1 X111.261 Y109.094 E.04352 ; brim
G1 X110.897 Y107.759 E.04339 ; brim
G1 X110.766 Y107.089 E.02141 ; brim
G1 X110.665 Y106.411 E.0215 ; brim
G1 X110.563 Y104.85 E.04905 ; brim
G1 X110.632 Y103.587 E.03965 ; brim
G1 X110.723 Y102.862 E.02292 ; brim
G1 X110.849 Y102.143 E.02288 ; brim
G1 X111.004 Y101.462 E.0219 ; brim
G1 X111.189 Y100.797 E.02162 ; brim
G1 X111.408 Y100.134 E.02192 ; brim
G1 X111.657 Y99.488 E.02171 ; brim
G1 X112.241 Y98.245 E.04304 ; brim
G1 X112.556 Y97.681 E.02027 ; brim
G1 X112.908 Y97.134 E.0204 ; brim
G1 X113.58 Y96.238 E.0351 ; brim
M204 P1000 ; adjust acceleration
G1 X113.875 Y96.473 F10800 ; move to first brim point
M204 P800 ; adjust acceleration
G1 F1200
G1 X114.034 Y96.273 E.00803 ; brim
G1 X115.029 Y95.203 E.0458 ; brim
G1 X115.517 Y94.754 E.02079 ; brim
G1 X116.031 Y94.322 E.02106 ; brim
G1 X117.197 Y93.488 E.04496 ; brim
G1 X118.394 Y92.8 E.04329 ; brim
G1 X119.06 Y92.475 E.02324 ; brim
G1 X119.739 Y92.177 E.02324 ; brim
G1 X121.059 Y91.713 E.04386 ; brim
G1 X122.401 Y91.387 E.04331 ; brim
G1 X123.769 Y91.196 E.04331 ; brim
G1 X125.155 Y91.142 E.04349 ; brim
G1 X126.51 Y91.223 E.04256 ; brim
G1 X127.853 Y91.438 E.04263 ; brim
G1 X129.168 Y91.783 E.04265 ; brim
G1 X130.445 Y92.255 E.04269 ; brim
G1 X131.684 Y92.859 E.04322 ; brim
G1 X132.833 Y93.567 E.04229 ; brim
G1 X133.93 Y94.401 E.04321 ; brim
G1 X134.926 Y95.328 E.04266 ; brim
M73 P5 R14
G1 X135.826 Y96.348 E.04266 ; brim
G1 X136.63 Y97.462 E.04307 ; brim
G1 X137.289 Y98.593 E.04105 ; brim
G1 X137.865 Y99.846 E.04324 ; brim
G1 X138.308 Y101.132 E.04266 ; brim
G1 X138.627 Y102.475 E.04328 ; brim
G1 X138.809 Y103.825 E.0427 ; brim
G1 X138.858 Y105.198 E.0431 ; brim
M73 Q5 S14
G1 X138.777 Y106.504 E.04101 ; brim
G1 X138.56 Y107.865 E.04322 ; brim
G1 X138.213 Y109.183 E.04271 ; brim
G1 X137.731 Y110.477 E.0433 ; brim
G1 X137.134 Y111.697 E.0426 ; brim
G1 X136.43 Y112.838 E.04203 ; brim
G1 X135.595 Y113.934 E.04321 ; brim
G1 X134.676 Y114.922 E.04229 ; brim
G1 X133.642 Y115.835 E.04325 ; brim
G1 X132.537 Y116.63 E.04268 ; brim
G1 X131.344 Y117.322 E.04325 ; brim
G1 X130.111 Y117.882 E.04247 ; brim
G1 X128.874 Y118.306 E.04099 ; brim
G1 X127.531 Y118.626 E.04328 ; brim
G1 X126.161 Y118.81 E.04334 ; brim
G1 X124.793 Y118.858 E.04294 ; brim
G1 X123.53 Y118.781 E.03967 ; brim
G1 X122.182 Y118.57 E.04277 ; brim
G1 X120.955 Y118.256 E.0397 ; brim
G1 X119.66 Y117.789 E.04316 ; brim
G1 X118.433 Y117.205 E.04262 ; brim
G1 X117.275 Y116.507 E.0424 ; brim
G1 X116.225 Y115.727 E.04099 ; brim
G1 X115.202 Y114.802 E.04325 ; brim
G1 X114.291 Y113.797 E.04253 ; brim
G1 X113.488 Y112.721 E.0421 ; brim
G1 X112.738 Y111.521 E.04436 ; brim
G1 X112.103 Y110.249 E.04459 ; brim
G1 X111.623 Y108.986 E.04237 ; brim
G1 X111.266 Y107.68 E.04245 ; brim
G1 X111.137 Y107.021 E.02106 ; brim
G1 X111.039 Y106.363 E.02085 ; brim
G1 X110.94 Y104.859 E.04726 ; brim
G1 X111.007 Y103.627 E.03868 ; brim
G1 X111.096 Y102.913 E.02257 ; brim
G1 X111.218 Y102.222 E.022 ; brim
G1 X111.368 Y101.558 E.02133 ; brim
G1 X111.548 Y100.912 E.02105 ; brim
G1 X111.762 Y100.265 E.02135 ; brim
G1 X112.006 Y99.629 E.02136 ; brim
G1 X112.573 Y98.423 E.04177 ; brim
G1 X112.882 Y97.87 E.01988 ; brim
G1 X113.217 Y97.351 E.01938 ; brim
G1 X113.837 Y96.52 E.0325 ; brim
M204 P1000 ; adjust acceleration
G1 X114.132 Y96.755 F10800 ; move to first brim point
M204 P800 ; adjust acceleration
G1 F1200
G1 X114.325 Y96.513 E.00968 ; brim
G1 X115.29 Y95.476 E.04444 ; brim
G1 X115.769 Y95.034 E.02042 ; brim
G1 X116.268 Y94.616 E.02042 ; brim
G1 X117.409 Y93.8 E.04398 ; brim
G1 X118.565 Y93.136 E.0418 ; brim
G1 X119.222 Y92.816 E.02292 ; brim
G1 X119.884 Y92.525 E.02266 ; brim
G1 X121.157 Y92.077 E.04232 ; brim
G1 X122.463 Y91.759 E.04214 ; brim
G1 X123.794 Y91.572 E.04213 ; brim
G1 X125.142 Y91.519 E.04232 ; brim
G1 X126.46 Y91.597 E.0414 ; brim
G1 X127.766 Y91.805 E.04147 ; brim
G1 X129.047 Y92.14 E.04149 ; brim
G1 X130.289 Y92.599 E.04152 ; brim
G1 X131.495 Y93.185 E.04205 ; brim
G1 X132.612 Y93.873 E.04113 ; brim
