; generated by PrusaSlicer 2.4.2+win64 on 2022-07-08 at 19:43:33 UTC


;
;
; 

; external perimeters extrusion width = 0.45mm
; perimeters extrusion width = 0.45mm
; infill extrusion width = 0.45mm
; solid infill extrusion width = 0.45mm
; top infill extrusion width = 0.40mm
; first layer extrusion width = 0.42mm

M73 P0 R135
M73 Q0 S137
M201 X1000 Y1000 Z200 E8000 ; sets maximum accelerations, mm/sec^2
M203 X200 Y200 Z12 E120 ; sets maximum feedrates, mm / sec
M204 P1250 R1250 T1500 ; sets acceleration (P, T) and retract acceleration (R), mm/sec^2
M205 X8.00 Y8.00 Z0.40 E4.50 ; sets the jerk limits, mm/sec
M205 S0 T0 ; sets the minimum extruding and travel feed rate, mm/sec
M107 ; disable fan
;TYPE:Custom
M862.3 P "MK3SMMU2S" ; printer model check
M862.1 P0.4 ; nozzle diameter check
M115 U3.11.0 ; tell printer latest fw version
G90 ; use absolute coordinates
M83 ; extruder relative mode
M104 S225 ; set extruder temp
M140 S60 ; set bed temp
M190 S60 ; wait for bed temp
M109 S225 ; wait for extruder temp
G28 W ; home all without mesh bed level
G80 ; mesh bed leveling

; Send the filament type to the MMU2.0 unit.
; E stands for extruder number, F stands for filament type (0: default; 1:flex; 2: PVA)
M403 E0 F0
M403 E1 F0
M403 E2 F0
M403 E3 F0
M403 E4 F0


;go outside print area
G1 Y-3 F1000
G1 Z0.4 F1000
; select extruder
T0
; initial load
G1 X55 E29 F1073
G1 X5 E29 F1800
G1 X55 E8 F2000
G1 Z0.3 F1000
G92 E0
G1 X240 E25 F2200
G1 Y-2 F1000
G1 X55 E25 F1400
G1 Z0.2 F1000
G1 X5 E4 F1000
G92 E0


M221 S95
G92 E0

; Don't change E values below. Excessive value can damage the printer.

G21 ; set units to millimeters
G90 ; use absolute coordinates
M83 ; use relative distances for extrusion
M900 K0.05 ; Filament gcode LA 1.5
M900 K30 ; Filament gcode LA 1.0
M107 ; disable fan
;LAYER_CHANGE
;Z:0.2
;HEIGHT:0.2
;BEFORE_LAYER_CHANGE
G92 E0.0
;0.2


G1 E-.8 F2100 ; retract
G1 Z.4 F720 ; lift Z
;AFTER_LAYER_CHANGE
;0.2
G1 X55.513 Y55.513 F10800 ; move to first skirt point
G1 Z.2 F720 ; restore layer Z
G1 E.8 F2100 ;  ; unretract
M204 P800 ; adjust acceleration
;TYPE:Skirt/Brim
;WIDTH:0.42
G1 F1200
G1 X75.18 Y35.846 E.87205 ; skirt
G1 X76.381 Y35.199 E.04278 ; skirt
G1 X77.74 Y35.319 E.04278 ; skirt
G1 X78.413 Y35.727 E.02468 ; skirt
G1 X154.345 Y101.217 E3.14396 ; skirt
G1 X199.374 Y146.238 E1.99649 ; skirt
G1 X200.022 Y147.439 E.04278 ; skirt
G1 X199.902 Y148.798 E.04278 ; skirt
G1 X199.374 Y149.599 E.03008 ; skirt
G1 X179.154 Y169.82 E.89661 ; skirt
G1 X177.953 Y170.467 E.04278 ; skirt
G1 X176.255 Y170.18 E.05399 ; skirt
G1 X128.87 Y141.905 E1.73013 ; skirt
G1 X128.407 Y141.544 E.01839 ; skirt
G1 X50.626 Y63.762 E3.44897 ; skirt
G1 X49.978 Y62.561 E.04278 ; skirt
M73 P0 R134
G1 X50.098 Y61.202 E.04278 ; skirt
G1 X50.626 Y60.401 E.03008 ; skirt
G1 X55.471 Y55.556 E.21484 ; skirt
M204 P1000 ; adjust acceleration
; printing object combo jig 1mm.stl id:0 copy 0
;WIPE_START
G1 F8640
G1 X57.798 Y53.228 E-.76 ; wipe and retract
;WIPE_END
G1 E-.04 F2100 ; retract
G1 Z.6 F720 ; lift Z
G1 X147.571 Y108.818 F10800 ; move to first perimeter point
G1 Z.2 F720 ; restore layer Z
G1 E.8 F2100 ;  ; unretract
M204 P800 ; adjust acceleration
;TYPE:External perimeter
G1 F1200
G1 X152.792 Y103.597 E.2315 ; perimeter
G1 X197.114 Y147.918 E1.96529 ; perimeter
G1 X177.473 Y167.559 E.8709 ; perimeter
G1 X139.643 Y129.729 E1.67745 ; perimeter
G1 X130.088 Y139.284 E.42367 ; perimeter
G1 X52.886 Y62.082 E3.42326 ; perimeter
M73 Q0 S136
G1 X76.861 Y38.107 E1.06307 ; perimeter
G1 X147.529 Y108.775 E3.13355 ; perimeter
M204 P1000 ; adjust acceleration
G1 X147.883 Y109.068 F10800 ; move inwards before travel
G1 X147.571 Y109.351 ; move to first perimeter point
M204 P800 ; adjust acceleration
;TYPE:Perimeter
G1 F1200
G1 X152.792 Y104.13 E.2315 ; perimeter
G1 X196.58 Y147.918 E1.94164 ; perimeter
G1 X177.473 Y167.026 E.84725 ; perimeter
G1 X139.643 Y129.195 E1.67745 ; perimeter
G1 X130.088 Y138.75 E.42367 ; perimeter
G1 X53.42 Y62.082 E3.39962 ; perimeter
G1 X76.861 Y38.64 E1.03942 ; perimeter
G1 X147.529 Y109.309 E3.13355 ; perimeter
M204 P1000 ; adjust acceleration
G1 X147.571 Y109.884 F10800 ; move to first perimeter point
M204 P800 ; adjust acceleration
M73 P1 R134
M73 Q1 S136
G1 F1200
G1 X152.792 Y104.663 E.2315 ; perimeter
G1 X196.047 Y147.918 E1.918 ; perimeter
G1 X177.473 Y166.492 E.8236 ; perimeter
G1 X139.643 Y128.662 E1.67745 ; perimeter
G1 X130.088 Y138.217 E.42367 ; perimeter
G1 X53.953 Y62.082 E3.37597 ; perimeter
G1 X76.861 Y39.174 E1.01578 ; perimeter
M73 P1 R133
G1 X147.529 Y109.842 E3.13355 ; perimeter
M204 P1000 ; adjust acceleration
G1 E-.8 F2100 ; retract
G1 Z.6 F720 ; lift Z
G1 X195.766 Y148.04 F10800 ; move to first infill point
G1 Z.2 F720 ; restore layer Z
G1 E.8 F2100 ;  ; unretract
M204 P800 ; adjust acceleration
;TYPE:Solid infill
;WIDTH:0.423609
G1 F1200
G1 X152.791 Y105.065 E1.92382 ; infill
G1 X152.522 Y105.334 E.01205 ; infill
G1 X195.377 Y148.189 E1.91845 ; infill
G1 X195.108 Y148.458 E.01205 ; infill
G1 X152.253 Y105.603 E1.91845 ; infill
G1 X151.983 Y105.872 E.01205 ; infill
M73 Q1 S135
G1 X194.838 Y148.727 E1.91845 ; infill
G1 X194.569 Y148.996 E.01205 ; infill
G1 X151.714 Y106.141 E1.91845 ; infill
G1 X151.445 Y106.411 E.01205 ; infill
G1 X194.3 Y149.266 E1.91845 ; infill
G1 X194.031 Y149.535 E.01205 ; infill
G1 X151.176 Y106.68 E1.91845 ; infill
G1 X150.907 Y106.949 E.01205 ; infill
G1 X193.762 Y149.804 E1.91845 ; infill
G1 X193.492 Y150.073 E.01205 ; infill
G1 X150.637 Y107.218 E1.91845 ; infill
G1 X150.368 Y107.487 E.01205 ; infill
G1 X193.223 Y150.342 E1.91845 ; infill
G1 X192.954 Y150.612 E.01205 ; infill
G1 X150.099 Y107.757 E1.91845 ; infill
G1 X149.83 Y108.026 E.01205 ; infill
G1 X192.685 Y150.881 E1.91845 ; infill
G1 X192.416 Y151.15 E.01205 ; infill
G1 X149.561 Y108.295 E1.91845 ; infill
G1 X149.292 Y108.564 E.01205 ; infill
G1 X192.147 Y151.419 E1.91845 ; infill
G1 X191.877 Y151.688 E.01205 ; infill
G1 X149.022 Y108.833 E1.91845 ; infill
G1 X148.753 Y109.103 E.01205 ; infill
G1 X191.608 Y151.958 E1.91845 ; infill
G1 X191.339 Y152.227 E.01205 ; infill
G1 X148.484 Y109.372 E1.91845 ; infill
G1 X148.215 Y109.641 E.01205 ; infill
M73 P1 R132
G1 X191.07 Y152.496 E1.91845 ; infill
G1 X190.801 Y152.765 E.01205 ; infill
G1 X147.946 Y109.91 E1.91845 ; infill
G1 X147.676 Y110.179 E.01205 ; infill
M73 P2 R132
G1 X190.531 Y153.034 E1.91845 ; infill
G1 X190.262 Y153.303 E.01205 ; infill
M73 Q2 S135
G1 X76.697 Y39.738 E5.08389 ; infill
G1 X76.427 Y40.007 E.01205 ; infill
M73 Q2 S134
G1 X189.993 Y153.573 E5.08389 ; infill
G1 X189.724 Y153.842 E.01205 ; infill
G1 X76.158 Y40.276 E5.08389 ; infill
G1 X75.889 Y40.545 E.01205 ; infill
G1 X189.455 Y154.111 E5.08389 ; infill
G1 X189.185 Y154.38 E.01205 ; infill
G1 X75.62 Y40.815 E5.08389 ; infill
G1 X75.351 Y41.084 E.01205 ; infill
G1 X188.916 Y154.649 E5.08389 ; infill
G1 X188.647 Y154.919 E.01205 ; infill
G1 X75.081 Y41.353 E5.08389 ; infill
G1 X74.812 Y41.622 E.01205 ; infill
M73 P2 R131
G1 X188.378 Y155.188 E5.08389 ; infill
G1 X188.109 Y155.457 E.01205 ; infill
G1 X74.543 Y41.891 E5.08389 ; infill
G1 X74.274 Y42.16 E.01205 ; infill
M73 Q2 S133
G1 X187.84 Y155.726 E5.08389 ; infill
G1 X187.57 Y155.995 E.01205 ; infill
M73 P3 R131
M73 Q3 S133
G1 X74.005 Y42.43 E5.08389 ; infill
G1 X73.735 Y42.699 E.01205 ; infill
G1 X187.301 Y156.265 E5.08389 ; infill
G1 X187.032 Y156.534 E.01205 ; infill
G1 X73.466 Y42.968 E5.08389 ; infill
G1 X73.197 Y43.237 E.01205 ; infill
G1 X186.763 Y156.803 E5.08389 ; infill
G1 X186.494 Y157.072 E.01205 ; infill
M73 P3 R130
G1 X72.928 Y43.506 E5.08389 ; infill
G1 X72.659 Y43.776 E.01205 ; infill
G1 X186.224 Y157.341 E5.08389 ; infill
G1 X185.955 Y157.61 E.01205 ; infill
M73 Q3 S132
G1 X72.39 Y44.045 E5.08389 ; infill
G1 X72.12 Y44.314 E.01205 ; infill
G1 X185.686 Y157.88 E5.08389 ; infill
G1 X185.417 Y158.149 E.01205 ; infill
G1 X71.851 Y44.583 E5.08389 ; infill
G1 X71.582 Y44.852 E.01205 ; infill
G1 X185.148 Y158.418 E5.08389 ; infill
G1 X184.878 Y158.687 E.01205 ; infill
M73 P4 R130
G1 X71.313 Y45.122 E5.08389 ; infill
G1 X71.044 Y45.391 E.01205 ; infill
M73 Q4 S132
G1 X184.609 Y158.956 E5.08389 ; infill
G1 X184.34 Y159.226 E.01205 ; infill
M73 P4 R129
G1 X70.774 Y45.66 E5.08389 ; infill
G1 X70.505 Y45.929 E.01205 ; infill
M73 Q4 S131
G1 X184.071 Y159.495 E5.08389 ; infill
G1 X183.802 Y159.764 E.01205 ; infill
G1 X70.236 Y46.198 E5.08389 ; infill
G1 X69.967 Y46.467 E.01205 ; infill
G1 X183.533 Y160.033 E5.08389 ; infill
G1 X183.263 Y160.302 E.01205 ; infill
G1 X69.698 Y46.737 E5.08389 ; infill
G1 X69.428 Y47.006 E.01205 ; infill
G1 X182.994 Y160.572 E5.08389 ; infill
G1 X182.725 Y160.841 E.01205 ; infill
G1 X69.159 Y47.275 E5.08389 ; infill
G1 X68.89 Y47.544 E.01205 ; infill
M73 P4 R128
G1 X182.456 Y161.11 E5.08389 ; infill
G1 X182.187 Y161.379 E.01205 ; infill
M73 P5 R128
G1 X68.621 Y47.813 E5.08389 ; infill
G1 X68.352 Y48.083 E.01205 ; infill
M73 Q5 S130
G1 X181.917 Y161.648 E5.08389 ; infill
G1 X181.648 Y161.917 E.01205 ; infill
G1 X68.083 Y48.352 E5.08389 ; infill
G1 X67.813 Y48.621 E.01205 ; infill
G1 X181.379 Y162.187 E5.08389 ; infill
G1 X181.11 Y162.456 E.01205 ; infill
G1 X67.544 Y48.89 E5.08389 ; infill
G1 X67.275 Y49.159 E.01205 ; infill
G1 X180.841 Y162.725 E5.08389 ; infill
G1 X180.571 Y162.994 E.01205 ; infill
G1 X67.006 Y49.429 E5.08389 ; infill
G1 X66.737 Y49.698 E.01205 ; infill
M73 P5 R127
G1 X180.302 Y163.263 E5.08389 ; infill
G1 X180.033 Y163.533 E.01205 ; infill
M73 Q5 S129
G1 X66.467 Y49.967 E5.08389 ; infill
G1 X66.198 Y50.236 E.01205 ; infill
G1 X179.764 Y163.802 E5.08389 ; infill
G1 X179.495 Y164.071 E.01205 ; infill
M73 P6 R127
G1 X65.929 Y50.505 E5.08389 ; infill
G1 X65.66 Y50.774 E.01205 ; infill
M73 Q6 S129
G1 X179.226 Y164.34 E5.08389 ; infill
G1 X178.956 Y164.609 E.01205 ; infill
G1 X65.391 Y51.044 E5.08389 ; infill
G1 X65.121 Y51.313 E.01205 ; infill
G1 X178.687 Y164.879 E5.08389 ; infill
G1 X178.418 Y165.148 E.01205 ; infill
M73 P6 R126
G1 X64.852 Y51.582 E5.08389 ; infill
G1 X64.583 Y51.851 E.01205 ; infill
G1 X178.149 Y165.417 E5.08389 ; infill
G1 X177.88 Y165.686 E.01205 ; infill
M73 Q6 S128
G1 X64.314 Y52.12 E5.08389 ; infill
G1 X64.045 Y52.39 E.01205 ; infill
G1 X177.61 Y165.955 E5.08389 ; infill
G1 X177.473 Y166.092 E.00614 ; infill
G1 X139.643 Y128.262 E1.69351 ; infill
G1 X139.511 Y128.394 E.00591 ; infill
G1 X63.776 Y52.659 E3.39038 ; infill
G1 X63.506 Y52.928 E.01205 ; infill
G1 X139.242 Y128.663 E3.39038 ; infill
G1 X138.973 Y128.933 E.01205 ; infill
G1 X63.237 Y53.197 E3.39038 ; infill
G1 X62.968 Y53.466 E.01205 ; infill
M73 P7 R126
G1 X138.703 Y129.202 E3.39038 ; infill
G1 X138.434 Y129.471 E.01205 ; infill
M73 P7 R125
M73 Q7 S128
G1 X62.699 Y53.736 E3.39038 ; infill
G1 X62.43 Y54.005 E.01205 ; infill
G1 X138.165 Y129.74 E3.39038 ; infill
G1 X137.896 Y130.009 E.01205 ; infill
G1 X62.16 Y54.274 E3.39038 ; infill
G1 X61.891 Y54.543 E.01205 ; infill
M73 Q7 S127
G1 X137.627 Y130.279 E3.39038 ; infill
G1 X137.357 Y130.548 E.01205 ; infill
G1 X61.622 Y54.812 E3.39038 ; infill
G1 X61.353 Y55.081 E.01205 ; infill
G1 X137.088 Y130.817 E3.39038 ; infill
G1 X136.819 Y131.086 E.01205 ; infill
G1 X61.084 Y55.351 E3.39038 ; infill
G1 X60.814 Y55.62 E.01205 ; infill
G1 X136.55 Y131.355 E3.39038 ; infill
G1 X136.281 Y131.624 E.01205 ; infill
G1 X60.545 Y55.889 E3.39038 ; infill
G1 X60.276 Y56.158 E.01205 ; infill
G1 X136.012 Y131.894 E3.39038 ; infill
G1 X135.742 Y132.163 E.01205 ; infill
G1 X60.007 Y56.427 E3.39038 ; infill
G1 X59.738 Y56.697 E.01205 ; infill
G1 X135.473 Y132.432 E3.39038 ; infill
G1 X135.204 Y132.701 E.01205 ; infill
M73 P7 R124
G1 X59.469 Y56.966 E3.39038 ; infill
G1 X59.199 Y57.235 E.01205 ; infill
G1 X134.935 Y132.97 E3.39038 ; infill
G1 X134.666 Y133.24 E.01205 ; infill
M73 P8 R124
M73 Q7 S126
G1 X58.93 Y57.504 E3.39038 ; infill
G1 X58.661 Y57.773 E.01205 ; infill
G1 X134.396 Y133.509 E3.39038 ; infill
G1 X134.127 Y133.778 E.01205 ; infill
M73 Q8 S126
G1 X58.392 Y58.043 E3.39038 ; infill
G1 X58.123 Y58.312 E.01205 ; infill
G1 X133.858 Y134.047 E3.39038 ; infill
G1 X133.589 Y134.316 E.01205 ; infill
G1 X57.853 Y58.581 E3.39038 ; infill
G1 X57.584 Y58.85 E.01205 ; infill
G1 X133.32 Y134.586 E3.39038 ; infill
G1 X133.05 Y134.855 E.01205 ; infill
G1 X57.315 Y59.119 E3.39038 ; infill
G1 X57.046 Y59.389 E.01205 ; infill
G1 X132.781 Y135.124 E3.39038 ; infill
G1 X132.512 Y135.393 E.01205 ; infill
G1 X56.777 Y59.658 E3.39038 ; infill
G1 X56.507 Y59.927 E.01205 ; infill
M73 P8 R123
G1 X132.243 Y135.662 E3.39038 ; infill
G1 X131.974 Y135.932 E.01205 ; infill
G1 X56.238 Y60.196 E3.39038 ; infill
G1 X55.969 Y60.465 E.01205 ; infill
M73 Q8 S125
G1 X131.705 Y136.201 E3.39038 ; infill
G1 X131.435 Y136.47 E.01205 ; infill
G1 X55.7 Y60.734 E3.39038 ; infill
G1 X55.431 Y61.004 E.01205 ; infill
G1 X131.166 Y136.739 E3.39038 ; infill
G1 X130.897 Y137.008 E.01205 ; infill
G1 X55.162 Y61.273 E3.39038 ; infill
G1 X54.892 Y61.542 E.01205 ; infill
M73 P9 R123
G1 X130.628 Y137.277 E3.39038 ; infill
G1 X130.359 Y137.547 E.01205 ; infill
G1 X54.623 Y61.811 E3.39038 ; infill
G1 X54.354 Y62.08 E.01205 ; infill
M73 Q9 S125
G1 X130.209 Y137.936 E3.39575 ; infill
M204 P1000 ; adjust acceleration
; stop printing object combo jig 1mm.stl id:0 copy 0
M106 S84.15 ; enable fan
;LAYER_CHANGE
;Z:0.27001
;HEIGHT:0.0700104
;BEFORE_LAYER_CHANGE
G92 E0.0
;0.27001


;WIPE_START
G1 F8640
G1 X127.882 Y135.608 E-.76 ; wipe and retract
;WIPE_END
G1 E-.04 F2100 ; retract
G1 Z.6 F720 ; lift Z
;AFTER_LAYER_CHANGE
;0.27001
M104 S215 ; set temperature
G1 X125.177 Y138.314 F10800 ; move to first skirt point
G1 Z.27 F720 ; restore layer Z
G1 E.8 F2100 ;  ; unretract
;TYPE:Skirt/Brim
;WIDTH:0.42
G1 F3000
G1 X50.626 Y63.762 E1.24278 ; skirt
G1 X49.978 Y62.561 E.01608 ; skirt
G1 X50.098 Y61.202 E.01608 ; skirt
G1 X50.626 Y60.401 E.01131 ; skirt
G1 X75.18 Y35.846 E.40932 ; skirt
G1 X76.381 Y35.199 E.01608 ; skirt
G1 X77.74 Y35.319 E.01608 ; skirt
G1 X78.413 Y35.727 E.00928 ; skirt
G1 X154.345 Y101.217 E1.18197 ; skirt
G1 X199.374 Y146.238 E.75058 ; skirt
G1 X200.022 Y147.439 E.01608 ; skirt
G1 X199.902 Y148.798 E.01608 ; skirt
G1 X199.374 Y149.599 E.01131 ; skirt
G1 X179.154 Y169.82 E.33708 ; skirt
G1 X177.953 Y170.467 E.01608 ; skirt
M73 P9 R122
G1 X176.255 Y170.18 E.0203 ; skirt
G1 X128.87 Y141.905 E.65044 ; skirt
G1 X128.407 Y141.544 E.00691 ; skirt
G1 X125.219 Y138.356 E.05315 ; skirt
; printing object combo jig 1mm.stl id:0 copy 0
;WIPE_START
G1 F8640
G1 X122.892 Y136.029 E-.76 ; wipe and retract
;WIPE_END
G1 E-.04 F2100 ; retract
G1 Z.67 F720 ; lift Z
G1 X124.968 Y133.821 F10800 ; move to first perimeter point
G1 X147.571 Y109.161 ; move to first perimeter point
G1 X147.571 Y109.161 ; move to first perimeter point
G1 X147.571 Y109.787 ; move to first perimeter point
G1 Z.27 F720 ; restore layer Z
G1 E.8 F2100 ;  ; unretract
M204 P800 ; adjust acceleration
;TYPE:Perimeter
;WIDTH:0.45
G1 F3600
G1 X152.421 Y104.937 E.08682 ; perimeter
G1 X195.773 Y148.29 E.77624 ; perimeter
G1 X177.473 Y166.59 E.32767 ; perimeter
G1 X139.643 Y128.76 E.67735 ; perimeter
G1 X130.088 Y138.315 E.17108 ; perimeter
G1 X53.855 Y62.082 E1.36496 ; perimeter
G1 X76.861 Y39.076 E.41192 ; perimeter
G1 X147.529 Y109.744 E1.26532 ; perimeter
M204 P1000 ; adjust acceleration
G1 X147.571 Y109.171 F10800 ; move to first perimeter point
M204 P800 ; adjust acceleration
G1 F3600
G1 X152.421 Y104.322 E.08682 ; perimeter
G1 X196.388 Y148.29 E.78725 ; perimeter
G1 X177.473 Y167.205 E.33868 ; perimeter
G1 X139.643 Y129.375 E.67735 ; perimeter
G1 X130.088 Y138.93 E.17108 ; perimeter
G1 X53.24 Y62.082 E1.37598 ; perimeter
G1 X76.861 Y38.461 E.42293 ; perimeter
G1 X147.529 Y109.129 E1.26532 ; perimeter
M204 P1000 ; adjust acceleration
M73 Q9 S124
G1 X147.571 Y108.556 F10800 ; move to first perimeter point
M204 P800 ; adjust acceleration
;TYPE:External perimeter
G1 F2100
G1 X152.421 Y103.707 E.08682 ; perimeter
G1 X197.004 Y148.29 E.79826 ; perimeter
G1 X177.473 Y167.821 E.34969 ; perimeter
G1 X139.643 Y129.99 E.67735 ; perimeter
G1 X130.088 Y139.545 E.17108 ; perimeter
