; generated by PrusaSlicer 2.5.0+win64 on 2022-09-22 at 00:10:25 UTC


;
;
; 

; external perimeters extrusion width = 0.68mm
; perimeters extrusion width = 0.68mm
; infill extrusion width = 0.68mm
; solid infill extrusion width = 0.68mm
; top infill extrusion width = 0.60mm
; first layer extrusion width = 0.65mm

; external perimeters extrusion width = 0.68mm
; perimeters extrusion width = 0.68mm
; infill extrusion width = 0.68mm
; solid infill extrusion width = 0.68mm
; top infill extrusion width = 0.60mm
; first layer extrusion width = 0.65mm

M73 P0 R6
M73 Q0 S6
M201 X1000 Y1000 Z200 E8000 ; sets maximum accelerations, mm/sec^2
M203 X200 Y200 Z12 E120 ; sets maximum feedrates, mm / sec
M204 P1250 R1250 T1250 ; sets acceleration (P, T) and retract acceleration (R), mm/sec^2
M205 X8.00 Y8.00 Z0.40 E4.50 ; sets the jerk limits, mm/sec
M205 S0 T0 ; sets the minimum extruding and travel feed rate, mm/sec
M107 ; disable fan
;TYPE:Custom
M862.3 P "MK3SMMU2S" ; printer model check
M862.1 P0.6 ; nozzle diameter check
M115 U3.11.0 ; tell printer latest fw version
G90 ; use absolute coordinates
M83 ; extruder relative mode
M104 S215 ; set extruder temp
M140 S60 ; set bed temp
M190 S60 ; wait for bed temp
M109 S215 ; wait for extruder temp
G28 W ; home all without mesh bed level

G4 S30 ; wait 30s for probe to reach temp -peter villano

G80 ; mesh bed leveling

; Send the filament type to the MMU2.0 unit.
; E stands for extruder number, F stands for filament type (0: default; 1:flex; 2: PVA)
M403 E0 F0
M403 E1 F0
M403 E2 F0
M403 E3 F0
M403 E4 F0


;go outside print area
G1 Y-3 F1000
G1 Z0.4 F1000
; select extruder
T0
; initial load
G1 X55 E29 F1073
G1 X5 E29 F1800
G1 X55 E8 F2000
M73 P1 R6
M73 Q1 S6
G1 Z0.3 F1000
G92 E0
G1 X240 E25 F2200
G1 Y-2 F1000
M73 P3 R6
M73 Q3 S6
G1 X55 E25 F1400
G1 Z0.2 F1000
M73 P5 R5
M73 Q5 S5
G1 X5 E4 F1000
G92 E0


M221 S95
G92 E0
G21 ; set units to millimeters
G90 ; use absolute coordinates
M83 ; use relative distances for extrusion
M900 K0.04 ; Filament gcode LA 1.5
M900 K18 ; Filament gcode LA 1.0
M107 ; disable fan
;LAYER_CHANGE
;Z:0.2
;HEIGHT:0.2
;BEFORE_LAYER_CHANGE
G92 E0.0
;0.2


G1 E-.8 F2100 ; retract
M73 P6 R5
M73 Q6 S5
G1 Z.4 F720 ; lift Z
;AFTER_LAYER_CHANGE
;0.2
G1 X101.685 Y91.029 F10800 ; move to first skirt point
G1 Z.2 F720 ; restore layer Z
G1 E.8 F1500 ;  ; unretract
M204 S800 ; adjust acceleration
;TYPE:Skirt/Brim
;WIDTH:0.65
G1 F1200
G1 X102.902 Y89.996 E.08059 ; skirt
G1 X106.73 Y88.41 E.20912 ; skirt
G1 X107.727 Y88.212 E.05135 ; skirt
G1 X121.283 Y88.212 E.68426 ; skirt
G1 X142.283 Y88.293 E1.06006 ; skirt
G1 X143.27 Y88.491 E.05085 ; skirt
G1 X147.098 Y90.077 E.20912 ; skirt
G1 X148.218 Y90.966 E.0722 ; skirt
M73 Q7 S5
G1 X148.707 Y92.485 E.08059 ; skirt
M73 P7 R5
G1 X148.707 Y116.727 E1.2237 ; skirt
G1 X147.943 Y118.571 E.10072 ; skirt
G1 X146.128 Y120.387 E.12964 ; skirt
G1 X144.294 Y121.15 E.10025 ; skirt
G1 X105.716 Y121.232 E1.94739 ; skirt
G1 X103.872 Y120.468 E.10072 ; skirt
G1 X102.057 Y118.652 E.12964 ; skirt
M73 Q8 S5
G1 X101.293 Y116.809 E.10072 ; skirt
M73 P8 R5
G1 X101.293 Y92.404 E1.23191 ; skirt
G1 X101.661 Y91.115 E.06766 ; skirt
M204 S1000 ; adjust acceleration
;WIPE_START
G1 F8640
G1 X102.902 Y89.996 E-.38608 ; wipe and retract
G1 X104.398 Y89.376 E-.37392 ; wipe and retract
;WIPE_END
G1 E-.04 F2100 ; retract
G1 Z.6 F720 ; lift Z
G1 X105.037 Y93.372 F10800 ; move to first brim point
G1 Z.2 F720 ; restore layer Z
G1 E.8 F1500 ;  ; unretract
M204 S800 ; adjust acceleration
G1 F1200
G1 X105.312 Y92.961 E.02495 ; brim
G1 X105.651 Y92.649 E.02323 ; brim
G1 X106.543 Y92.26 E.04914 ; brim
G1 X106.683 Y92.229 E.0072 ; brim
G1 X107.12 Y92.211 E.02212 ; brim
G1 X107.823 Y92.36 E.03627 ; brim
G1 X108.148 Y92.519 E.01824 ; brim
G1 X108.301 Y92.63 E.00957 ; brim
G1 X114.499 Y98.841 E.44293 ; brim
G1 X120.702 Y92.627 E.44318 ; brim
G1 X121.075 Y92.4 E.02207 ; brim
G1 X121.25 Y92.336 E.00942 ; brim
G1 X121.878 Y92.211 E.03228 ; brim
G1 X122.337 Y92.23 E.02323 ; brim
G1 X123.27 Y92.604 E.05074 ; brim
G1 X123.624 Y92.889 E.02292 ; brim
G1 X124.043 Y93.492 E.03705 ; brim
G1 X124.196 Y93.907 E.02235 ; brim
G1 X124.225 Y94.091 E.0094 ; brim
G1 X124.225 Y115.776 E1.09464 ; brim
G1 X124.142 Y116.186 E.02113 ; brim
M73 P9 R5
M73 Q9 S5
G1 X123.924 Y116.682 E.02733 ; brim
G1 X123.753 Y116.918 E.01475 ; brim
G1 X123.394 Y117.277 E.02561 ; brim
G1 X123.157 Y117.448 E.01475 ; brim
G1 X122.662 Y117.667 E.02733 ; brim
G1 X122.251 Y117.749 E.02113 ; brim
G1 X106.749 Y117.749 E.78257 ; brim
G1 X106.338 Y117.667 E.02113 ; brim
G1 X105.843 Y117.448 E.02733 ; brim
G1 X105.606 Y117.277 E.01475 ; brim
G1 X105.247 Y116.918 E.02561 ; brim
G1 X105.076 Y116.682 E.01475 ; brim
G1 X104.858 Y116.186 E.02733 ; brim
G1 X104.775 Y115.776 E.02112 ; brim
G1 X104.775 Y94.087 E1.09485 ; brim
G1 X104.878 Y93.662 E.02207 ; brim
G1 X104.987 Y93.446 E.01219 ; brim
M204 S1000 ; adjust acceleration
G1 X105.492 Y93.784 F10800 ; move to first brim point
M204 S800 ; adjust acceleration
G1 F1200
G1 X105.793 Y93.333 E.02737 ; brim
G1 X105.996 Y93.154 E.01367 ; brim
G1 X106.719 Y92.841 E.03974 ; brim
G1 X107.045 Y92.814 E.01653 ; brim
G1 X107.594 Y92.924 E.02823 ; brim
G1 X107.855 Y93.051 E.0147 ; brim
G1 X113.773 Y98.96 E.42213 ; brim
G1 X113.943 Y99.195 E.01465 ; brim
G1 X114.103 Y99.562 E.0202 ; brim
G1 X114.168 Y99.914 E.01805 ; brim
G1 X114.168 Y108.51 E.43391 ; brim
G1 X114.832 Y108.51 E.03355 ; brim
M73 P10 R5
M73 Q10 S5
G1 X114.832 Y99.914 E.4339 ; brim
G1 X114.879 Y99.625 E.01478 ; brim
G1 X114.996 Y99.309 E.01702 ; brim
G1 X115.229 Y98.959 E.02123 ; brim
G1 X121.101 Y93.087 E.41919 ; brim
G1 X121.39 Y92.927 E.01665 ; brim
G1 X121.955 Y92.814 E.02909 ; brim
G1 X122.225 Y92.831 E.01367 ; brim
G1 X122.941 Y93.115 E.03888 ; brim
G1 X123.155 Y93.278 E.01357 ; brim
G1 X123.518 Y93.801 E.03214 ; brim
G1 X123.618 Y94.112 E.0165 ; brim
G1 X123.618 Y115.746 E1.09208 ; brim
G1 X123.572 Y115.978 E.01193 ; brim
G1 X123.408 Y116.361 E.02103 ; brim
G1 X123.303 Y116.509 E.00912 ; brim
G1 X122.984 Y116.828 E.02278 ; brim
G1 X122.837 Y116.932 E.00912 ; brim
G1 X122.454 Y117.096 E.02103 ; brim
G1 X122.222 Y117.142 E.01193 ; brim
G1 X106.778 Y117.142 E.77959 ; brim
G1 X106.546 Y117.096 E.01193 ; brim
G1 X106.163 Y116.932 E.02103 ; brim
G1 X106.016 Y116.828 E.00912 ; brim
G1 X105.697 Y116.509 E.02278 ; brim
G1 X105.592 Y116.361 E.00912 ; brim
G1 X105.428 Y115.978 E.02103 ; brim
G1 X105.382 Y115.746 E.01193 ; brim
G1 X105.382 Y94.129 E1.09122 ; brim
G1 X105.452 Y93.864 E.01385 ; brim
M204 S1000 ; adjust acceleration
M73 P11 R5
M73 Q11 S5
G1 X106.016 Y94.093 F10800 ; move to first brim point
M204 S800 ; adjust acceleration
G1 F1200
G1 X106.27 Y93.712 E.02314 ; brim
G1 X106.34 Y93.655 E.00455 ; brim
G1 X106.887 Y93.428 E.02988 ; brim
G1 X106.976 Y93.42 E.00455 ; brim
G1 X107.426 Y93.509 E.02314 ; brim
G1 X107.505 Y93.552 E.00455 ; brim
G1 X113.324 Y99.37 E.41535 ; brim
G1 X113.428 Y99.519 E.00919 ; brim
G1 X113.515 Y99.715 E.01085 ; brim
G1 X113.561 Y99.946 E.01186 ; brim
G1 X113.561 Y109.117 E.46294 ; brim
G1 X115.439 Y109.117 E.09484 ; brim
G1 X115.439 Y99.942 E.46313 ; brim
G1 X115.471 Y99.763 E.00919 ; brim
G1 X115.549 Y99.562 E.01085 ; brim
G1 X115.679 Y99.367 E.01186 ; brim
G1 X121.495 Y93.552 E.41516 ; brim
G1 X121.574 Y93.509 E.00455 ; brim
G1 X122.024 Y93.42 E.02314 ; brim
G1 X122.113 Y93.428 E.00455 ; brim
G1 X122.66 Y93.655 E.02988 ; brim
G1 X122.73 Y93.712 E.00455 ; brim
G1 X122.984 Y94.093 E.02314 ; brim
G1 X123.011 Y94.179 E.00455 ; brim
G1 X123.011 Y115.717 E1.08717 ; brim
G1 X122.884 Y116.054 E.01818 ; brim
M73 P12 R5
M73 Q12 S5
G1 X122.579 Y116.375 E.02236 ; brim
G1 X122.192 Y116.535 E.02113 ; brim
G1 X106.808 Y116.535 E.77657 ; brim
G1 X106.471 Y116.408 E.01818 ; brim
G1 X106.15 Y116.103 E.02236 ; brim
G1 X105.989 Y115.717 E.02113 ; brim
G1 X105.989 Y94.179 E1.08717 ; brim
M204 S1000 ; adjust acceleration
G1 X106.596 Y94.317 F10800 ; move to first brim point
M204 S800 ; adjust acceleration
G1 F1200
G1 X106.699 Y94.163 E.0093 ; brim
G1 X106.992 Y94.042 E.01604 ; brim
G1 X107.173 Y94.078 E.0093 ; brim
G1 X112.871 Y99.775 E.40674 ; brim
G1 X112.942 Y99.917 E.00801 ; brim
G1 X112.954 Y109.724 E.49504 ; brim
G1 X116.046 Y109.724 E.15613 ; brim
G1 X116.058 Y99.917 E.49504 ; brim
G1 X116.129 Y99.775 E.00801 ; brim
M73 P13 R5
M73 Q13 S5
G1 X121.827 Y94.078 E.40674 ; brim
G1 X122.008 Y94.042 E.0093 ; brim
G1 X122.301 Y94.163 E.01604 ; brim
G1 X122.404 Y94.317 E.0093 ; brim
G1 X122.404 Y115.626 E1.07569 ; brim
G1 X122.357 Y115.738 E.0061 ; brim
G1 X122.213 Y115.882 E.01028 ; brim
G1 X122.102 Y115.928 E.0061 ; brim
G1 X106.898 Y115.928 E.76746 ; brim
G1 X106.787 Y115.882 E.0061 ; brim
G1 X106.643 Y115.738 E.01028 ; brim
G1 X106.596 Y115.626 E.0061 ; brim
G1 X106.596 Y94.407 E1.07115 ; brim
M204 S1000 ; adjust acceleration
;WIPE_START
G1 F8640
G1 X106.699 Y94.163 E-.0609 ; wipe and retract
G1 X106.992 Y94.042 E-.07338 ; wipe and retract
G1 X107.173 Y94.078 E-.04252 ; wipe and retract
G1 X108.959 Y95.864 E-.58319 ; wipe and retract
;WIPE_END
G1 E-.04 F2100 ; retract
G1 Z.6 F720 ; lift Z
G1 X125.775 Y94.407 F10800 ; move to first brim point
G1 Z.2 F720 ; restore layer Z
M73 P14 R5
M73 Q14 S5
G1 E.8 F1500 ;  ; unretract
M204 S800 ; adjust acceleration
G1 F1200
G1 X125.775 Y94.168 E.01204 ; brim
G1 X125.878 Y93.743 E.02207 ; brim
G1 X125.957 Y93.574 E.00942 ; brim
G1 X126.312 Y93.042 E.03229 ; brim
G1 X126.689 Y92.707 E.02544 ; brim
G1 X127.543 Y92.341 E.04692 ; brim
G1 X127.683 Y92.31 E.0072 ; brim
G1 X128.122 Y92.292 E.02222 ; brim
G1 X128.754 Y92.418 E.03249 ; brim
G1 X128.879 Y92.46 E.0067 ; brim
G1 X129.3 Y92.71 E.02468 ; brim
G1 X135.5 Y98.911 E.44264 ; brim
G1 X141.699 Y92.712 E.44252 ; brim
G1 X141.85 Y92.602 E.00942 ; brim
G1 X142.246 Y92.418 E.02207 ; brim
G1 X142.878 Y92.292 E.0325 ; brim
G1 X143.317 Y92.31 E.02222 ; brim
G1 X143.457 Y92.341 E.0072 ; brim
G1 X144.311 Y92.707 E.04692 ; brim
G1 X144.688 Y93.042 E.02544 ; brim
G1 X145.046 Y93.577 E.03249 ; brim
G1 X145.196 Y93.988 E.02207 ; brim
G1 X145.225 Y94.172 E.00942 ; brim
G1 X145.225 Y115.695 E1.08643 ; brim
G1 X145.142 Y116.105 E.02113 ; brim
G1 X144.924 Y116.6 E.02733 ; brim
G1 X144.753 Y116.837 E.01475 ; brim
G1 X144.394 Y117.196 E.02561 ; brim
G1 X144.157 Y117.367 E.01475 ; brim
G1 X143.662 Y117.586 E.02733 ; brim
G1 X143.251 Y117.668 E.02113 ; brim
G1 X127.749 Y117.668 E.78257 ; brim
G1 X127.338 Y117.586 E.02113 ; brim
G1 X126.843 Y117.367 E.02733 ; brim
G1 X126.606 Y117.196 E.01475 ; brim
G1 X126.247 Y116.837 E.02561 ; brim
G1 X126.076 Y116.6 E.01475 ; brim
G1 X125.858 Y116.105 E.02733 ; brim
G1 X125.775 Y115.695 E.02112 ; brim
M73 Q15 S5
G1 X125.775 Y94.497 E1.07006 ; brim
M204 S1000 ; adjust acceleration
M73 P15 R5
G1 X126.382 Y94.497 F10800 ; move to first brim point
M204 S800 ; adjust acceleration
G1 F1200
G1 X126.382 Y94.21 E.01445 ; brim
G1 X126.473 Y93.893 E.01664 ; brim
G1 X126.793 Y93.414 E.02909 ; brim
G1 X126.996 Y93.235 E.01367 ; brim
G1 X127.719 Y92.923 E.03974 ; brim
G1 X128.045 Y92.896 E.01653 ; brim
G1 X128.61 Y93.008 E.02909 ; brim
G1 X128.899 Y93.168 E.01664 ; brim
G1 X134.871 Y99.14 E.42633 ; brim
G1 X135.069 Y99.424 E.01749 ; brim
G1 X135.5 Y100.489 E.05799 ; brim
G1 X135.931 Y99.424 E.05799 ; brim
G1 X136.129 Y99.14 E.01749 ; brim
G1 X142.113 Y93.156 E.42718 ; brim
G1 X142.406 Y93.005 E.01665 ; brim
G1 X142.955 Y92.896 E.02823 ; brim
G1 X143.245 Y92.914 E.0147 ; brim
G1 X144.004 Y93.235 E.04157 ; brim
G1 X144.207 Y93.414 E.01367 ; brim
G1 X144.517 Y93.879 E.02823 ; brim
G1 X144.618 Y94.193 E.01665 ; brim
G1 X144.618 Y115.665 E1.08387 ; brim
G1 X144.572 Y115.897 E.01193 ; brim
G1 X144.408 Y116.28 E.02103 ; brim
G1 X144.303 Y116.428 E.00912 ; brim
G1 X143.984 Y116.747 E.02278 ; brim
G1 X143.837 Y116.851 E.00912 ; brim
G1 X143.454 Y117.015 E.02103 ; brim
G1 X143.222 Y117.061 E.01193 ; brim
G1 X127.778 Y117.061 E.77959 ; brim
G1 X127.546 Y117.015 E.01193 ; brim
M73 P16 R5
M73 Q16 S5
G1 X127.163 Y116.851 E.02103 ; brim
G1 X127.016 Y116.747 E.00912 ; brim
G1 X126.697 Y116.428 E.02278 ; brim
G1 X126.592 Y116.28 E.00912 ; brim
G1 X126.428 Y115.897 E.02103 ; brim
G1 X126.382 Y115.665 E.01193 ; brim
G1 X126.382 Y94.587 E1.06402 ; brim
M204 S1000 ; adjust acceleration
G1 X126.989 Y94.587 F10800 ; move to first brim point
M204 S800 ; adjust acceleration
G1 F1200
G1 X126.989 Y94.261 E.01644 ; brim
G1 X127.016 Y94.175 E.00455 ; brim
G1 X127.27 Y93.794 E.02314 ; brim
G1 X127.34 Y93.736 E.00455 ; brim
G1 X127.887 Y93.51 E.02988 ; brim
G1 X127.976 Y93.501 E.00455 ; brim
G1 X128.426 Y93.59 E.02314 ; brim
G1 X128.505 Y93.633 E.00455 ; brim
G1 X134.424 Y99.551 E.42249 ; brim
G1 X134.528 Y99.7 E.00919 ; brim
G1 X134.615 Y99.897 E.01085 ; brim
G1 X134.661 Y100.127 E.01186 ; brim
G1 X134.661 Y109.198 E.45789 ; brim
G1 X136.339 Y109.198 E.08474 ; brim
G1 X136.339 Y100.127 E.45789 ; brim
G1 X136.385 Y99.897 E.01186 ; brim
G1 X136.472 Y99.7 E.01085 ; brim
G1 X136.576 Y99.551 E.00919 ; brim
G1 X142.495 Y93.633 E.42249 ; brim
G1 X142.574 Y93.59 E.00455 ; brim
M73 P17 R5
M73 Q17 S5
G1 X143.024 Y93.501 E.02314 ; brim
G1 X143.113 Y93.51 E.00455 ; brim
G1 X143.66 Y93.736 E.02988 ; brim
G1 X143.73 Y93.794 E.00455 ; brim
G1 X143.984 Y94.175 E.02314 ; brim
G1 X144.011 Y94.261 E.00455 ; brim
G1 X144.011 Y115.635 E1.07896 ; brim
G1 X143.884 Y115.972 E.01818 ; brim
G1 X143.579 Y116.294 E.02236 ; brim
G1 X143.192 Y116.454 E.02113 ; brim
G1 X127.808 Y116.454 E.77657 ; brim
G1 X127.471 Y116.327 E.01818 ; brim
G1 X127.15 Y116.022 E.02236 ; brim
G1 X126.989 Y115.635 E.02113 ; brim
G1 X126.989 Y94.677 E1.05797 ; brim
M204 S1000 ; adjust acceleration
G1 X127.596 Y94.677 F10800 ; move to first brim point
M204 S800 ; adjust acceleration
G1 F1200
G1 X127.596 Y94.398 E.01407 ; brim
G1 X127.699 Y94.245 E.0093 ; brim
G1 X127.992 Y94.123 E.01604 ; brim
G1 X128.173 Y94.159 E.0093 ; brim
G1 X134.004 Y100.006 E.41684 ; brim
G1 X134.054 Y100.157 E.00801 ; brim
M73 P18 R5
M73 Q18 S5
G1 X134.054 Y109.805 E.48703 ; brim
G1 X136.946 Y109.805 E.14603 ; brim
G1 X136.958 Y100.098 E.48999 ; brim
G1 X137.029 Y99.957 E.00801 ; brim
G1 X142.827 Y94.159 E.41388 ; brim
G1 X143.008 Y94.123 E.0093 ; brim
G1 X143.301 Y94.245 E.01604 ; brim
G1 X143.404 Y94.398 E.0093 ; brim
G1 X143.404 Y115.545 E1.06748 ; brim
G1 X143.357 Y115.657 E.0061 ; brim
G1 X143.213 Y115.801 E.01028 ; brim
G1 X143.102 Y115.847 E.0061 ; brim
G1 X127.898 Y115.847 E.76746 ; brim
G1 X127.787 Y115.801 E.0061 ; brim
G1 X127.643 Y115.657 E.01028 ; brim
G1 X127.596 Y115.545 E.0061 ; brim
G1 X127.596 Y94.767 E1.04887 ; brim
M204 S1000 ; adjust acceleration
; printing object insert 4.stl id:0 copy 0
;WIPE_START
G1 F8640
M73 P19 R5
M73 Q19 S5
G1 X127.596 Y94.398 E-.08512 ; wipe and retract
G1 X127.699 Y94.245 E-.04252 ; wipe and retract
G1 X127.992 Y94.123 E-.07338 ; wipe and retract
G1 X128.173 Y94.159 E-.04252 ; wipe and retract
G1 X129.752 Y95.743 E-.51646 ; wipe and retract
;WIPE_END
G1 E-.04 F2100 ; retract
G1 Z.6 F720 ; lift Z
G1 X111.679 Y110.438 F10800 ; move to first perimeter point
G1 Z.2 F720 ; restore layer Z
G1 E.8 F1500 ;  ; unretract
M204 S800 ; adjust acceleration
;TYPE:Perimeter
;WIDTH:0.649999
G1 F1200
G1 X111.736 Y110.597 E.00849 ; perimeter
G1 X111.863 Y110.771 E.01087 ; perimeter
G1 X112.042 Y110.919 E.01173 ; perimeter
G1 X112.27 Y111.022 E.01265 ; perimeter
G1 X112.529 Y111.06 E.01317 ; perimeter
G1 X116.471 Y111.06 E.19903 ; perimeter
G1 X116.629 Y111.046 E.00797 ; perimeter
G1 X116.958 Y110.919 E.01781 ; perimeter
G1 X117.137 Y110.771 E.01173 ; perimeter
G1 X117.264 Y110.597 E.01087 ; perimeter
G1 X117.351 Y110.384 E.01159 ; perimeter
G1 X117.382 Y110.149 E.01198 ; perimeter
G1 X117.382 Y100.412 E.49153 ; perimeter
G1 X121.068 Y96.726 E.26312 ; perimeter
G1 X121.068 Y114.592 E.90189 ; perimeter
G1 X107.932 Y114.592 E.66308 ; perimeter
M73 P19 R4
G1 X107.932 Y96.726 E.90189 ; perimeter
M73 P20 R4
M73 Q20 S4
G1 X111.618 Y100.412 E.26312 ; perimeter
G1 X111.618 Y110.149 E.49153 ; perimeter
G1 X111.649 Y110.354 E.01046 ; perimeter
M204 S1000 ; adjust acceleration
