; generated by PrusaSlicer 2.5.0-alpha3+win64 on 2022-07-23 at 17:47:55 UTC


;
;
; 

; external perimeters extrusion width = 0.45mm
; perimeters extrusion width = 0.45mm
; infill extrusion width = 0.45mm
; solid infill extrusion width = 0.45mm
; top infill extrusion width = 0.40mm
; first layer extrusion width = 0.42mm

; external perimeters extrusion width = 0.45mm
; perimeters extrusion width = 0.45mm
; infill extrusion width = 0.45mm
; solid infill extrusion width = 0.45mm
; top infill extrusion width = 0.40mm
; first layer extrusion width = 0.42mm

; external perimeters extrusion width = 0.45mm
; perimeters extrusion width = 0.45mm
; infill extrusion width = 0.45mm
; solid infill extrusion width = 0.45mm
; top infill extrusion width = 0.40mm
; first layer extrusion width = 0.42mm

; external perimeters extrusion width = 0.45mm
; perimeters extrusion width = 0.45mm
; infill extrusion width = 0.45mm
; solid infill extrusion width = 0.45mm
; top infill extrusion width = 0.40mm
; first layer extrusion width = 0.42mm

M73 P0 R64
M73 Q0 S64
M201 X1000 Y1000 Z200 E8000 ; sets maximum accelerations, mm/sec^2
M203 X200 Y200 Z12 E120 ; sets maximum feedrates, mm / sec
M204 P1250 R1250 T1500 ; sets acceleration (P, T) and retract acceleration (R), mm/sec^2
M205 X8.00 Y8.00 Z0.40 E4.50 ; sets the jerk limits, mm/sec
M205 S0 T0 ; sets the minimum extruding and travel feed rate, mm/sec
M107
;TYPE:Custom
M862.3 P "MK3SMMU2S" ; printer model check
M862.1 P0.4 ; nozzle diameter check
M115 U3.11.0 ; tell printer latest fw version
G90 ; use absolute coordinates
M83 ; extruder relative mode
M104 S225 ; set extruder temp
M140 S60 ; set bed temp
M190 S60 ; wait for bed temp
M109 S225 ; wait for extruder temp
G28 W ; home all without mesh bed level

G4 S30 ; wait 30s for probe to reach temp -peter villano

G80 ; mesh bed leveling

; Send the filament type to the MMU2.0 unit.
; E stands for extruder number, F stands for filament type (0: default; 1:flex; 2: PVA)
M403 E0 F0
M403 E1 F0
M403 E2 F0
M403 E3 F0
M403 E4 F0


;go outside print area
G1 Y-3 F1000
G1 Z0.4 F1000
; select extruder
T0
; initial load
G1 X55 E29 F1073
G1 X5 E29 F1800
G1 X55 E8 F2000
G1 Z0.3 F1000
G92 E0
G1 X240 E25 F2200
G1 Y-2 F1000
M73 P0 R63
G1 X55 E25 F1400
G1 Z0.2 F1000
G1 X5 E4 F1000
G92 E0


M221 S95
G92 E0

; Don't change E values below. Excessive value can damage the printer.
M907 E430 ; set extruder motor current
G21 ; set units to millimeters
G90 ; use absolute coordinates
M83 ; use relative distances for extrusion
M900 K0.05 ; Filament gcode LA 1.5
M900 K30 ; Filament gcode LA 1.0
M107
;LAYER_CHANGE
;Z:0.2
;HEIGHT:0.2
;BEFORE_LAYER_CHANGE
G92 E0.0
;0.2


G1 E-.8 F2100
G1 Z.4 F720
;AFTER_LAYER_CHANGE
;0.2
G1 X7.047 Y16.25 F10800
G1 Z.2 F720
G1 E.8 F2100
M204 P800
;TYPE:Skirt/Brim
;WIDTH:0.42
G1 F1200
G1 X8.06 Y16.054 E.03236
G1 X201.602 Y16.054 E6.06837
G1 X242.043 Y16.556 E1.26809
M73 Q0 S63
G1 X243.345 Y16.964 E.04278
G1 X244.208 Y18.021 E.04278
G1 X244.391 Y18.933 E.02918
G1 X244.391 Y191.467 E5.40967
G1 X243.999 Y192.774 E.04278
M73 P1 R63
M73 Q1 S63
G1 X242.953 Y193.65 E.04278
G1 X242.043 Y193.844 E.02918
G1 X201.502 Y194.344 E1.27122
G1 X7.987 Y194.344 E6.06754
G1 X6.68 Y193.953 E.04278
G1 X5.803 Y192.907 E.04278
G1 X5.609 Y191.967 E.03008
G1 X5.609 Y18.433 E5.44104
G1 X6.001 Y17.126 E.04278
G1 X7.001 Y16.288 E.0409
M204 P1000
; printing object LONGER_ETHERNET_CLIP_-_PROPER_DIMENSIONS.stl id:0 copy 0
;WIPE_START
G1 F8640
G1 X8.06 Y16.054 E-.25053
G1 X10.267 Y16.054 E-.50947
;WIPE_END
G1 E-.04 F2100
G1 Z.6 F720
G1 X42.19 Y21.908 F10800
G1 Z.2 F720
G1 E.8 F2100
M204 P800
;TYPE:Perimeter
;WIDTH:0.598248
G1 F1200
G1 X42.051 Y21.977 E.00718
;WIDTH:0.553686
G1 X41.911 Y22.045 E.0066
;WIDTH:0.509124
G1 X41.771 Y22.113 E.00603
;WIDTH:0.464562
G1 X41.632 Y22.182 E.00545
;WIDTH:0.419999
G1 X41.297 Y22.469 E.01383
G1 X41.12 Y22.961 E.01638
G1 X40.383 Y22.754 E.02401
;WIDTH:0.42249
G1 X37.842 Y22.04 E.0833
;WIDTH:0.463756
G1 X37.753 Y22.007 E.00333
;WIDTH:0.505022
G1 X37.663 Y21.974 E.00365
;WIDTH:0.546288
G1 X37.574 Y21.941 E.00398
;WIDTH:0.587554
G1 X37.485 Y21.908 E.00431
G1 X37.574 Y21.875 E.00432
;WIDTH:0.546288
G1 X37.663 Y21.841 E.00399
;WIDTH:0.505022
G1 X37.753 Y21.808 E.00366
;WIDTH:0.463756
G1 X37.842 Y21.774 E.00333
;WIDTH:0.42249
G1 X40.383 Y21.061 E.0833
;WIDTH:0.419999
G1 X41.12 Y20.855 E.02398
G1 X41.297 Y21.347 E.01639
G1 X41.632 Y21.635 E.01385
;WIDTH:0.464562
G1 X41.771 Y21.703 E.00545
;WIDTH:0.509124
G1 X41.911 Y21.772 E.00603
;WIDTH:0.553686
G1 X42.051 Y21.84 E.0066
;WIDTH:0.598248
G1 X42.136 Y21.882 E.00441
M204 P1000
;WIPE_START
G1 F8640
G1 X42.051 Y21.977 E-.02949
;WIPE_END
G1 E-.77051 F2100
G1 Z.6 F720
G1 X53.982 Y23.013 F10800
G1 Z.2 F720
G1 E.8 F2100
M204 P800
;WIDTH:0.419999
G1 F1200
G1 X53.87 Y22.67 E.01131
G1 X53.577 Y22.311 E.01452
G1 X53.238 Y22.099 E.01254
;WIDTH:0.461881
G1 X53.108 Y22.052 E.00483
;WIDTH:0.503763
G1 X52.978 Y22.004 E.00532
;WIDTH:0.545645
G1 X52.847 Y21.956 E.0058
;WIDTH:0.587526
G1 X52.717 Y21.908 E.00628
G1 X52.847 Y21.861 E.00628
;WIDTH:0.545645
G1 X52.978 Y21.813 E.0058
;WIDTH:0.503763
G1 X53.108 Y21.765 E.00532
;WIDTH:0.461881
G1 X53.238 Y21.717 E.00483
;WIDTH:0.419999
G1 X53.577 Y21.506 E.01254
G1 X53.87 Y21.147 E.01452
;WIDTH:0.451804
G1 X54.033 Y20.736 E.01504
G1 X54.05 Y20.505 E.00787
;WIDTH:0.445766
G1 X54.441 Y20.487 E.01314
G1 X54.441 Y20.689 E.00675
;WIDTH:0.451804
G1 X54.454 Y21.299 E.02073
;WIDTH:0.419999
G1 X54.454 Y23.342 E.06407
G1 X54.037 Y23.342 E.01309
G1 X54.027 Y23.154 E.00592
G1 X54 Y23.07 E.00275
M204 P1000
;WIPE_START
G1 F8640
G1 X53.87 Y22.67 E-.09717
G1 X53.577 Y22.311 E-.10693
G1 X53.238 Y22.099 E-.09231
;WIPE_END
G1 E-.50359 F2100
G1 Z.6 F720
G1 X15.21 Y21.908 F10800
G1 Z.2 F720
G1 E.8 F2100
M204 P800
;WIDTH:0.598248
G1 F1200
G1 X15.088 Y21.967 E.00625
;WIDTH:0.553686
G1 X14.966 Y22.025 E.00575
;WIDTH:0.509124
G1 X14.844 Y22.084 E.00525
;WIDTH:0.464562
G1 X14.722 Y22.142 E.00475
;WIDTH:0.419999
G1 X14.379 Y22.4 E.01343
G1 X14.142 Y22.743 E.01306
G1 X14.013 Y23.312 E.0183
G1 X14.013 Y23.842 E.01663
G1 X9.528 Y23.842 E.14064
G1 X9.528 Y19.974 E.12128
G1 X14.013 Y19.972 E.14064
G1 X14.013 Y20.505 E.01669
G1 X14.142 Y21.074 E.01829
G1 X14.379 Y21.417 E.01308
G1 X14.722 Y21.674 E.01343
;WIDTH:0.464562
G1 X14.844 Y21.733 E.00475
;WIDTH:0.509124
G1 X14.966 Y21.791 E.00525
;WIDTH:0.553686
G1 X15.088 Y21.85 E.00575
;WIDTH:0.598248
G1 X15.156 Y21.882 E.00348
M204 P1000
;WIPE_START
G1 F8640
G1 X15.088 Y21.967 E-.02504
;WIPE_END
G1 E-.77496 F2100
G1 Z.6 F720
G1 X53.615 Y23.141 F10800
G1 Z.2 F720
G1 E.8 F2100
M204 P800
;WIDTH:0.419999
G1 F1200
G1 X53.541 Y22.853 E.00931
G1 X53.331 Y22.597 E.01037
G1 X53.089 Y22.446 E.00895
G1 X52.717 Y22.369 E.01191
G1 X42.313 Y22.369 E.32621
G1 X41.826 Y22.504 E.01584
G1 X41.588 Y22.71 E.00988
G1 X41.37 Y23.312 E.02006
G1 X41.37 Y23.423 E.00347
G1 X37.74 Y22.404 E.11823
G1 X37.485 Y22.369 E.00806
G1 X15.333 Y22.369 E.69456
G1 X14.896 Y22.476 E.0141
G1 X14.652 Y22.66 E.00959
G1 X14.483 Y22.905 E.00933
G1 X14.39 Y23.312 E.01307
G1 X14.39 Y24.219 E.02845
G1 X9.151 Y24.219 E.16429
G1 X9.151 Y19.597 E.14493
M73 P1 R62
G1 X14.39 Y19.595 E.16429
G1 X14.39 Y20.505 E.02852
G1 X14.483 Y20.911 E.01306
G1 X14.652 Y21.156 E.00934
G1 X14.896 Y21.34 E.00959
G1 X15.333 Y21.447 E.0141
G1 X37.476 Y21.447 E.69428
G1 X37.731 Y21.413 E.00804
G1 X41.37 Y20.393 E.11851
G1 X41.37 Y20.505 E.00349
G1 X41.587 Y21.106 E.02005
G1 X41.826 Y21.312 E.00989
G1 X42.313 Y21.447 E.01584
G1 X52.717 Y21.447 E.32621
G1 X53.089 Y21.371 E.01191
G1 X53.331 Y21.22 E.00895
G1 X53.541 Y20.963 E.01037
G1 X53.653 Y20.618 E.01139
G1 X53.66 Y20.097 E.01632
G1 X54.831 Y20.097 E.03674
G1 X54.831 Y23.719 E.11356
G1 X53.66 Y23.719 E.03674
G1 X53.66 Y23.312 E.01277
G1 X53.63 Y23.199 E.00367
M204 P1000
G1 X53.26 Y23.227 F10800
M204 P800
G1 F1200
G1 X53.211 Y23.037 E.00615
G1 X53.086 Y22.883 E.00622
G1 X52.94 Y22.792 E.00537
G1 X52.717 Y22.746 E.00715
G1 X42.313 Y22.746 E.32621
G1 X42.021 Y22.827 E.0095
G1 X41.878 Y22.951 E.00593
G1 X41.747 Y23.312 E.01204
G1 X41.747 Y23.92 E.01907
G1 X37.638 Y22.767 E.13383
G1 X37.485 Y22.746 E.00484
G1 X15.333 Y22.746 E.69456
G1 X15.071 Y22.811 E.00846
G1 X14.856 Y23.008 E.00914
G1 X14.768 Y23.312 E.00993
G1 X14.768 Y24.596 E.04027
G1 X8.774 Y24.596 E.18794
G1 X8.774 Y19.22 E.16857
G1 X14.768 Y19.218 E.18794
M73 P2 R62
G1 X14.768 Y20.505 E.04034
M73 Q2 S63
G1 X14.856 Y20.809 E.00993
G1 X15.071 Y21.006 E.00914
G1 X15.333 Y21.07 E.00846
G1 X37.476 Y21.07 E.69428
G1 X37.629 Y21.049 E.00483
G1 X41.747 Y19.896 E.1341
G1 X41.747 Y20.505 E.01908
G1 X41.878 Y20.866 E.01203
G1 X42.021 Y20.989 E.00594
G1 X42.313 Y21.07 E.0095
G1 X52.717 Y21.07 E.32621
G1 X52.94 Y21.024 E.00715
G1 X53.086 Y20.934 E.00537
G1 X53.211 Y20.78 E.00622
G1 X53.283 Y20.505 E.00891
G1 X53.283 Y19.72 E.02459
G1 X55.208 Y19.72 E.06038
G1 X55.208 Y24.096 E.1372
G1 X53.283 Y24.096 E.06038
G1 X53.276 Y23.285 E.02545
M204 P1000
G1 X52.902 Y23.303 F10800
M204 P800
;TYPE:External perimeter
G1 F1200
G1 X52.84 Y23.169 E.00464
G1 X52.717 Y23.123 E.00411
G1 X42.313 Y23.123 E.32621
G1 X42.216 Y23.15 E.00317
G1 X42.125 Y23.312 E.00581
G1 X42.125 Y24.417 E.03467
G1 X37.485 Y23.123 E.15102
G1 X15.333 Y23.123 E.69456
G1 X15.197 Y23.182 E.00465
G1 X15.145 Y23.312 E.0044
G1 X15.145 Y24.973 E.0521
G1 X8.397 Y24.973 E.21158
G1 X8.397 Y18.843 E.19221
G1 X15.145 Y18.841 E.21158
G1 X15.145 Y20.505 E.05217
G1 X15.197 Y20.635 E.0044
G1 X15.333 Y20.693 E.00465
G1 X37.476 Y20.693 E.69428
G1 X42.125 Y19.399 E.15129
G1 X42.125 Y20.505 E.03467
G1 X42.168 Y20.625 E.00401
G1 X42.313 Y20.693 E.00503
G1 X52.717 Y20.693 E.32621
G1 X52.84 Y20.648 E.00411
G1 X52.906 Y20.505 E.00493
G1 X52.906 Y19.343 E.03642
G1 X55.586 Y19.343 E.08403
G1 X55.586 Y24.473 E.16085
G1 X52.906 Y24.473 E.08403
G1 X52.906 Y23.363 E.03483
M204 P1000
G1 X52.956 Y23.166 F10800
;WIPE_START
G1 F8640
G1 X52.84 Y23.169 E-.04723
G1 X52.717 Y23.123 E-.03026
G1 X49.761 Y23.123 E-.68251
;WIPE_END
G1 E-.04 F2100
G1 Z.6 F720
G1 X42.19 Y21.908 F10800
G1 Z.2 F720
G1 E.8 F2100
M204 P800
;TYPE:Perimeter
;WIDTH:0.598248
G1 F1200
G1 X42.313 Y21.908 E.00567
M204 P1000
M204 P800
;WIDTH:0.587526
G1 X52.717 Y21.908 E.47113
M204 P1000
;WIPE_START
G1 F8640
G1 X49.426 Y21.908 E-.76
;WIPE_END
G1 E-.04 F2100
G1 Z.6 F720
G1 X15.21 Y21.908 F10800
G1 Z.2 F720
G1 E.8 F2100
M204 P800
;WIDTH:0.598248
G1 F1200
G1 X15.333 Y21.908 E.00567
M204 P1000
M204 P800
;WIDTH:0.587554
G1 X37.485 Y21.908 E1.00318
M204 P1000
;WIPE_START
G1 F8640
G1 X34.194 Y21.908 E-.76
;WIPE_END
G1 E-.04 F2100
G1 Z.6 F720
G1 X40.435 Y21.164 F10800
G1 Z.2 F720
G1 E.8 F2100
M204 P800
;TYPE:Solid infill
;WIDTH:0.436453
G1 F1200
G1 X41.336 Y22.066 E.04173
G1 X41.072 Y22.294 E.01141
G1 X41.055 Y22.341 E.00166
G1 X40.137 Y21.424 E.04245
G1 X39.703 Y21.546 E.01477
G1 X40.709 Y22.552 E.04656
G1 X39.935 Y22.335 E.02629
G1 X39.268 Y21.667 E.03088
G1 X38.833 Y21.789 E.01477
G1 X39.407 Y22.363 E.02654
M204 P1000
;WIPE_START
G1 F8640
G1 X38.833 Y21.789 E-.18731
G1 X39.268 Y21.667 E-.10426
G1 X39.935 Y22.335 E-.21793
G1 X40.709 Y22.552 E-.1855
G1 X40.51 Y22.353 E-.065
;WIPE_END
G1 E-.04 F2100
G1 Z.6 F720
G1 X54.341 Y22.035 F10800
G1 Z.2 F720
G1 E.8 F2100
M204 P800
;WIDTH:0.495415
G1 F1200
G1 X53.882 Y21.575 E.02445
G1 X53.763 Y21.72 E.00705
G1 X53.532 Y21.865 E.01028
G1 X54.341 Y22.675 E.04308
M204 P1000
;WIPE_START
G1 F8640
G1 X53.532 Y21.865 E-.26437
G1 X53.763 Y21.72 E-.06306
G1 X53.882 Y21.575 E-.04327
G1 X54.341 Y22.035 E-.15003
;WIPE_END
G1 E-.27928 F2100
G1 Z.6 F720
G1 X14.019 Y21.022 F10800
G1 Z.2 F720
G1 E.8 F2100
M204 P800
;WIDTH:0.445885
G1 F1200
G1 X13.253 Y20.256 E.03631
G1 X12.683 Y20.256 E.01909
G1 X14.435 Y22.007 E.083
G1 X14.177 Y22.202 E.01083
G1 X14.125 Y22.267 E.0028
G1 X12.114 Y20.256 E.09531
G1 X11.544 Y20.256 E.01909
G1 X13.895 Y22.607 E.11139
G1 X13.784 Y23.066 E.01582
G1 X10.974 Y20.256 E.13314
G1 X10.405 Y20.256 E.01909
G1 X13.708 Y23.559 E.15651
G1 X13.138 Y23.559 E.01909
G1 X9.835 Y20.257 E.1565
G1 X9.811 Y20.257 E.00082
M73 Q2 S62
G1 X9.811 Y20.802 E.01828
G1 X12.568 Y23.559 E.13065
G1 X11.998 Y23.559 E.01909
G1 X9.811 Y21.372 E.10365
G1 X9.811 Y21.942 E.01909
G1 X11.428 Y23.559 E.07664
G1 X10.858 Y23.559 E.01909
G1 X9.811 Y22.512 E.04964
G1 X9.811 Y23.082 E.01909
G1 X10.458 Y23.729 E.03068
M204 P1000
; stop printing object LONGER_ETHERNET_CLIP_-_PROPER_DIMENSIONS.stl id:0 copy 0
M106 S84.15
;LAYER_CHANGE
;Z:0.3
;HEIGHT:0.1
;BEFORE_LAYER_CHANGE
G92 E0.0
;0.3


;WIPE_START
G1 F8640
G1 X9.811 Y23.082 E-.21139
G1 X9.811 Y22.512 E-.13159
G1 X10.858 Y23.559 E-.34208
G1 X11.183 Y23.559 E-.07494
;WIPE_END
G1 E-.04 F2100
G1 Z.6 F720
;AFTER_LAYER_CHANGE
;0.3
M104 S215 ; set temperature
G1 X5.609 Y23.559 F10800
G1 Z.3 F720
G1 E.8 F2100
;TYPE:Skirt/Brim
;WIDTH:0.42
G1 F3000
G1 X5.609 Y18.433 E.08494
G1 X6.001 Y17.126 E.02261
G1 X7.047 Y16.25 E.02261
G1 X8.06 Y16.054 E.0171
G1 X201.602 Y16.054 E3.20687
G1 X242.043 Y16.556 E.67013
G1 X243.345 Y16.964 E.02261
G1 X244.208 Y18.021 E.02261
G1 X244.391 Y18.933 E.01542
G1 X244.391 Y191.467 E2.85877
G1 X243.999 Y192.774 E.02261
G1 X242.953 Y193.65 E.02261
G1 X242.043 Y193.844 E.01542
G1 X201.502 Y194.344 E.67178
G1 X7.987 Y194.344 E3.20643
G1 X6.68 Y193.953 E.02261
G1 X5.803 Y192.907 E.02261
G1 X5.609 Y191.967 E.0159
G1 X5.609 Y23.619 E2.78941
; printing object LONGER_ETHERNET_CLIP_-_PROPER_DIMENSIONS.stl id:0 copy 0
;WIPE_START
G1 F8640
G1 X5.609 Y20.328 E-.76
;WIPE_END
G1 E-.04 F2100
G1 Z.7 F720
G1 X53.535 Y22.446 F10800
G1 Z.3 F720
G1 E.8 F2100
M204 P600
;TYPE:Perimeter
;WIDTH:0.449999
G1 F2700
G1 X53.475 Y22.377 E.00163
G1 X53.09 Y22.141 E.00804
G1 X52.798 Y22.107 E.00524
;WIDTH:0.400056
G1 X52.506 Y22.073 E.00463
;WIDTH:0.350113
G1 X42.524 Y22.073 E.1364
;WIDTH:0.356279
G1 X42.397 Y22.075 E.00176
;WIDTH:0.403139
G1 X42.092 Y22.145 E.00496
;WIDTH:0.449999
G1 X41.788 Y22.216 E.00557
G1 X41.402 Y22.527 E.00883
G1 X41.215 Y23.019 E.00938
G1 X37.857 Y22.095 E.06206
;WIDTH:0.415767
G1 X37.656 Y22.084 E.00329
;WIDTH:0.382967
G1 X37.456 Y22.073 E.00301
;WIDTH:0.350166
G1 X15.544 Y22.073 E.29945
;WIDTH:0.356279
G1 X15.417 Y22.075 E.00176
;WIDTH:0.403139
G1 X15.159 Y22.121 E.00416
;WIDTH:0.449999
G1 X14.901 Y22.168 E.00468
G1 X14.511 Y22.435 E.00842
G1 X14.316 Y22.661 E.00531
G1 X14.103 Y23.108 E.00883
G1 X14.044 Y23.523 E.00746
G1 X14.044 Y23.873 E.00624
G1 X9.497 Y23.873 E.08101
G1 X9.497 Y19.943 E.07001
G1 X14.044 Y19.942 E.08101
G1 X14.044 Y20.294 E.00627
G1 X14.102 Y20.709 E.00746
G1 X14.217 Y20.992 E.00545
G1 X14.511 Y21.382 E.0087
G1 X14.901 Y21.649 E.00842
G1 X15.222 Y21.697 E.00579
;WIDTH:0.400056
G1 X15.544 Y21.744 E.00512
;WIDTH:0.350114
G1 X37.438 Y21.744 E.29915
;WIDTH:0.382941
G1 X37.647 Y21.73 E.00315
;WIDTH:0.415767
G1 X37.857 Y21.717 E.00344
;WIDTH:0.449999
G1 X41.214 Y20.796 E.06203
G1 X41.401 Y21.289 E.00939
G1 X41.788 Y21.601 E.00885
G1 X42.156 Y21.672 E.00668
;WIDTH:0.400056
G1 X42.524 Y21.744 E.0059
;WIDTH:0.350113
G1 X52.506 Y21.744 E.1364
;WIDTH:0.400056
G1 X52.798 Y21.71 E.00463
;WIDTH:0.449999
G1 X53.09 Y21.676 E.00524
G1 X53.475 Y21.439 E.00804
G1 X53.771 Y21.1 E.00803
G1 X53.964 Y20.646 E.00879
G1 X53.988 Y20.444 E.00363
G1 X54.485 Y20.444 E.00885
G1 X54.485 Y20.708 E.0047
G1 X54.485 Y23.373 E.04748
G1 X53.988 Y23.373 E.00885
G1 X53.964 Y23.171 E.00363
G1 X53.771 Y22.717 E.00879
G1 X53.574 Y22.491 E.00533
M204 P1000
G1 X53.238 Y22.751 F10800
M204 P600
G1 F2700
G1 X53.198 Y22.704 E.00109
G1 X52.923 Y22.536 E.00574
G1 X52.506 Y22.451 E.00758
G1 X42.524 Y22.451 E.17785
G1 X41.998 Y22.589 E.00969
G1 X41.723 Y22.811 E.00631
G1 X41.452 Y23.531 E.01369
G1 X37.745 Y22.491 E.0686
G1 X37.456 Y22.451 E.0052
G1 X15.544 Y22.451 E.3904
G1 X15.084 Y22.555 E.00839
G1 X14.806 Y22.746 E.00601
G1 X14.667 Y22.907 E.0038
G1 X14.514 Y23.226 E.00631
G1 X14.473 Y23.523 E.00533
G1 X14.473 Y24.301 E.01387
G1 X9.069 Y24.301 E.09628
G1 X9.069 Y19.515 E.08528
G1 X14.473 Y19.513 E.09628
G1 X14.473 Y20.294 E.01391
M73 P3 R62
M73 Q3 S62
G1 X14.514 Y20.59 E.00533
G1 X14.596 Y20.793 E.00389
G1 X14.806 Y21.071 E.00621
G1 X15.084 Y21.262 E.00601
G1 X15.544 Y21.365 E.00839
