; generated by PrusaSlicer 2.4.2+win64 on 2022-07-20 at 21:10:34 UTC


;
;
; 

; external perimeters extrusion width = 0.45mm
; perimeters extrusion width = 0.45mm
; infill extrusion width = 0.45mm
; solid infill extrusion width = 0.45mm
; top infill extrusion width = 0.40mm
; first layer extrusion width = 0.42mm

; external perimeters extrusion width = 0.45mm
; perimeters extrusion width = 0.45mm
; infill extrusion width = 0.45mm
; solid infill extrusion width = 0.45mm
; top infill extrusion width = 0.40mm
; first layer extrusion width = 0.42mm

; external perimeters extrusion width = 0.45mm
; perimeters extrusion width = 0.45mm
; infill extrusion width = 0.45mm
; solid infill extrusion width = 0.45mm
; top infill extrusion width = 0.40mm
; first layer extrusion width = 0.42mm

; external perimeters extrusion width = 0.45mm
; perimeters extrusion width = 0.45mm
; infill extrusion width = 0.45mm
; solid infill extrusion width = 0.45mm
; top infill extrusion width = 0.40mm
; first layer extrusion width = 0.42mm

; external perimeters extrusion width = 0.45mm
; perimeters extrusion width = 0.45mm
; infill extrusion width = 0.45mm
; solid infill extrusion width = 0.45mm
; top infill extrusion width = 0.40mm
; first layer extrusion width = 0.42mm

; external perimeters extrusion width = 0.45mm
; perimeters extrusion width = 0.45mm
; infill extrusion width = 0.45mm
; solid infill extrusion width = 0.45mm
; top infill extrusion width = 0.40mm
; first layer extrusion width = 0.42mm

; external perimeters extrusion width = 0.45mm
; perimeters extrusion width = 0.45mm
; infill extrusion width = 0.45mm
; solid infill extrusion width = 0.45mm
; top infill extrusion width = 0.40mm
; first layer extrusion width = 0.42mm

; external perimeters extrusion width = 0.45mm
; perimeters extrusion width = 0.45mm
; infill extrusion width = 0.45mm
; solid infill extrusion width = 0.45mm
; top infill extrusion width = 0.40mm
; first layer extrusion width = 0.42mm

; external perimeters extrusion width = 0.45mm
; perimeters extrusion width = 0.45mm
; infill extrusion width = 0.45mm
; solid infill extrusion width = 0.45mm
; top infill extrusion width = 0.40mm
; first layer extrusion width = 0.42mm

; external perimeters extrusion width = 0.45mm
; perimeters extrusion width = 0.45mm
; infill extrusion width = 0.45mm
; solid infill extrusion width = 0.45mm
; top infill extrusion width = 0.40mm
; first layer extrusion width = 0.42mm

; external perimeters extrusion width = 0.45mm
; perimeters extrusion width = 0.45mm
; infill extrusion width = 0.45mm
; solid infill extrusion width = 0.45mm
; top infill extrusion width = 0.40mm
; first layer extrusion width = 0.42mm

; external perimeters extrusion width = 0.45mm
; perimeters extrusion width = 0.45mm
; infill extrusion width = 0.45mm
; solid infill extrusion width = 0.45mm
; top infill extrusion width = 0.40mm
; first layer extrusion width = 0.42mm

; external perimeters extrusion width = 0.45mm
; perimeters extrusion width = 0.45mm
; infill extrusion width = 0.45mm
; solid infill extrusion width = 0.45mm
; top infill extrusion width = 0.40mm
; first layer extrusion width = 0.42mm

; external perimeters extrusion width = 0.45mm
; perimeters extrusion width = 0.45mm
; infill extrusion width = 0.45mm
; solid infill extrusion width = 0.45mm
; top infill extrusion width = 0.40mm
; first layer extrusion width = 0.42mm

; external perimeters extrusion width = 0.45mm
; perimeters extrusion width = 0.45mm
; infill extrusion width = 0.45mm
; solid infill extrusion width = 0.45mm
; top infill extrusion width = 0.40mm
; first layer extrusion width = 0.42mm

; external perimeters extrusion width = 0.45mm
; perimeters extrusion width = 0.45mm
; infill extrusion width = 0.45mm
; solid infill extrusion width = 0.45mm
; top infill extrusion width = 0.40mm
; first layer extrusion width = 0.42mm

M73 P0 R93
M73 Q0 S94
M201 X1000 Y1000 Z200 E8000 ; sets maximum accelerations, mm/sec^2
M203 X200 Y200 Z12 E120 ; sets maximum feedrates, mm / sec
M204 P1250 R1250 T1500 ; sets acceleration (P, T) and retract acceleration (R), mm/sec^2
M205 X8.00 Y8.00 Z0.40 E4.50 ; sets the jerk limits, mm/sec
M205 S0 T0 ; sets the minimum extruding and travel feed rate, mm/sec
M107 ; disable fan
;TYPE:Custom
M862.3 P "MK3SMMU2S" ; printer model check
M862.1 P0.4 ; nozzle diameter check
M115 U3.11.0 ; tell printer latest fw version
G90 ; use absolute coordinates
M83 ; extruder relative mode
M104 S225 ; set extruder temp
M140 S60 ; set bed temp
M190 S60 ; wait for bed temp
M109 S225 ; wait for extruder temp
G28 W ; home all without mesh bed level

G4 S30 ; wait 30s for probe to reach temp -peter villano

G80 ; mesh bed leveling

; Send the filament type to the MMU2.0 unit.
; E stands for extruder number, F stands for filament type (0: default; 1:flex; 2: PVA)
M403 E0 F0
M403 E1 F0
M403 E2 F0
M403 E3 F0
M403 E4 F0


;go outside print area
G1 Y-3 F1000
G1 Z0.4 F1000
; select extruder
T0
; initial load
G1 X55 E29 F1073
G1 X5 E29 F1800
M73 Q0 S93
G1 X55 E8 F2000
G1 Z0.3 F1000
G92 E0
G1 X240 E25 F2200
G1 Y-2 F1000
G1 X55 E25 F1400
G1 Z0.2 F1000
G1 X5 E4 F1000
G92 E0


M221 S95
G92 E0

; Don't change E values below. Excessive value can damage the printer.
M907 E430 ; set extruder motor current
G21 ; set units to millimeters
G90 ; use absolute coordinates
M83 ; use relative distances for extrusion
M900 K0.05 ; Filament gcode LA 1.5
M900 K30 ; Filament gcode LA 1.0
M107 ; disable fan
;LAYER_CHANGE
;Z:0.2
;HEIGHT:0.2
;BEFORE_LAYER_CHANGE
G92 E0.0
;0.2


G1 E-.8 F2100 ; retract
G1 Z.4 F720 ; lift Z
;AFTER_LAYER_CHANGE
;0.2
G1 X55.515 Y40.212 F10800 ; move to first skirt point
G1 Z.2 F720 ; restore layer Z
G1 E.8 F2100 ;  ; unretract
M204 P800 ; adjust acceleration
;TYPE:Skirt/Brim
;WIDTH:0.42
G1 F1200
G1 X56.312 Y39.461 E.03435 ; skirt
G1 X57.977 Y38.563 E.05932 ; skirt
G1 X60.236 Y37.535 E.07781 ; skirt
G1 X62.56 Y36.687 E.07756 ; skirt
G1 X64.642 Y36.091 E.06791 ; skirt
G1 X66.752 Y35.637 E.06766 ; skirt
G1 X68.986 Y35.314 E.07079 ; skirt
G1 X71.146 Y35.151 E.06791 ; skirt
G1 X177.549 Y35.123 E3.33618 ; skirt
G1 X180.351 Y35.249 E.08795 ; skirt
G1 X183.23 Y35.634 E.09108 ; skirt
G1 X185.975 Y36.252 E.0882 ; skirt
G1 X188.741 Y37.137 E.09108 ; skirt
G1 X191.237 Y38.182 E.08482 ; skirt
G1 X193.687 Y39.46 E.08666 ; skirt
G1 X194.624 Y40.452 E.04278 ; skirt
G1 X194.877 Y41.519 E.03439 ; skirt
G1 X194.877 Y146.519 E3.2922 ; skirt
G1 X194.825 Y148.357 E.05764 ; skirt
G1 X194.577 Y150.92 E.08076 ; skirt
G1 X194.144 Y153.37 E.07799 ; skirt
G1 X193.524 Y155.781 E.07805 ; skirt
G1 X192.724 Y158.13 E.07782 ; skirt
G1 X191.702 Y160.501 E.08094 ; skirt
G1 X190.542 Y162.703 E.07805 ; skirt
G1 X189.22 Y164.804 E.07783 ; skirt
G1 X187.678 Y166.874 E.08093 ; skirt
G1 X186.489 Y168.263 E.05734 ; skirt
G1 X185.215 Y169.591 E.0577 ; skirt
G1 X182.539 Y171.95 E.11186 ; skirt
G1 X180.711 Y173.289 E.07105 ; skirt
G1 X178.794 Y174.497 E.07105 ; skirt
G1 X177.5 Y174.877 E.04228 ; skirt
G1 X72.5 Y174.877 E3.2922 ; skirt
G1 X71.31 Y174.558 E.03863 ; skirt
G1 X70.974 Y174.361 E.01223 ; skirt
G1 X68.978 Y173.075 E.07443 ; skirt
G1 X67.16 Y171.71 E.07129 ; skirt
G1 X64.747 Y169.553 E.10148 ; skirt
G1 X62.561 Y167.167 E.10147 ; skirt
G1 X60.624 Y164.574 E.10148 ; skirt
G1 X58.956 Y161.8 E.10147 ; skirt
G1 X57.573 Y158.875 E.10147 ; skirt
G1 X56.482 Y155.801 E.10225 ; skirt
G1 X55.696 Y152.585 E.10382 ; skirt
G1 X55.249 Y149.379 E.10147 ; skirt
G1 X55.123 Y146.569 E.0882 ; skirt
G1 X55.123 Y41.519 E3.29377 ; skirt
G1 X55.497 Y40.27 E.0409 ; skirt
M204 P1000 ; adjust acceleration
; printing object OpenSCAD Model id:7 copy 0
;WIPE_START
M73 P0 R92
G1 F8640
G1 X56.312 Y39.461 E-.26505 ; wipe and retract
G1 X57.977 Y38.563 E-.43688 ; wipe and retract
G1 X58.206 Y38.459 E-.05807 ; wipe and retract
;WIPE_END
G1 E-.04 F2100 ; retract
G1 Z.6 F720 ; lift Z
G1 X93.676 Y147.198 F10800 ; move to first perimeter point
G1 Z.2 F720 ; restore layer Z
G1 E.8 F2100 ;  ; unretract
M204 P800 ; adjust acceleration
;TYPE:Perimeter
G1 F1200
G1 X94.821 Y146.601 E.04048 ; perimeter
G1 X95.691 Y146.193 E.03014 ; perimeter
G1 X96.575 Y145.814 E.03015 ; perimeter
G1 X97.379 Y145.499 E.02708 ; perimeter
G1 X98.285 Y145.176 E.03017 ; perimeter
G1 X99.201 Y144.884 E.03013 ; perimeter
G1 X100.126 Y144.623 E.03013 ; perimeter
G1 X101.059 Y144.393 E.03016 ; perimeter
G1 X101.911 Y144.211 E.02729 ; perimeter
G1 X102.851 Y144.042 E.02995 ; perimeter
G1 X103.802 Y143.902 E.03013 ; perimeter
G1 X104.757 Y143.795 E.03014 ; perimeter
G1 X105.715 Y143.72 E.03014 ; perimeter
G1 X106.675 Y143.676 E.03014 ; perimeter
G1 X107.63 Y143.665 E.02994 ; perimeter
G1 X108.5 Y143.682 E.02727 ; perimeter
G1 X109.462 Y143.731 E.03019 ; perimeter
G1 X110.322 Y143.803 E.02707 ; perimeter
G1 X111.279 Y143.913 E.03019 ; perimeter
G1 X112.139 Y144.04 E.02727 ; perimeter
G1 X113.079 Y144.209 E.02995 ; perimeter
G1 X114.019 Y144.411 E.03015 ; perimeter
G1 X114.952 Y144.644 E.03013 ; perimeter
G1 X115.876 Y144.908 E.03014 ; perimeter
G1 X116.791 Y145.202 E.03015 ; perimeter
G1 X117.604 Y145.493 E.02707 ; perimeter
G1 X118.5 Y145.845 E.03016 ; perimeter
G1 X119.383 Y146.226 E.03016 ; perimeter
G1 X120.164 Y146.594 E.02707 ; perimeter
G1 X121.324 Y147.198 E.04101 ; perimeter
G1 X121.265 Y148.536 E.04199 ; perimeter
G1 X121.182 Y149.494 E.03016 ; perimeter
G1 X121.08 Y150.352 E.02707 ; perimeter
G1 X120.936 Y151.304 E.03019 ; perimeter
G1 X120.78 Y152.153 E.02707 ; perimeter
G1 X120.576 Y153.093 E.03016 ; perimeter
G1 X120.343 Y154.019 E.02994 ; perimeter
G1 X120.076 Y154.949 E.03036 ; perimeter
G1 X119.811 Y155.772 E.02708 ; perimeter
G1 X119.487 Y156.677 E.03015 ; perimeter
G1 X119.134 Y157.571 E.03016 ; perimeter
G1 X118.791 Y158.364 E.02707 ; perimeter
G1 X118.381 Y159.234 E.03016 ; perimeter
G1 X117.946 Y160.084 E.02993 ; perimeter
G1 X117.476 Y160.93 E.03034 ; perimeter
G1 X116.982 Y161.755 E.03015 ; perimeter
G1 X116.515 Y162.481 E.02707 ; perimeter
G1 X115.969 Y163.274 E.03017 ; perimeter
G1 X115.397 Y164.046 E.03014 ; perimeter
G1 X114.801 Y164.8 E.03013 ; perimeter
G1 X114.179 Y165.533 E.03015 ; perimeter
G1 X113.6 Y166.174 E.02708 ; perimeter
G1 X112.932 Y166.867 E.03017 ; perimeter
G1 X112.243 Y167.536 E.03011 ; perimeter
G1 X111.531 Y168.183 E.03015 ; perimeter
G1 X110.798 Y168.805 E.03015 ; perimeter
G1 X110.123 Y169.343 E.02707 ; perimeter
G1 X109.352 Y169.918 E.03017 ; perimeter
G1 X108.563 Y170.467 E.03013 ; perimeter
G1 X107.5 Y171.143 E.03948 ; perimeter
G1 X106.397 Y170.44 E.04103 ; perimeter
G1 X105.688 Y169.947 E.02707 ; perimeter
G1 X104.916 Y169.373 E.03016 ; perimeter
G1 X104.164 Y168.774 E.03013 ; perimeter
G1 X103.432 Y168.151 E.03015 ; perimeter
G1 X102.793 Y167.57 E.02708 ; perimeter
G1 X102.102 Y166.901 E.03016 ; perimeter
G1 X101.434 Y166.21 E.03013 ; perimeter
G1 X100.793 Y165.501 E.02997 ; perimeter
G1 X100.23 Y164.837 E.02728 ; perimeter
G1 X99.632 Y164.085 E.03015 ; perimeter
G1 X99.059 Y163.312 E.03016 ; perimeter
G1 X98.563 Y162.597 E.02728 ; perimeter
G1 X98.043 Y161.795 E.02996 ; perimeter
G1 X97.548 Y160.972 E.03014 ; perimeter
G1 X97.079 Y160.131 E.03016 ; perimeter
G1 X96.683 Y159.364 E.02707 ; perimeter
G1 X96.269 Y158.496 E.03016 ; perimeter
G1 X95.885 Y157.615 E.03014 ; perimeter
G1 X95.532 Y156.727 E.02995 ; perimeter
G1 X95.236 Y155.909 E.02728 ; perimeter
G1 X94.938 Y154.995 E.03016 ; perimeter
G1 X94.671 Y154.071 E.03016 ; perimeter
G1 X94.457 Y153.234 E.02707 ; perimeter
G1 X94.249 Y152.295 E.03017 ; perimeter
G1 X94.072 Y151.35 E.03013 ; perimeter
G1 X93.927 Y150.406 E.02993 ; perimeter
G1 X93.813 Y149.446 E.03034 ; perimeter
G1 X93.732 Y148.488 E.03013 ; perimeter
G1 X93.677 Y147.258 E.03861 ; perimeter
M204 P1000 ; adjust acceleration
G1 X93.294 Y146.978 F10800 ; move to first perimeter point
M204 P800 ; adjust acceleration
G1 F1200
G1 X94.655 Y146.263 E.0482 ; perimeter
G1 X95.537 Y145.849 E.03054 ; perimeter
G1 X96.432 Y145.465 E.03054 ; perimeter
G1 X97.247 Y145.146 E.02745 ; perimeter
G1 X98.165 Y144.819 E.03055 ; perimeter
G1 X99.092 Y144.523 E.03053 ; perimeter
G1 X100.029 Y144.259 E.03052 ; perimeter
G1 X100.975 Y144.025 E.03054 ; perimeter
G1 X101.838 Y143.841 E.02766 ; perimeter
G1 X102.79 Y143.669 E.03034 ; perimeter
G1 X103.753 Y143.528 E.03053 ; perimeter
G1 X104.721 Y143.42 E.03053 ; perimeter
M73 Q1 S93
G1 X105.692 Y143.343 E.03053 ; perimeter
G1 X106.665 Y143.299 E.03053 ; perimeter
G1 X107.632 Y143.287 E.03033 ; perimeter
G1 X108.513 Y143.305 E.02765 ; perimeter
G1 X109.487 Y143.355 E.03056 ; perimeter
G1 X110.359 Y143.427 E.02745 ; perimeter
G1 X111.328 Y143.539 E.03057 ; perimeter
M73 P1 R92
G1 X112.2 Y143.668 E.02765 ; perimeter
G1 X113.152 Y143.839 E.03033 ; perimeter
G1 X114.105 Y144.044 E.03054 ; perimeter
G1 X115.049 Y144.279 E.03052 ; perimeter
G1 X115.985 Y144.547 E.03053 ; perimeter
G1 X116.913 Y144.845 E.03054 ; perimeter
G1 X117.737 Y145.14 E.02745 ; perimeter
G1 X118.644 Y145.496 E.03054 ; perimeter
G1 X119.538 Y145.883 E.03054 ; perimeter
G1 X120.33 Y146.255 E.02745 ; perimeter
G1 X121.706 Y146.978 E.04872 ; perimeter
G1 X121.641 Y148.562 E.04973 ; perimeter
G1 X121.557 Y149.533 E.03055 ; perimeter
G1 X121.454 Y150.402 E.02745 ; perimeter
G1 X121.308 Y151.366 E.03056 ; perimeter
G1 X121.15 Y152.227 E.02745 ; perimeter
G1 X120.944 Y153.179 E.03054 ; perimeter
G1 X120.708 Y154.117 E.03033 ; perimeter
G1 X120.437 Y155.059 E.03074 ; perimeter
G1 X120.168 Y155.893 E.02746 ; perimeter
G1 X119.84 Y156.81 E.03053 ; perimeter
G1 X119.482 Y157.716 E.03054 ; perimeter
G1 X119.134 Y158.519 E.02745 ; perimeter
G1 X118.719 Y159.401 E.03055 ; perimeter
G1 X118.279 Y160.261 E.03032 ; perimeter
G1 X117.803 Y161.119 E.03074 ; perimeter
G1 X117.302 Y161.954 E.03054 ; perimeter
G1 X116.829 Y162.69 E.02744 ; perimeter
G1 X116.276 Y163.493 E.03055 ; perimeter
G1 X115.697 Y164.276 E.03053 ; perimeter
G1 X115.092 Y165.039 E.03053 ; perimeter
G1 X114.463 Y165.782 E.03053 ; perimeter
G1 X113.875 Y166.431 E.02746 ; perimeter
G1 X113.199 Y167.133 E.03055 ; perimeter
G1 X112.501 Y167.811 E.03051 ; perimeter
G1 X111.78 Y168.466 E.03054 ; perimeter
G1 X111.038 Y169.097 E.03054 ; perimeter
G1 X110.353 Y169.642 E.02744 ; perimeter
G1 X109.572 Y170.224 E.03055 ; perimeter
G1 X108.773 Y170.78 E.03053 ; perimeter
G1 X107.5 Y171.583 E.04718 ; perimeter
G1 X106.186 Y170.753 E.04873 ; perimeter
G1 X105.468 Y170.253 E.02745 ; perimeter
G1 X104.686 Y169.672 E.03055 ; perimeter
G1 X103.924 Y169.065 E.03053 ; perimeter
G1 X103.183 Y168.434 E.03054 ; perimeter
G1 X102.535 Y167.845 E.02746 ; perimeter
G1 X101.835 Y167.167 E.03055 ; perimeter
G1 X101.158 Y166.467 E.03053 ; perimeter
G1 X100.509 Y165.749 E.03035 ; perimeter
G1 X99.939 Y165.077 E.02765 ; perimeter
G1 X99.333 Y164.314 E.03053 ; perimeter
G1 X98.752 Y163.532 E.03054 ; perimeter
G1 X98.249 Y162.807 E.02765 ; perimeter
G1 X97.723 Y161.995 E.03034 ; perimeter
G1 X97.221 Y161.161 E.03053 ; perimeter
G1 X96.747 Y160.31 E.03055 ; perimeter
G1 X96.345 Y159.532 E.02744 ; perimeter
G1 X95.926 Y158.653 E.03054 ; perimeter
G1 X95.536 Y157.76 E.03053 ; perimeter
G1 X95.179 Y156.861 E.03034 ; perimeter
G1 X94.879 Y156.032 E.02765 ; perimeter
G1 X94.577 Y155.105 E.03055 ; perimeter
G1 X94.307 Y154.17 E.03054 ; perimeter
G1 X94.09 Y153.322 E.02744 ; perimeter
G1 X93.879 Y152.37 E.03055 ; perimeter
G1 X93.7 Y151.413 E.03053 ; perimeter
G1 X93.554 Y150.457 E.03032 ; perimeter
G1 X93.438 Y149.484 E.03073 ; perimeter
G1 X93.355 Y148.514 E.03053 ; perimeter
G1 X93.295 Y147.038 E.04632 ; perimeter
M204 P1000 ; adjust acceleration
G1 X92.913 Y146.757 F10800 ; move to first perimeter point
M204 P800 ; adjust acceleration
;TYPE:External perimeter
G1 F1200
G1 X93.611 Y146.372 E.02499 ; perimeter
G1 X94.489 Y145.924 E.03093 ; perimeter
G1 X95.382 Y145.505 E.03093 ; perimeter
G1 X96.288 Y145.116 E.03092 ; perimeter
G1 X97.115 Y144.792 E.02782 ; perimeter
G1 X98.044 Y144.462 E.03094 ; perimeter
G1 X98.984 Y144.162 E.03092 ; perimeter
G1 X99.933 Y143.894 E.03092 ; perimeter
G1 X100.89 Y143.658 E.03093 ; perimeter
