; generated by PrusaSlicer 2.5.0-alpha3+win64 on 2022-07-24 at 23:37:47 UTC


;
;
; 

; external perimeters extrusion width = 0.45mm
; perimeters extrusion width = 0.45mm
; infill extrusion width = 0.45mm
; solid infill extrusion width = 0.45mm
; top infill extrusion width = 0.40mm
; first layer extrusion width = 0.42mm

; external perimeters extrusion width = 0.45mm
; perimeters extrusion width = 0.45mm
; infill extrusion width = 0.45mm
; solid infill extrusion width = 0.45mm
; top infill extrusion width = 0.40mm
; first layer extrusion width = 0.42mm

; external perimeters extrusion width = 0.45mm
; perimeters extrusion width = 0.45mm
; infill extrusion width = 0.45mm
; solid infill extrusion width = 0.45mm
; top infill extrusion width = 0.40mm
; first layer extrusion width = 0.42mm

; external perimeters extrusion width = 0.45mm
; perimeters extrusion width = 0.45mm
; infill extrusion width = 0.45mm
; solid infill extrusion width = 0.45mm
; top infill extrusion width = 0.40mm
; first layer extrusion width = 0.42mm

M73 P0 R164
M73 Q0 S165
M201 X1000 Y1000 Z200 E8000 ; sets maximum accelerations, mm/sec^2
M203 X200 Y200 Z12 E120 ; sets maximum feedrates, mm / sec
M204 P1250 R1250 T1500 ; sets acceleration (P, T) and retract acceleration (R), mm/sec^2
M205 X8.00 Y8.00 Z0.40 E4.50 ; sets the jerk limits, mm/sec
M205 S0 T0 ; sets the minimum extruding and travel feed rate, mm/sec
M107 ; disable fan
;TYPE:Custom
M862.3 P "MK3SMMU2S" ; printer model check
M862.1 P0.4 ; nozzle diameter check
M115 U3.11.0 ; tell printer latest fw version
G90 ; use absolute coordinates
M83 ; extruder relative mode
M104 S225 ; set extruder temp
M140 S60 ; set bed temp
M190 S60 ; wait for bed temp
M109 S225 ; wait for extruder temp
G28 W ; home all without mesh bed level

G4 S30 ; wait 30s for probe to reach temp -peter villano

G80 ; mesh bed leveling

; Send the filament type to the MMU2.0 unit.
; E stands for extruder number, F stands for filament type (0: default; 1:flex; 2: PVA)
M403 E0 F0
M403 E1 F0
M403 E2 F0
M403 E3 F0
M403 E4 F0


;go outside print area
G1 Y-3 F1000
G1 Z0.4 F1000
; select extruder
T0
; initial load
G1 X55 E29 F1073
G1 X5 E29 F1800
M73 P0 R163
G1 X55 E8 F2000
M73 Q0 S164
G1 Z0.3 F1000
G92 E0
G1 X240 E25 F2200
G1 Y-2 F1000
G1 X55 E25 F1400
G1 Z0.2 F1000
G1 X5 E4 F1000
G92 E0


M221 S95
G92 E0

; Don't change E values below. Excessive value can damage the printer.
M907 E430 ; set extruder motor current
G21 ; set units to millimeters
G90 ; use absolute coordinates
M83 ; use relative distances for extrusion
M900 K0.05 ; Filament gcode LA 1.5
M900 K30 ; Filament gcode LA 1.0
M107 ; disable fan
;LAYER_CHANGE
;Z:0.2
;HEIGHT:0.2
;BEFORE_LAYER_CHANGE
G92 E0.0
;0.2


G1 E-.8 F2100 ; retract
G1 Z.4 F720 ; lift Z
;AFTER_LAYER_CHANGE
;0.2
G1 X90.015 Y81.549 F10800 ; move to first skirt point
G1 Z.2 F720 ; restore layer Z
G1 E.8 F2100 ;  ; unretract
M204 P800 ; adjust acceleration
;TYPE:Skirt/Brim
;WIDTH:0.42
G1 F1200
G1 X91.164 Y80.631 E.04612 ; skirt
G1 X121.164 Y69.356 E1.00487 ; skirt
G1 X122.284 Y69.221 E.03538 ; skirt
G1 X158.284 Y73.552 E1.13689 ; skirt
G1 X159.535 Y74.096 E.04278 ; skirt
G1 X160.377 Y75.912 E.06274 ; skirt
G1 X160.377 Y104.602 E.89956 ; skirt
G1 X159.896 Y106.035 E.04739 ; skirt
G1 X146.995 Y123.071 E.67005 ; skirt
G1 X144.495 Y125.565 E.11071 ; skirt
G1 X127.707 Y140.554 E.70565 ; skirt
G1 X126.124 Y141.158 E.05312 ; skirt
G1 X92.379 Y141.158 E1.05805 ; skirt
G1 X91.072 Y140.766 E.04278 ; skirt
G1 X90.195 Y139.72 E.04278 ; skirt
G1 X90.002 Y138.8 E.02948 ; skirt
G1 X89.623 Y92.985 E1.43655 ; skirt
G1 X89.623 Y82.856 E.31759 ; skirt
G1 X89.997 Y81.606 E.0409 ; skirt
M204 P1000 ; adjust acceleration
;WIPE_START
G1 F8640
G1 X91.164 Y80.631 E-.35111 ; wipe and retract
G1 X92.821 Y80.008 E-.40889 ; wipe and retract
;WIPE_END
G1 E-.04 F2100 ; retract
G1 Z.6 F720 ; lift Z
G1 X129.364 Y108.594 F10800 ; move to first brim point
G1 Z.2 F720 ; restore layer Z
G1 E.8 F2100 ;  ; unretract
M204 P800 ; adjust acceleration
G1 F1200
G1 X130.04 Y107.905 E.03028 ; brim
G1 X130.504 Y107.577 E.01781 ; brim
G1 X131.964 Y107.119 E.04799 ; brim
G1 X141.548 Y107.123 E.30049 ; brim
G1 X142.343 Y107.283 E.02543 ; brim
G1 X143.078 Y107.607 E.02518 ; brim
G1 X143.944 Y108.319 E.03515 ; brim
G1 X144.548 Y109.213 E.03385 ; brim
G1 X144.866 Y110.241 E.03373 ; brim
G1 X144.896 Y120.039 E.30721 ; brim
G1 X144.624 Y121.108 E.03459 ; brim
G1 X144.174 Y121.9 E.02855 ; brim
G1 X143.498 Y122.589 E.03028 ; brim
G1 X143.034 Y122.917 E.01781 ; brim
G1 X141.575 Y123.374 E.04796 ; brim
G1 X131.976 Y123.374 E.30095 ; brim
G1 X130.908 Y123.102 E.03456 ; brim
G1 X130.116 Y122.652 E.02855 ; brim
G1 X129.427 Y121.976 E.03028 ; brim
G1 X129.099 Y121.512 E.01781 ; brim
G1 X128.642 Y120.053 E.04796 ; brim
G1 X128.642 Y110.454 E.30095 ; brim
G1 X128.913 Y109.386 E.03456 ; brim
G1 X129.334 Y108.646 E.02667 ; brim
M204 P1000 ; adjust acceleration
G1 X129.66 Y108.835 F10800 ; move to first brim point
M204 P800 ; adjust acceleration
G1 F1200
G1 X130.295 Y108.184 E.02852 ; brim
G1 X130.696 Y107.903 E.01535 ; brim
G1 X131.993 Y107.497 E.0426 ; brim
G1 X141.529 Y107.5 E.29901 ; brim
G1 X142.21 Y107.637 E.02177 ; brim
G1 X142.901 Y107.941 E.02369 ; brim
G1 X143.681 Y108.59 E.03181 ; brim
G1 X144.218 Y109.398 E.03042 ; brim
G1 X144.497 Y110.323 E.03029 ; brim
G1 X144.519 Y120.015 E.30389 ; brim
G1 X144.266 Y120.987 E.03151 ; brim
G1 X143.861 Y121.689 E.0254 ; brim
G1 X143.243 Y122.31 E.02748 ; brim
G1 X142.842 Y122.591 E.01535 ; brim
G1 X141.546 Y122.997 E.04259 ; brim
G1 X132.001 Y122.997 E.29929 ; brim
G1 X131.028 Y122.744 E.03149 ; brim
G1 X130.327 Y122.339 E.0254 ; brim
G1 X129.706 Y121.721 E.02748 ; brim
G1 X129.425 Y121.32 E.01535 ; brim
G1 X129.019 Y120.024 E.04259 ; brim
G1 X129.019 Y110.479 E.29929 ; brim
G1 X129.272 Y109.506 E.03149 ; brim
G1 X129.63 Y108.887 E.02244 ; brim
M204 P1000 ; adjust acceleration
G1 X129.954 Y109.078 F10800 ; move to first brim point
M204 P800 ; adjust acceleration
G1 F1200
G1 X129.989 Y109.019 E.00215 ; brim
G1 X130.548 Y108.464 E.0247 ; brim
G1 X130.887 Y108.229 E.01292 ; brim
G1 X132.021 Y107.874 E.03727 ; brim
G1 X141.509 Y107.877 E.29749 ; brim
G1 X142.113 Y108.002 E.01931 ; brim
G1 X142.722 Y108.274 E.02093 ; brim
G1 X143.416 Y108.859 E.02846 ; brim
G1 X143.887 Y109.58 E.02698 ; brim
G1 X144.128 Y110.402 E.02688 ; brim
G1 X144.142 Y119.99 E.30062 ; brim
G1 X143.909 Y120.864 E.02837 ; brim
G1 X143.549 Y121.475 E.02224 ; brim
G1 X142.99 Y122.03 E.0247 ; brim
G1 X142.651 Y122.265 E.01292 ; brim
G1 X141.517 Y122.62 E.03726 ; brim
G1 X132.026 Y122.62 E.2976 ; brim
G1 X131.152 Y122.387 E.02836 ; brim
G1 X130.541 Y122.027 E.02224 ; brim
G1 X129.986 Y121.468 E.0247 ; brim
G1 X129.751 Y121.129 E.01292 ; brim
G1 X129.396 Y119.995 E.03726 ; brim
G1 X129.396 Y110.504 E.2976 ; brim
G1 X129.629 Y109.63 E.02836 ; brim
G1 X129.923 Y109.129 E.0182 ; brim
M204 P1000 ; adjust acceleration
G1 X130.245 Y109.323 F10800 ; move to first brim point
M204 P800 ; adjust acceleration
G1 F1200
G1 X130.298 Y109.235 E.00323 ; brim
G1 X130.799 Y108.746 E.02194 ; brim
G1 X131.076 Y108.556 E.01053 ; brim
G1 X132.05 Y108.251 E.032 ; brim
G1 X141.489 Y108.254 E.29595 ; brim
G1 X142.013 Y108.366 E.0168 ; brim
G1 X142.541 Y108.605 E.01817 ; brim
G1 X143.148 Y109.127 E.0251 ; brim
G1 X143.554 Y109.758 E.02353 ; brim
G1 X143.758 Y110.479 E.02349 ; brim
G1 X143.765 Y119.964 E.2974 ; brim
G1 X143.553 Y120.738 E.02516 ; brim
G1 X143.239 Y121.259 E.01906 ; brim
G1 X142.739 Y121.748 E.02194 ; brim
G1 X142.462 Y121.938 E.01053 ; brim
G1 X141.488 Y122.243 E.03199 ; brim
G1 X132.052 Y122.243 E.29588 ; brim
G1 X131.278 Y122.031 E.02516 ; brim
G1 X130.757 Y121.717 E.01906 ; brim
G1 X130.268 Y121.217 E.02194 ; brim
G1 X130.078 Y120.94 E.01053 ; brim
G1 X129.773 Y119.966 E.03198 ; brim
G1 X129.773 Y110.53 E.29588 ; brim
G1 X129.985 Y109.756 E.02516 ; brim
G1 X130.214 Y109.375 E.01395 ; brim
M204 P1000 ; adjust acceleration
G1 X130.534 Y109.571 F10800 ; move to first brim point
M204 P800 ; adjust acceleration
G1 F1200
G1 X130.606 Y109.454 E.00431 ; brim
G1 X131.047 Y109.03 E.01921 ; brim
G1 X131.264 Y108.884 E.00817 ; brim
G1 X132.079 Y108.628 E.02679 ; brim
G1 X141.468 Y108.631 E.29438 ; brim
G1 X141.911 Y108.729 E.01423 ; brim
G1 X142.357 Y108.936 E.01541 ; brim
G1 X142.88 Y109.392 E.02178 ; brim
G1 X143.199 Y109.888 E.01847 ; brim
G1 X143.388 Y110.557 E.02179 ; brim
G1 X143.388 Y119.937 E.29413 ; brim
G1 X143.198 Y120.608 E.02187 ; brim
G1 X142.932 Y121.039 E.01588 ; brim
G1 X142.491 Y121.464 E.01921 ; brim
G1 X142.274 Y121.61 E.00817 ; brim
G1 X141.46 Y121.866 E.02678 ; brim
G1 X132.079 Y121.866 E.29413 ; brim
G1 X131.407 Y121.676 E.02187 ; brim
G1 X130.976 Y121.41 E.01588 ; brim
G1 X130.552 Y120.969 E.01921 ; brim
G1 X130.406 Y120.752 E.00817 ; brim
G1 X130.15 Y119.938 E.02678 ; brim
G1 X130.15 Y110.557 E.29413 ; brim
G1 X130.34 Y109.885 E.02187 ; brim
G1 X130.502 Y109.622 E.00969 ; brim
M204 P1000 ; adjust acceleration
G1 X130.818 Y109.823 F10800 ; move to first brim point
M204 P800 ; adjust acceleration
G1 F1200
G1 X130.91 Y109.678 E.00539 ; brim
G1 X131.293 Y109.316 E.01651 ; brim
G1 X131.449 Y109.214 E.00585 ; brim
G1 X132.108 Y109.005 E.02167 ; brim
G1 X141.445 Y109.009 E.29277 ; brim
G1 X141.805 Y109.092 E.01157 ; brim
G1 X142.17 Y109.264 E.01266 ; brim
G1 X142.61 Y109.656 E.01848 ; brim
G1 X142.845 Y110.021 E.01362 ; brim
G1 X143.011 Y110.585 E.01841 ; brim
G1 X143.011 Y119.909 E.29237 ; brim
G1 X142.844 Y120.475 E.01848 ; brim
G1 X142.628 Y120.816 E.01268 ; brim
G1 X142.245 Y121.178 E.01651 ; brim
G1 X142.089 Y121.28 E.00585 ; brim
G1 X141.43 Y121.489 E.02167 ; brim
G1 X132.107 Y121.489 E.29234 ; brim
G1 X131.541 Y121.323 E.01848 ; brim
G1 X131.2 Y121.106 E.01268 ; brim
G1 X130.838 Y120.723 E.01651 ; brim
G1 X130.736 Y120.567 E.00585 ; brim
G1 X130.527 Y119.908 E.02167 ; brim
G1 X130.527 Y110.585 E.29234 ; brim
G1 X130.693 Y110.019 E.01848 ; brim
G1 X130.786 Y109.874 E.00541 ; brim
M204 P1000 ; adjust acceleration
G1 X131.097 Y110.079 F10800 ; move to first brim point
M204 P800 ; adjust acceleration
G1 F1200
G1 X131.211 Y109.906 E.00648 ; brim
G1 X131.535 Y109.606 E.01387 ; brim
G1 X131.631 Y109.544 E.00355 ; brim
G1 X132.137 Y109.382 E.01667 ; brim
G1 X141.423 Y109.386 E.29116 ; brim
G1 X141.662 Y109.441 E.00767 ; brim
G1 X141.982 Y109.592 E.01111 ; brim
G1 X142.337 Y109.917 E.01508 ; brim
G1 X142.493 Y110.159 E.00902 ; brim
G1 X142.634 Y110.614 E.01495 ; brim
G1 X142.634 Y119.88 E.29051 ; brim
G1 X142.493 Y120.335 E.01495 ; brim
G1 X142.327 Y120.588 E.00948 ; brim
G1 X142.002 Y120.888 E.01387 ; brim
G1 X141.907 Y120.95 E.00355 ; brim
G1 X141.401 Y121.112 E.01667 ; brim
G1 X132.136 Y121.112 E.29048 ; brim
G1 X131.681 Y120.971 E.01495 ; brim
G1 X131.428 Y120.805 E.00948 ; brim
G1 X131.128 Y120.481 E.01387 ; brim
G1 X131.066 Y120.385 E.00355 ; brim
G1 X130.904 Y119.879 E.01667 ; brim
G1 X130.904 Y110.614 E.29048 ; brim
G1 X131.064 Y110.129 E.01603 ; brim
M204 P1000 ; adjust acceleration
G1 X131.394 Y110.302 F10800 ; move to first brim point
M204 P800 ; adjust acceleration
G1 F1200
G1 X131.483 Y110.168 E.00506 ; brim
G1 X131.776 Y109.897 E.01251 ; brim
G1 X132.168 Y109.759 E.01302 ; brim
G1 X141.401 Y109.763 E.2895 ; brim
G1 X141.518 Y109.79 E.00377 ; brim
G1 X141.792 Y109.92 E.0095 ; brim
G1 X142.061 Y110.174 E.0116 ; brim
G1 X142.144 Y110.302 E.00476 ; brim
G1 X142.257 Y110.646 E.01136 ; brim
G1 X142.257 Y119.848 E.28853 ; brim
G1 X142.144 Y120.192 E.01134 ; brim
G1 X142.055 Y120.326 E.00506 ; brim
G1 X141.731 Y120.616 E.01361 ; brim
G1 X141.37 Y120.735 E.01193 ; brim
G1 X132.168 Y120.735 E.28852 ; brim
G1 X131.824 Y120.622 E.01134 ; brim
G1 X131.69 Y120.533 E.00506 ; brim
G1 X131.4 Y120.209 E.01361 ; brim
G1 X131.281 Y119.848 E.01193 ; brim
G1 X131.281 Y110.646 E.28852 ; brim
G1 X131.375 Y110.359 E.00946 ; brim
M204 P1000 ; adjust acceleration
G1 X131.728 Y110.486 F10800 ; move to first brim point
M204 P800 ; adjust acceleration
G1 F1200
G1 X131.756 Y110.43 E.00196 ; brim
G1 X131.99 Y110.212 E.01002 ; brim
G1 X132.203 Y110.136 E.00709 ; brim
G1 X141.349 Y110.136 E.28677 ; brim
G1 X141.599 Y110.246 E.00856 ; brim
G1 X141.798 Y110.454 E.00902 ; brim
G1 X141.88 Y110.681 E.00757 ; brim
G1 X141.88 Y119.813 E.28633 ; brim
G1 X141.782 Y120.064 E.00845 ; brim
G1 X141.548 Y120.281 E.01002 ; brim
G1 X141.335 Y120.358 E.00709 ; brim
G1 X132.203 Y120.358 E.28633 ; brim
G1 X131.952 Y120.26 E.00845 ; brim
G1 X131.734 Y120.026 E.01002 ; brim
G1 X131.658 Y119.813 E.00709 ; brim
G1 X131.658 Y110.681 E.28633 ; brim
G1 X131.708 Y110.542 E.00462 ; brim
M204 P1000 ; adjust acceleration
G1 X132.051 Y110.684 F10800 ; move to first brim point
M204 P800 ; adjust acceleration
G1 F1200
G1 X132.176 Y110.542 E.00593 ; brim
G1 X132.245 Y110.513 E.00235 ; brim
G1 X141.293 Y110.513 E.2837 ; brim
G1 X141.362 Y110.542 E.00235 ; brim
G1 X141.474 Y110.654 E.00495 ; brim
G1 X141.503 Y110.723 E.00235 ; brim
G1 X141.503 Y119.771 E.2837 ; brim
G1 X141.474 Y119.84 E.00235 ; brim
G1 X141.362 Y119.952 E.00495 ; brim
G1 X141.293 Y119.981 E.00235 ; brim
G1 X132.245 Y119.981 E.2837 ; brim
G1 X132.176 Y119.952 E.00235 ; brim
G1 X132.064 Y119.84 E.00495 ; brim
G1 X132.035 Y119.771 E.00235 ; brim
G1 X132.035 Y110.741 E.28312 ; brim
M204 P1000 ; adjust acceleration
; printing object mike and tine.stl_3 id:0 copy 0
;WIPE_START
G1 F8640
G1 X132.176 Y110.542 E-.05628 ; wipe and retract
G1 X132.245 Y110.513 E-.01732 ; wipe and retract
G1 X135.218 Y110.513 E-.6864 ; wipe and retract
;WIPE_END
G1 E-.04 F2100 ; retract
G1 Z.6 F720 ; lift Z
G1 X116.624 Y82.064 F10800 ; move to first perimeter point
G1 Z.2 F720 ; restore layer Z
G1 E.8 F2100 ;  ; unretract
M204 P800 ; adjust acceleration
;TYPE:Perimeter
;WIDTH:0.419999
G1 F1200
G1 X116.539 Y82.101 E.00293 ; perimeter
G1 X116.339 Y82.301 E.00885 ; perimeter
G1 X116.261 Y82.589 E.00935 ; perimeter
G1 X116.261 Y93.479 E.34145 ; perimeter
G1 X116.307 Y93.703 E.00719 ; perimeter
G1 X116.467 Y93.916 E.00833 ; perimeter
G1 X116.667 Y94.022 E.0071 ; perimeter
G1 X121.213 Y95.355 E.14854 ; perimeter
G1 X121.213 Y103.104 E.24295 ; perimeter
G1 X92.787 Y92.42 E.95214 ; perimeter
M73 P0 R162
G1 X92.787 Y83.401 E.28279 ; perimeter
M73 Q0 S163
G1 X121.213 Y72.717 E.95214 ; perimeter
G1 X121.213 Y80.693 E.25009 ; perimeter
G1 X116.68 Y82.042 E.14828 ; perimeter
M204 P1000 ; adjust acceleration
G1 X116.796 Y82.401 F10800 ; move to first perimeter point
M204 P800 ; adjust acceleration
;TYPE:External perimeter
G1 F1200
G1 X116.708 Y82.441 E.00302 ; perimeter
G1 X116.638 Y82.589 E.00512 ; perimeter
G1 X116.638 Y92.543 E.31211 ; perimeter
G1 X116.653 Y93.554 E.0317 ; perimeter
G1 X116.773 Y93.66 E.00502 ; perimeter
G1 X121.59 Y95.073 E.1574 ; perimeter
G1 X121.59 Y103.649 E.26888 ; perimeter
G1 X92.41 Y92.681 E.9774 ; perimeter
G1 X92.41 Y83.14 E.29917 ; perimeter
G1 X121.59 Y72.173 E.9774 ; perimeter
G1 X121.59 Y80.975 E.27598 ; perimeter
G1 X116.853 Y82.384 E.15495 ; perimeter
M204 P1000 ; adjust acceleration
G1 X116.706 Y82.365 F10800 ; move inwards before travel
;WIPE_START
G1 F8640
G1 X116.708 Y82.441 E-.03599 ; wipe and retract
G1 X116.638 Y82.589 E-.03774 ; wipe and retract
G1 X116.638 Y85.561 E-.68628 ; wipe and retract
;WIPE_END
G1 E-.04 F2100 ; retract
G1 Z.6 F720 ; lift Z
G1 X99.175 Y87.555 F10800 ; move to first perimeter point
G1 Z.2 F720 ; restore layer Z
G1 E.8 F2100 ;  ; unretract
M204 P800 ; adjust acceleration
;TYPE:Perimeter
G1 F1200
G1 X99.386 Y87.326 E.00977 ; perimeter
G1 X99.507 Y87.272 E.00416 ; perimeter
G1 X110.616 Y83.857 E.36441 ; perimeter
G1 X110.836 Y83.835 E.00693 ; perimeter
G1 X111.08 Y83.917 E.00809 ; perimeter
G1 X111.255 Y84.087 E.00763 ; perimeter
G1 X111.348 Y84.398 E.01017 ; perimeter
G1 X111.348 Y91.607 E.22603 ; perimeter
G1 X111.321 Y91.778 E.00543 ; perimeter
G1 X111.193 Y91.996 E.00792 ; perimeter
G1 X110.944 Y92.149 E.00919 ; perimeter
G1 X110.678 Y92.163 E.00835 ; perimeter
G1 X110.617 Y92.148 E.00196 ; perimeter
G1 X99.508 Y88.754 E.3642 ; perimeter
G1 X99.308 Y88.645 E.00715 ; perimeter
