; generated by PrusaSlicer 2.5.0-alpha3+win64 on 2022-07-24 at 23:31:49 UTC


;
;
; 

; external perimeters extrusion width = 0.45mm
; perimeters extrusion width = 0.45mm
; infill extrusion width = 0.45mm
; solid infill extrusion width = 0.45mm
; top infill extrusion width = 0.40mm
; support material extrusion width = 0.35mm
; first layer extrusion width = 0.42mm

; external perimeters extrusion width = 0.45mm
; perimeters extrusion width = 0.45mm
; infill extrusion width = 0.45mm
; solid infill extrusion width = 0.45mm
; top infill extrusion width = 0.40mm
; support material extrusion width = 0.35mm
; first layer extrusion width = 0.42mm

; external perimeters extrusion width = 0.45mm
; perimeters extrusion width = 0.45mm
; infill extrusion width = 0.45mm
; solid infill extrusion width = 0.45mm
; top infill extrusion width = 0.40mm
; support material extrusion width = 0.35mm
; first layer extrusion width = 0.42mm

; external perimeters extrusion width = 0.45mm
; perimeters extrusion width = 0.45mm
; infill extrusion width = 0.45mm
; solid infill extrusion width = 0.45mm
; top infill extrusion width = 0.40mm
; support material extrusion width = 0.35mm
; first layer extrusion width = 0.42mm

M73 P0 R126
M73 Q0 S127
M201 X1000 Y1000 Z200 E8000 ; sets maximum accelerations, mm/sec^2
M203 X200 Y200 Z12 E120 ; sets maximum feedrates, mm / sec
M204 P1250 R1250 T1500 ; sets acceleration (P, T) and retract acceleration (R), mm/sec^2
M205 X8.00 Y8.00 Z0.40 E4.50 ; sets the jerk limits, mm/sec
M205 S0 T0 ; sets the minimum extruding and travel feed rate, mm/sec
M107 ; disable fan
;TYPE:Custom
M862.3 P "MK3SMMU2S" ; printer model check
M862.1 P0.4 ; nozzle diameter check
M115 U3.11.0 ; tell printer latest fw version
G90 ; use absolute coordinates
M83 ; extruder relative mode
M104 S225 ; set extruder temp
M140 S60 ; set bed temp
M190 S60 ; wait for bed temp
M109 S225 ; wait for extruder temp
G28 W ; home all without mesh bed level

G4 S30 ; wait 30s for probe to reach temp -peter villano

G80 ; mesh bed leveling

; Send the filament type to the MMU2.0 unit.
; E stands for extruder number, F stands for filament type (0: default; 1:flex; 2: PVA)
M403 E0 F0
M403 E1 F0
M403 E2 F0
M403 E3 F0
M403 E4 F0


;go outside print area
G1 Y-3 F1000
G1 Z0.4 F1000
; select extruder
T0
; initial load
G1 X55 E29 F1073
G1 X5 E29 F1800
G1 X55 E8 F2000
G1 Z0.3 F1000
G92 E0
M73 Q0 S126
G1 X240 E25 F2200
G1 Y-2 F1000
M73 P0 R125
G1 X55 E25 F1400
G1 Z0.2 F1000
G1 X5 E4 F1000
G92 E0


M221 S95
G92 E0

; Don't change E values below. Excessive value can damage the printer.
M907 E430 ; set extruder motor current
G21 ; set units to millimeters
G90 ; use absolute coordinates
M83 ; use relative distances for extrusion
M900 K0.05 ; Filament gcode LA 1.5
M900 K30 ; Filament gcode LA 1.0
M107 ; disable fan
;LAYER_CHANGE
;Z:0.2
;HEIGHT:0.2
;BEFORE_LAYER_CHANGE
G92 E0.0
;0.2


G1 E-.8 F2100 ; retract
G1 Z.4 F720 ; lift Z
;AFTER_LAYER_CHANGE
;0.2
G1 X96.232 Y111.185 F10800 ; move to first skirt point
G1 Z.2 F720 ; restore layer Z
G1 E.8 F2100 ;  ; unretract
M204 P800 ; adjust acceleration
;TYPE:Skirt/Brim
;WIDTH:0.42
G1 F1200
G1 X122.36 Y88.57 E1.08348 ; skirt
G1 X144.463 Y71.7 E.87181 ; skirt
G1 X145.069 Y71.365 E.0217 ; skirt
G1 X165.945 Y63.519 E.69928 ; skirt
G1 X167.307 Y63.425 E.04278 ; skirt
G1 X168.495 Y64.096 E.04278 ; skirt
G1 X169.159 Y65.744 E.0557 ; skirt
G1 X169.159 Y88.472 E.71262 ; skirt
G1 X168.458 Y90.157 E.05724 ; skirt
G1 X146.468 Y112.019 E.9722 ; skirt
G1 X109.399 Y146.008 E1.57691 ; skirt
G1 X107.793 Y146.633 E.05405 ; skirt
G1 X84.31 Y146.633 E.73629 ; skirt
G1 X83.003 Y146.242 E.04278 ; skirt
G1 X82.127 Y145.196 E.04278 ; skirt
G1 X81.933 Y144.256 E.03008 ; skirt
G1 X81.933 Y124.647 E.61484 ; skirt
G1 X82.755 Y122.849 E.06196 ; skirt
G1 X96.186 Y111.224 E.55698 ; skirt
M204 P1000 ; adjust acceleration
;WIPE_START
G1 F8640
G1 X98.675 Y109.07 E-.76 ; wipe and retract
;WIPE_END
G1 E-.04 F2100 ; retract
G1 Z.6 F720 ; lift Z
G1 X108.795 Y114.422 F10800 ; move to first brim point
G1 Z.2 F720 ; restore layer Z
G1 E.8 F2100 ;  ; unretract
M204 P800 ; adjust acceleration
G1 F1200
G1 X108.949 Y113.813 E.0197 ; brim
G1 X109.296 Y113.141 E.02372 ; brim
G1 X110.052 Y112.335 E.03463 ; brim
G1 X110.539 Y111.984 E.01881 ; brim
G1 X111.893 Y111.54 E.04468 ; brim
G1 X118.802 Y111.53 E.21665 ; brim
G1 X119.56 Y111.686 E.02426 ; brim
G1 X120.295 Y112.01 E.02519 ; brim
G1 X121.16 Y112.72 E.03509 ; brim
G1 X121.736 Y113.554 E.03178 ; brim
G1 X122.072 Y114.573 E.03362 ; brim
G1 X122.114 Y121.614 E.2208 ; brim
G1 X121.849 Y122.661 E.03386 ; brim
G1 X121.502 Y123.334 E.02372 ; brim
G1 X120.746 Y124.139 E.03463 ; brim
G1 X120.26 Y124.49 E.01879 ; brim
G1 X118.792 Y124.952 E.04825 ; brim
G1 X112.019 Y124.952 E.21237 ; brim
G1 X110.975 Y124.687 E.03378 ; brim
G1 X110.303 Y124.34 E.02372 ; brim
G1 X109.497 Y123.584 E.03463 ; brim
G1 X109.147 Y123.098 E.01879 ; brim
G1 X108.684 Y121.63 E.04825 ; brim
G1 X108.684 Y114.857 E.21237 ; brim
G1 X108.78 Y114.48 E.0122 ; brim
M204 P1000 ; adjust acceleration
G1 X109.141 Y114.574 F10800 ; move to first brim point
M204 P800 ; adjust acceleration
G1 F1200
G1 X109.308 Y113.929 E.02087 ; brim
G1 X109.618 Y113.34 E.02087 ; brim
G1 X110.312 Y112.609 E.03162 ; brim
G1 X110.733 Y112.309 E.01621 ; brim
G1 X111.98 Y111.908 E.04105 ; brim
G1 X118.747 Y111.903 E.21219 ; brim
G1 X119.427 Y112.04 E.02175 ; brim
G1 X120.119 Y112.344 E.02369 ; brim
G1 X120.898 Y112.992 E.03177 ; brim
G1 X121.409 Y113.743 E.02847 ; brim
G1 X121.704 Y114.66 E.03021 ; brim
G1 X121.737 Y121.591 E.21733 ; brim
G1 X121.49 Y122.545 E.03089 ; brim
G1 X121.181 Y123.134 E.02087 ; brim
G1 X120.486 Y123.865 E.03162 ; brim
G1 X120.066 Y124.165 E.01619 ; brim
G1 X118.764 Y124.575 E.0428 ; brim
G1 X112.044 Y124.575 E.2107 ; brim
G1 X111.091 Y124.328 E.03084 ; brim
G1 X110.502 Y124.019 E.02087 ; brim
G1 X109.771 Y123.324 E.03162 ; brim
G1 X109.471 Y122.904 E.01619 ; brim
G1 X109.061 Y121.602 E.0428 ; brim
G1 X109.061 Y114.882 E.2107 ; brim
G1 X109.126 Y114.632 E.00809 ; brim
M204 P1000 ; adjust acceleration
G1 X109.486 Y114.727 F10800 ; move to first brim point
M204 P800 ; adjust acceleration
G1 F1200
G1 X109.667 Y114.048 E.02203 ; brim
G1 X109.937 Y113.542 E.01801 ; brim
G1 X110.571 Y112.884 E.02862 ; brim
G1 X110.925 Y112.634 E.01361 ; brim
G1 X112.064 Y112.276 E.03743 ; brim
G1 X118.727 Y112.28 E.20891 ; brim
G1 X119.33 Y112.404 E.01931 ; brim
G1 X119.94 Y112.677 E.02093 ; brim
G1 X120.633 Y113.262 E.02846 ; brim
G1 X121.08 Y113.929 E.02516 ; brim
G1 X121.336 Y114.745 E.02682 ; brim
G1 X121.36 Y121.567 E.2139 ; brim
G1 X121.132 Y122.426 E.02787 ; brim
G1 X120.861 Y122.933 E.01801 ; brim
G1 X120.228 Y123.59 E.02862 ; brim
G1 X119.873 Y123.84 E.01361 ; brim
G1 X118.735 Y124.198 E.03741 ; brim
G1 X112.069 Y124.198 E.20901 ; brim
G1 X111.21 Y123.969 E.02785 ; brim
G1 X110.704 Y123.699 E.01801 ; brim
G1 X110.046 Y123.066 E.02862 ; brim
G1 X109.796 Y122.711 E.01361 ; brim
G1 X109.439 Y121.573 E.03741 ; brim
G1 X109.439 Y114.907 E.20901 ; brim
G1 X109.471 Y114.785 E.00393 ; brim
M204 P1000 ; adjust acceleration
G1 X109.829 Y114.883 F10800 ; move to first brim point
M204 P800 ; adjust acceleration
G1 F1200
G1 X110.024 Y114.17 E.02318 ; brim
G1 X110.255 Y113.746 E.01515 ; brim
G1 X110.827 Y113.162 E.02562 ; brim
G1 X111.116 Y112.96 E.01106 ; brim
G1 X112.093 Y112.654 E.03209 ; brim
G1 X118.707 Y112.657 E.20737 ; brim
G1 X119.231 Y112.769 E.0168 ; brim
G1 X119.758 Y113.008 E.01817 ; brim
G1 X120.367 Y113.53 E.02513 ; brim
G1 X120.749 Y114.112 E.02183 ; brim
G1 X120.967 Y114.827 E.02345 ; brim
G1 X120.983 Y121.542 E.21052 ; brim
G1 X120.774 Y122.304 E.02478 ; brim
G1 X120.543 Y122.728 E.01515 ; brim
G1 X119.972 Y123.313 E.02562 ; brim
G1 X119.682 Y123.514 E.01106 ; brim
G1 X118.706 Y123.821 E.03208 ; brim
G1 X112.095 Y123.821 E.2073 ; brim
G1 X111.332 Y123.612 E.02478 ; brim
G1 X110.908 Y123.381 E.01515 ; brim
G1 X110.324 Y122.81 E.02562 ; brim
G1 X110.122 Y122.52 E.01106 ; brim
G1 X109.816 Y121.544 E.03207 ; brim
G1 X109.816 Y114.942 E.20701 ; brim
M204 P1000 ; adjust acceleration
G1 X110.193 Y114.959 F10800 ; move to first brim point
M204 P800 ; adjust acceleration
G1 F1200
G1 X110.38 Y114.296 E.02163 ; brim
G1 X110.571 Y113.953 E.01229 ; brim
G1 X111.08 Y113.441 E.02264 ; brim
G1 X111.305 Y113.288 E.00855 ; brim
G1 X112.122 Y113.031 E.02684 ; brim
G1 X118.685 Y113.034 E.2058 ; brim
G1 X119.128 Y113.132 E.01422 ; brim
G1 X119.574 Y113.338 E.01541 ; brim
G1 X120.098 Y113.795 E.02178 ; brim
G1 X120.417 Y114.292 E.0185 ; brim
G1 X120.598 Y114.907 E.02011 ; brim
G1 X120.606 Y121.515 E.20719 ; brim
G1 X120.418 Y122.179 E.02163 ; brim
G1 X120.227 Y122.521 E.01229 ; brim
G1 X119.718 Y123.033 E.02264 ; brim
G1 X119.493 Y123.187 E.00855 ; brim
G1 X118.677 Y123.444 E.02682 ; brim
G1 X112.121 Y123.444 E.20555 ; brim
G1 X111.458 Y123.256 E.02163 ; brim
G1 X111.115 Y123.065 E.01229 ; brim
G1 X110.603 Y122.556 E.02264 ; brim
G1 X110.45 Y122.331 E.00855 ; brim
G1 X110.193 Y121.515 E.02682 ; brim
G1 X110.193 Y115.019 E.20367 ; brim
M204 P1000 ; adjust acceleration
G1 X110.57 Y115.019 F10800 ; move to first brim point
M204 P800 ; adjust acceleration
G1 F1200
G1 X110.735 Y114.425 E.01934 ; brim
G1 X110.884 Y114.164 E.00942 ; brim
G1 X111.331 Y113.724 E.01967 ; brim
G1 X111.491 Y113.617 E.00606 ; brim
G1 X112.151 Y113.408 E.02168 ; brim
G1 X118.663 Y113.411 E.20419 ; brim
G1 X119.022 Y113.494 E.01156 ; brim
G1 X119.387 Y113.667 E.01266 ; brim
G1 X119.827 Y114.059 E.01848 ; brim
G1 X120.063 Y114.424 E.01362 ; brim
G1 X120.229 Y114.987 E.01841 ; brim
G1 X120.229 Y121.487 E.20378 ; brim
G1 X120.063 Y122.049 E.01838 ; brim
G1 X119.914 Y122.31 E.00942 ; brim
G1 X119.468 Y122.751 E.01967 ; brim
G1 X119.307 Y122.858 E.00606 ; brim
G1 X118.648 Y123.067 E.02167 ; brim
G1 X112.149 Y123.067 E.20376 ; brim
G1 X111.587 Y122.901 E.01838 ; brim
G1 X111.326 Y122.752 E.00942 ; brim
G1 X110.886 Y122.306 E.01967 ; brim
G1 X110.779 Y122.145 E.00606 ; brim
G1 X110.57 Y121.486 E.02167 ; brim
G1 X110.57 Y115.079 E.20087 ; brim
M204 P1000 ; adjust acceleration
G1 X110.947 Y115.079 F10800 ; move to first brim point
M204 P800 ; adjust acceleration
G1 F1200
G1 X110.947 Y115.017 E.00196 ; brim
G1 X111.088 Y114.56 E.015 ; brim
G1 X111.195 Y114.38 E.00656 ; brim
G1 X111.578 Y114.009 E.01672 ; brim
G1 X111.674 Y113.947 E.00358 ; brim
G1 X112.18 Y113.785 E.01667 ; brim
G1 X118.641 Y113.788 E.20258 ; brim
G1 X118.879 Y113.844 E.00767 ; brim
G1 X119.2 Y113.995 E.01111 ; brim
G1 X119.554 Y114.32 E.01508 ; brim
G1 X119.711 Y114.562 E.00902 ; brim
G1 X119.851 Y115.017 E.01495 ; brim
G1 X119.851 Y121.457 E.20193 ; brim
G1 X119.71 Y121.914 E.015 ; brim
G1 X119.604 Y122.094 E.00656 ; brim
G1 X119.221 Y122.465 E.01672 ; brim
G1 X119.125 Y122.527 E.00358 ; brim
G1 X118.618 Y122.689 E.01667 ; brim
G1 X112.179 Y122.689 E.2019 ; brim
G1 X111.722 Y122.548 E.015 ; brim
G1 X111.542 Y122.442 E.00656 ; brim
G1 X111.171 Y122.059 E.01672 ; brim
G1 X111.109 Y121.962 E.00358 ; brim
G1 X110.947 Y121.456 E.01667 ; brim
G1 X110.947 Y115.139 E.19806 ; brim
M204 P1000 ; adjust acceleration
G1 X111.324 Y115.139 F10800 ; move to first brim point
M204 P800 ; adjust acceleration
G1 F1200
G1 X111.324 Y115.049 E.00284 ; brim
G1 X111.438 Y114.702 E.01143 ; brim
G1 X111.5 Y114.601 E.00372 ; brim
G1 X111.82 Y114.299 E.0138 ; brim
G1 X112.211 Y114.162 E.01299 ; brim
G1 X118.619 Y114.166 E.20092 ; brim
G1 X118.736 Y114.193 E.00377 ; brim
G1 X119.01 Y114.323 E.0095 ; brim
G1 X119.278 Y114.577 E.0116 ; brim
G1 X119.361 Y114.704 E.00476 ; brim
G1 X119.474 Y115.049 E.01136 ; brim
G1 X119.474 Y121.426 E.19994 ; brim
G1 X119.361 Y121.772 E.01143 ; brim
G1 X119.298 Y121.873 E.00372 ; brim
G1 X118.979 Y122.175 E.0138 ; brim
G1 X118.588 Y122.312 E.01299 ; brim
G1 X112.211 Y122.312 E.19994 ; brim
G1 X111.864 Y122.199 E.01143 ; brim
G1 X111.763 Y122.136 E.00372 ; brim
G1 X111.461 Y121.817 E.0138 ; brim
G1 X111.324 Y121.425 E.01299 ; brim
G1 X111.324 Y115.199 E.19521 ; brim
M204 P1000 ; adjust acceleration
G1 X111.701 Y115.199 F10800 ; move to first brim point
M204 P800 ; adjust acceleration
G1 F1200
G1 X111.701 Y115.084 E.00363 ; brim
G1 X111.798 Y114.832 E.00845 ; brim
G1 X112.033 Y114.615 E.01002 ; brim
G1 X112.246 Y114.539 E.00709 ; brim
G1 X118.567 Y114.539 E.19819 ; brim
G1 X118.817 Y114.649 E.00856 ; brim
G1 X119.016 Y114.856 E.00902 ; brim
G1 X119.097 Y115.084 E.00757 ; brim
G1 X119.097 Y121.39 E.19774 ; brim
G1 X119 Y121.642 E.00845 ; brim
G1 X118.765 Y121.859 E.01002 ; brim
G1 X118.553 Y121.935 E.00709 ; brim
G1 X112.246 Y121.935 E.19774 ; brim
G1 X111.994 Y121.838 E.00845 ; brim
G1 X111.777 Y121.603 E.01002 ; brim
G1 X111.701 Y121.39 E.00709 ; brim
G1 X111.701 Y115.259 E.19224 ; brim
M204 P1000 ; adjust acceleration
G1 X112.078 Y115.259 F10800 ; move to first brim point
M204 P800 ; adjust acceleration
G1 F1200
G1 X112.078 Y115.126 E.00419 ; brim
G1 X112.107 Y115.056 E.00235 ; brim
G1 X112.218 Y114.945 E.00495 ; brim
G1 X112.288 Y114.916 E.00235 ; brim
G1 X118.511 Y114.916 E.19511 ; brim
G1 X118.58 Y114.945 E.00235 ; brim
G1 X118.692 Y115.056 E.00495 ; brim
G1 X118.72 Y115.126 E.00235 ; brim
G1 X118.72 Y121.349 E.19511 ; brim
G1 X118.692 Y121.418 E.00235 ; brim
G1 X118.58 Y121.53 E.00495 ; brim
G1 X118.511 Y121.558 E.00235 ; brim
G1 X112.288 Y121.558 E.19511 ; brim
G1 X112.218 Y121.53 E.00235 ; brim
G1 X112.107 Y121.418 E.00495 ; brim
G1 X112.078 Y121.349 E.00235 ; brim
G1 X112.078 Y115.319 E.18904 ; brim
M204 P1000 ; adjust acceleration
; printing object mike and tine.stl_3 id:0 copy 0
;WIPE_START
G1 F8640
G1 X112.078 Y115.126 E-.04473 ; wipe and retract
G1 X112.107 Y115.056 E-.01732 ; wipe and retract
G1 X112.218 Y114.945 E-.03645 ; wipe and retract
G1 X112.288 Y114.916 E-.01732 ; wipe and retract
G1 X115.078 Y114.916 E-.64418 ; wipe and retract
;WIPE_END
G1 E-.04 F2100 ; retract
G1 Z.6 F720 ; lift Z
G1 X150.326 Y76.678 F10800 ; move to first perimeter point
G1 Z.2 F720 ; restore layer Z
G1 E.8 F2100 ;  ; unretract
M204 P800 ; adjust acceleration
;TYPE:Perimeter
;WIDTH:0.419999
G1 F1200
G1 X150.394 Y76.512 E.00566 ; perimeter
G1 X150.615 Y76.25 E.01074 ; perimeter
G1 X150.936 Y76.078 E.01141 ; perimeter
G1 X158.766 Y73.671 E.25683 ; perimeter
G1 X159.009 Y73.63 E.00773 ; perimeter
G1 X159.245 Y73.651 E.00742 ; perimeter
G1 X159.453 Y73.723 E.00691 ; perimeter
G1 X159.629 Y73.834 E.00654 ; perimeter
G1 X159.83 Y74.054 E.00934 ; perimeter
G1 X159.944 Y74.296 E.00838 ; perimeter
G1 X159.985 Y74.572 E.00875 ; perimeter
G1 X159.985 Y79.771 E.16301 ; perimeter
G1 X159.941 Y80.056 E.00905 ; perimeter
G1 X159.82 Y80.304 E.00865 ; perimeter
G1 X159.63 Y80.508 E.00874 ; perimeter
G1 X159.252 Y80.69 E.01317 ; perimeter
G1 X158.868 Y80.697 E.01202 ; perimeter
G1 X150.938 Y78.281 E.25995 ; perimeter
G1 X150.598 Y78.094 E.01215 ; perimeter
G1 X150.375 Y77.809 E.01134 ; perimeter
G1 X150.285 Y77.542 E.00885 ; perimeter
G1 X150.27 Y76.98 E.01763 ; perimeter
G1 X150.303 Y76.734 E.00778 ; perimeter
M204 P1000 ; adjust acceleration
G1 X150.678 Y76.805 F10800 ; move to first perimeter point
M204 P800 ; adjust acceleration
G1 F1200
G1 X150.722 Y76.699 E.00359 ; perimeter
G1 X150.926 Y76.492 E.0091 ; perimeter
G1 X151.047 Y76.438 E.00416 ; perimeter
G1 X158.876 Y74.032 E.25683 ; perimeter
G1 X159.164 Y74.02 E.00902 ; perimeter
G1 X159.289 Y74.063 E.00415 ; perimeter
G1 X159.515 Y74.261 E.00945 ; perimeter
G1 X159.608 Y74.572 E.01017 ; perimeter
G1 X159.608 Y79.771 E.16301 ; perimeter
G1 X159.582 Y79.942 E.00543 ; perimeter
G1 X159.395 Y80.213 E.01032 ; perimeter
G1 X159.168 Y80.323 E.0079 ; perimeter
G1 X158.877 Y80.312 E.00912 ; perimeter
G1 X151.048 Y77.92 E.25668 ; perimeter
G1 X150.844 Y77.808 E.00729 ; perimeter
G1 X150.71 Y77.637 E.00681 ; perimeter
G1 X150.648 Y77.38 E.00831 ; perimeter
G1 X150.666 Y76.862 E.01623 ; perimeter
M204 P1000 ; adjust acceleration
G1 X151.032 Y76.954 F10800 ; move to first perimeter point
M204 P800 ; adjust acceleration
;TYPE:External perimeter
G1 F1200
G1 X151.031 Y76.93 E.00075 ; perimeter
G1 X151.117 Y76.817 E.00446 ; perimeter
