; generated by PrusaSlicer 2.5.0+win64 on 2022-09-21 at 20:09:16 UTC


;
;
; 

; external perimeters extrusion width = 0.68mm
; perimeters extrusion width = 0.68mm
; infill extrusion width = 0.68mm
; solid infill extrusion width = 0.68mm
; top infill extrusion width = 0.60mm
; first layer extrusion width = 0.65mm

; external perimeters extrusion width = 0.68mm
; perimeters extrusion width = 0.68mm
; infill extrusion width = 0.68mm
; solid infill extrusion width = 0.68mm
; top infill extrusion width = 0.60mm
; first layer extrusion width = 0.65mm

M73 P0 R15
M73 Q0 S15
M201 X1000 Y1000 Z200 E8000 ; sets maximum accelerations, mm/sec^2
M203 X200 Y200 Z12 E120 ; sets maximum feedrates, mm / sec
M204 P1250 R1250 T1250 ; sets acceleration (P, T) and retract acceleration (R), mm/sec^2
M205 X8.00 Y8.00 Z0.40 E4.50 ; sets the jerk limits, mm/sec
M205 S0 T0 ; sets the minimum extruding and travel feed rate, mm/sec
M107 ; disable fan
;TYPE:Custom
M862.3 P "MK3SMMU2S" ; printer model check
M862.1 P0.6 ; nozzle diameter check
M115 U3.11.0 ; tell printer latest fw version
G90 ; use absolute coordinates
M83 ; extruder relative mode
M104 S215 ; set extruder temp
M140 S60 ; set bed temp
M190 S60 ; wait for bed temp
M109 S215 ; wait for extruder temp
G28 W ; home all without mesh bed level

G4 S30 ; wait 30s for probe to reach temp -peter villano

G80 ; mesh bed leveling

; Send the filament type to the MMU2.0 unit.
; E stands for extruder number, F stands for filament type (0: default; 1:flex; 2: PVA)
M403 E0 F0
M403 E1 F0
M403 E2 F0
M403 E3 F0
M403 E4 F0


;go outside print area
G1 Y-3 F1000
G1 Z0.4 F1000
; select extruder
T0
; initial load
G1 X55 E29 F1073
G1 X5 E29 F1800
G1 X55 E8 F2000
G1 Z0.3 F1000
G92 E0
G1 X240 E25 F2200
G1 Y-2 F1000
M73 P1 R15
M73 Q1 S15
G1 X55 E25 F1400
G1 Z0.2 F1000
M73 P2 R15
M73 Q2 S15
G1 X5 E4 F1000
G92 E0


M221 S95
G92 E0
G21 ; set units to millimeters
G90 ; use absolute coordinates
M83 ; use relative distances for extrusion
M900 K0.04 ; Filament gcode LA 1.5
M900 K18 ; Filament gcode LA 1.0
M107 ; disable fan
;LAYER_CHANGE
;Z:0.2
;HEIGHT:0.2
;BEFORE_LAYER_CHANGE
G92 E0.0
;0.2


G1 E-.8 F2100 ; retract
G1 Z.4 F720 ; lift Z
;AFTER_LAYER_CHANGE
;0.2
G1 X109.443 Y80.759 F10800 ; move to first skirt point
G1 Z.2 F720 ; restore layer Z
G1 E.8 F1500 ;  ; unretract
M204 S800 ; adjust acceleration
;TYPE:Skirt/Brim
;WIDTH:0.65
G1 F1200
G1 X111.259 Y78.943 E.12964 ; skirt
G1 X113.102 Y78.179 E.10072 ; skirt
G1 X136.898 Y78.179 E1.20115 ; skirt
G1 X138.741 Y78.943 E.10072 ; skirt
G1 X140.557 Y80.759 E.12964 ; skirt
G1 X141.321 Y82.602 E.10072 ; skirt
G1 X141.321 Y106.398 E1.20115 ; skirt
G1 X138.179 Y127.878 E1.09586 ; skirt
G1 X137.443 Y129.341 E.08266 ; skirt
G1 X135.628 Y131.157 E.12964 ; skirt
G1 X133.784 Y131.921 E.10072 ; skirt
G1 X116.216 Y131.921 E.88682 ; skirt
G1 X114.372 Y131.157 E.10072 ; skirt
M73 P3 R15
M73 Q3 S15
G1 X112.557 Y129.341 E.12964 ; skirt
G1 X111.821 Y127.878 E.08266 ; skirt
G1 X108.707 Y106.778 E1.07665 ; skirt
G1 X108.679 Y82.602 E1.22037 ; skirt
G1 X109.409 Y80.842 E.09618 ; skirt
M204 S1000 ; adjust acceleration
;WIPE_START
G1 F8640
G1 X111.259 Y78.943 E-.61224 ; wipe and retract
G1 X111.85 Y78.698 E-.14776 ; wipe and retract
;WIPE_END
G1 E-.04 F2100 ; retract
G1 Z.6 F720 ; lift Z
G1 X116.837 Y109.072 F10800 ; move to first brim point
G1 Z.2 F720 ; restore layer Z
G1 E.8 F1500 ;  ; unretract
M204 S800 ; adjust acceleration
G1 F1200
G1 X117.249 Y108.989 E.02122 ; brim
G1 X132.812 Y108.995 E.78562 ; brim
G1 X133.163 Y109.072 E.01813 ; brim
G1 X133.657 Y109.29 E.02727 ; brim
G1 X133.894 Y109.461 E.01475 ; brim
G1 X134.251 Y109.819 E.02551 ; brim
G1 X134.483 Y110.165 E.02103 ; brim
G1 X134.644 Y110.554 E.02123 ; brim
G1 X134.725 Y110.962 E.02103 ; brim
G1 X134.725 Y126.465 E.7826 ; brim
G1 X134.644 Y126.874 E.02103 ; brim
G1 X134.483 Y127.263 E.02123 ; brim
G1 X134.251 Y127.609 E.02103 ; brim
G1 X133.896 Y127.964 E.02537 ; brim
G1 X133.606 Y128.166 E.01785 ; brim
G1 X133.163 Y128.356 E.02428 ; brim
G1 X132.751 Y128.439 E.02121 ; brim
G1 X117.248 Y128.439 E.78258 ; brim
G1 X116.84 Y128.357 E.02103 ; brim
G1 X116.451 Y128.196 E.02123 ; brim
G1 X116.105 Y127.965 E.02103 ; brim
G1 X115.749 Y127.609 E.02537 ; brim
G1 X115.547 Y127.319 E.01785 ; brim
G1 X115.358 Y126.877 E.02428 ; brim
G1 X115.275 Y126.465 E.02121 ; brim
G1 X115.275 Y110.962 E.78258 ; brim
G1 X115.356 Y110.554 E.02103 ; brim
G1 X115.517 Y110.165 E.02123 ; brim
G1 X115.749 Y109.819 E.02103 ; brim
G1 X116.104 Y109.463 E.02537 ; brim
G1 X116.394 Y109.261 E.01785 ; brim
G1 X116.754 Y109.107 E.01974 ; brim
M204 S1000 ; adjust acceleration
G1 X116.993 Y109.665 F10800 ; move to first brim point
M204 S800 ; adjust acceleration
G1 F1200
G1 X117.278 Y109.596 E.01481 ; brim
G1 X132.777 Y109.602 E.78239 ; brim
G1 X132.95 Y109.641 E.00894 ; brim
G1 X133.337 Y109.806 E.02122 ; brim
G1 X133.484 Y109.91 E.00912 ; brim
G1 X133.801 Y110.227 E.02259 ; brim
G1 X133.933 Y110.425 E.01202 ; brim
G1 X134.071 Y110.758 E.01822 ; brim
G1 X134.118 Y110.992 E.01202 ; brim
G1 X134.118 Y126.436 E.77959 ; brim
G1 X134.071 Y126.669 E.01202 ; brim
M73 Q4 S15
G1 X133.933 Y127.003 E.01822 ; brim
G1 X133.801 Y127.201 E.01202 ; brim
G1 X133.484 Y127.517 E.02259 ; brim
G1 X133.337 Y127.621 E.00912 ; brim
G1 X132.954 Y127.785 E.02103 ; brim
G1 X132.722 Y127.831 E.01193 ; brim
G1 X117.278 Y127.831 E.77959 ; brim
G1 X117.045 Y127.785 E.01202 ; brim
M73 P4 R15
G1 X116.711 Y127.647 E.01822 ; brim
G1 X116.513 Y127.515 E.01202 ; brim
G1 X116.197 Y127.198 E.02259 ; brim
G1 X116.092 Y127.05 E.00912 ; brim
G1 X115.928 Y126.667 E.02103 ; brim
G1 X115.882 Y126.436 E.01193 ; brim
G1 X115.882 Y110.992 E.77959 ; brim
G1 X115.929 Y110.758 E.01202 ; brim
G1 X116.067 Y110.425 E.01822 ; brim
G1 X116.199 Y110.227 E.01202 ; brim
G1 X116.516 Y109.91 E.02259 ; brim
G1 X116.663 Y109.806 E.00912 ; brim
G1 X116.91 Y109.701 E.01355 ; brim
M204 S1000 ; adjust acceleration
G1 X117.142 Y110.259 F10800 ; move to first brim point
M204 S800 ; adjust acceleration
G1 F1200
G1 X117.308 Y110.203 E.00886 ; brim
G1 X132.692 Y110.203 E.77657 ; brim
G1 X133.029 Y110.33 E.01818 ; brim
G1 X133.35 Y110.635 E.02236 ; brim
G1 X133.511 Y111.022 E.02113 ; brim
G1 X133.511 Y126.406 E.77657 ; brim
G1 X133.384 Y126.743 E.01818 ; brim
G1 X133.079 Y127.064 E.02236 ; brim
G1 X132.692 Y127.224 E.02113 ; brim
G1 X117.308 Y127.224 E.77657 ; brim
G1 X116.971 Y127.097 E.01818 ; brim
G1 X116.65 Y126.793 E.02236 ; brim
G1 X116.489 Y126.406 E.02113 ; brim
G1 X116.489 Y111.022 E.77657 ; brim
G1 X116.65 Y110.635 E.02113 ; brim
G1 X116.921 Y110.363 E.01939 ; brim
G1 X117.059 Y110.294 E.00777 ; brim
M204 S1000 ; adjust acceleration
G1 X117.291 Y110.855 F10800 ; move to first brim point
M204 S800 ; adjust acceleration
G1 F1200
G1 X117.398 Y110.81 E.00586 ; brim
G1 X132.602 Y110.81 E.76746 ; brim
G1 X132.713 Y110.856 E.0061 ; brim
G1 X132.857 Y111 E.01028 ; brim
G1 X132.904 Y111.112 E.0061 ; brim
G1 X132.904 Y126.316 E.76746 ; brim
G1 X132.857 Y126.427 E.0061 ; brim
G1 X132.713 Y126.571 E.01028 ; brim
G1 X132.602 Y126.617 E.0061 ; brim
G1 X117.398 Y126.617 E.76746 ; brim
G1 X117.287 Y126.571 E.0061 ; brim
G1 X117.143 Y126.427 E.01028 ; brim
G1 X117.096 Y126.316 E.0061 ; brim
G1 X117.096 Y111.112 E.76746 ; brim
G1 X117.143 Y111 E.0061 ; brim
G1 X117.226 Y110.917 E.00597 ; brim
M204 S1000 ; adjust acceleration
;WIPE_START
G1 F8640
G1 X117.398 Y110.81 E-.04671 ; wipe and retract
G1 X120.487 Y110.81 E-.71329 ; wipe and retract
;WIPE_END
G1 E-.04 F2100 ; retract
G1 Z.6 F720 ; lift Z
G1 X117.226 Y107.338 F10800 ; move to first brim point
G1 Z.2 F720 ; restore layer Z
G1 E.8 F1500 ;  ; unretract
M204 S800 ; adjust acceleration
G1 F1200
G1 X114.135 Y107.338 E.15606 ; brim
G1 X113.726 Y107.257 E.02103 ; brim
G1 X113.338 Y107.096 E.02123 ; brim
G1 X112.991 Y106.865 E.02103 ; brim
G1 X112.636 Y106.509 E.02537 ; brim
G1 X112.434 Y106.219 E.01785 ; brim
G1 X112.244 Y105.777 E.02428 ; brim
G1 X112.162 Y105.365 E.02121 ; brim
G1 X112.162 Y83.635 E1.09692 ; brim
G1 X112.243 Y83.226 E.02103 ; brim
M73 P5 R15
M73 Q5 S15
G1 X112.404 Y82.838 E.02123 ; brim
G1 X112.635 Y82.491 E.02103 ; brim
G1 X112.991 Y82.136 E.02537 ; brim
G1 X113.281 Y81.934 E.01785 ; brim
G1 X113.723 Y81.744 E.02428 ; brim
G1 X114.135 Y81.662 E.02121 ; brim
G1 X135.925 Y81.668 E1.09996 ; brim
G1 X136.276 Y81.744 E.01813 ; brim
G1 X136.771 Y81.963 E.02727 ; brim
G1 X137.007 Y82.134 E.01475 ; brim
G1 X137.365 Y82.491 E.02551 ; brim
G1 X137.596 Y82.838 E.02103 ; brim
G1 X137.757 Y83.226 E.02123 ; brim
G1 X137.838 Y83.635 E.02103 ; brim
G1 X137.838 Y105.365 E1.09693 ; brim
G1 X137.757 Y105.774 E.02103 ; brim
M73 P5 R14
G1 X137.596 Y106.162 E.02123 ; brim
G1 X137.365 Y106.509 E.02103 ; brim
G1 X137.009 Y106.864 E.02537 ; brim
G1 X136.719 Y107.066 E.01785 ; brim
G1 X136.277 Y107.256 E.02428 ; brim
G1 X135.865 Y107.338 E.02121 ; brim
G1 X117.316 Y107.338 E.93632 ; brim
M204 S1000 ; adjust acceleration
G1 X117.316 Y106.731 F10800 ; move to first brim point
M204 S800 ; adjust acceleration
G1 F1200
G1 X114.165 Y106.731 E.15909 ; brim
G1 X113.931 Y106.685 E.01202 ; brim
G1 X113.598 Y106.547 E.01822 ; brim
G1 X113.399 Y106.414 E.01202 ; brim
G1 X113.083 Y106.098 E.02259 ; brim
G1 X112.979 Y105.95 E.00912 ; brim
G1 X112.815 Y105.567 E.02103 ; brim
G1 X112.769 Y105.335 E.01193 ; brim
G1 X112.769 Y83.665 E1.09392 ; brim
G1 X112.815 Y83.431 E.01202 ; brim
M73 Q5 S14
G1 X112.953 Y83.098 E.01822 ; brim
G1 X113.086 Y82.899 E.01202 ; brim
G1 X113.402 Y82.583 E.02259 ; brim
G1 X113.55 Y82.479 E.00912 ; brim
G1 X113.933 Y82.315 E.02103 ; brim
G1 X114.165 Y82.269 E.01193 ; brim
G1 X135.891 Y82.275 E1.09673 ; brim
G1 X136.064 Y82.313 E.00894 ; brim
G1 X136.45 Y82.479 E.02122 ; brim
G1 X136.598 Y82.583 E.00912 ; brim
G1 X136.914 Y82.899 E.02259 ; brim
G1 X137.047 Y83.098 E.01202 ; brim
G1 X137.185 Y83.431 E.01822 ; brim
G1 X137.231 Y83.665 E.01202 ; brim
G1 X137.231 Y105.335 E1.09392 ; brim
G1 X137.185 Y105.569 E.01202 ; brim
G1 X137.047 Y105.902 E.01822 ; brim
G1 X136.914 Y106.101 E.01202 ; brim
G1 X136.598 Y106.417 E.02259 ; brim
G1 X136.45 Y106.521 E.00912 ; brim
G1 X136.067 Y106.685 E.02103 ; brim
G1 X135.835 Y106.731 E.01193 ; brim
G1 X117.406 Y106.731 E.93028 ; brim
M204 S1000 ; adjust acceleration
G1 X117.406 Y106.124 F10800 ; move to first brim point
M204 S800 ; adjust acceleration
G1 F1200
G1 X114.136 Y106.112 E.16509 ; brim
G1 X113.808 Y105.964 E.01818 ; brim
G1 X113.536 Y105.692 E.01939 ; brim
G1 X113.376 Y105.306 E.02113 ; brim
G1 X113.376 Y83.694 E1.09091 ; brim
G1 X113.536 Y83.308 E.02113 ; brim
M73 P6 R14
M73 Q6 S14
G1 X113.857 Y83.003 E.02236 ; brim
G1 X114.194 Y82.876 E.01818 ; brim
G1 X135.806 Y82.876 E1.09091 ; brim
G1 X136.192 Y83.036 E.02113 ; brim
G1 X136.497 Y83.357 E.02236 ; brim
G1 X136.624 Y83.694 E.01818 ; brim
G1 X136.624 Y105.306 E1.09091 ; brim
G1 X136.464 Y105.692 E.02113 ; brim
G1 X136.143 Y105.997 E.02236 ; brim
G1 X135.806 Y106.124 E.01818 ; brim
G1 X117.496 Y106.124 E.92424 ; brim
M204 S1000 ; adjust acceleration
G1 X117.496 Y105.517 F10800 ; move to first brim point
M204 S800 ; adjust acceleration
G1 F1200
G1 X114.285 Y105.517 E.16212 ; brim
G1 X114.173 Y105.471 E.0061 ; brim
G1 X114.029 Y105.327 E.01028 ; brim
G1 X113.983 Y105.215 E.0061 ; brim
G1 X113.983 Y83.785 E1.0818 ; brim
G1 X114.029 Y83.673 E.0061 ; brim
G1 X114.173 Y83.529 E.01028 ; brim
G1 X114.285 Y83.483 E.0061 ; brim
G1 X135.715 Y83.483 E1.0818 ; brim
G1 X135.827 Y83.529 E.0061 ; brim
G1 X135.971 Y83.673 E.01028 ; brim
G1 X136.017 Y83.785 E.0061 ; brim
G1 X136.017 Y105.215 E1.0818 ; brim
G1 X135.971 Y105.327 E.0061 ; brim
G1 X135.827 Y105.471 E.01028 ; brim
G1 X135.715 Y105.517 E.0061 ; brim
G1 X117.586 Y105.517 E.91514 ; brim
M204 S1000 ; adjust acceleration
;WIPE_START
G1 F8640
G1 X114.295 Y105.517 E-.76 ; wipe and retract
;WIPE_END
G1 E-.04 F2100 ; retract
G1 Z.6 F720 ; lift Z
G1 X116.909 Y102.739 F10800 ; move to first brim point
G1 X119.29 Y100.211 ; move to first brim point
G1 Z.2 F720 ; restore layer Z
G1 E.8 F1500 ;  ; unretract
M204 S800 ; adjust acceleration
G1 F1200
G1 X119.29 Y88.79 E.57653 ; brim
G1 X130.711 Y88.79 E.57654 ; brim
M73 Q7 S14
G1 X130.711 Y100.211 E.57653 ; brim
M73 P7 R14
G1 X119.38 Y100.211 E.57199 ; brim
M204 S1000 ; adjust acceleration
G1 X119.38 Y100.818 F10800 ; move to first brim point
M204 S800 ; adjust acceleration
G1 F1200
G1 X118.683 Y100.818 E.03519 ; brim
G1 X118.683 Y88.183 E.63782 ; brim
G1 X131.318 Y88.183 E.63782 ; brim
G1 X131.318 Y100.818 E.63782 ; brim
G1 X119.47 Y100.818 E.59809 ; brim
M204 S1000 ; adjust acceleration
G1 X119.47 Y101.425 F10800 ; move to first brim point
M204 S800 ; adjust acceleration
G1 F1200
G1 X118.076 Y101.425 E.07037 ; brim
G1 X118.076 Y87.576 E.69911 ; brim
G1 X131.925 Y87.576 E.69911 ; brim
G1 X131.925 Y101.425 E.69911 ; brim
G1 X119.56 Y101.425 E.6242 ; brim
M204 S1000 ; adjust acceleration
G1 X119.56 Y102.032 F10800 ; move to first brim point
M204 S800 ; adjust acceleration
G1 F1200
G1 X117.469 Y102.032 E.10556 ; brim
G1 X117.469 Y86.969 E.76039 ; brim
G1 X132.532 Y86.969 E.7604 ; brim
G1 X132.532 Y102.032 E.7604 ; brim
G1 X119.65 Y102.032 E.6503 ; brim
M204 S1000 ; adjust acceleration
; printing object main part.stl id:0 copy 0
;WIPE_START
M73 P8 R14
M73 Q8 S14
G1 F8640
G1 X117.469 Y102.032 E-.50365 ; wipe and retract
G1 X117.469 Y100.922 E-.25635 ; wipe and retract
;WIPE_END
G1 E-.04 F2100 ; retract
G1 Z.6 F720 ; lift Z
G1 X116.761 Y100.922 F10800 ; move to first perimeter point
G1 X116.761 Y102.739 ; move to first perimeter point
G1 X127.067 Y102.739 ; move to first perimeter point
G1 X134.681 Y104.181 ; move to first perimeter point
G1 Z.2 F720 ; restore layer Z
G1 E.8 F1500 ;  ; unretract
M204 S800 ; adjust acceleration
;TYPE:Perimeter
;WIDTH:0.649999
G1 F1200
G1 X134.049 Y104.181 E.03194 ; perimeter
;WIDTH:0.684408
G1 X133.685 Y104.164 E.01943 ; perimeter
;WIDTH:0.718817
G1 X133.321 Y104.147 E.02047 ; perimeter
;WIDTH:0.753311
G1 X132.957 Y104.13 E.02151 ; perimeter
G1 X117.044 Y104.13 E.94002 ; perimeter
G1 X116.68 Y104.147 E.02152 ; perimeter
;WIDTH:0.718874
G1 X116.316 Y104.164 E.02048 ; perimeter
;WIDTH:0.684437
G1 X115.952 Y104.181 E.01944 ; perimeter
;WIDTH:0.649999
G1 X115.319 Y104.181 E.03196 ; perimeter
G1 X115.319 Y103.548 E.03196 ; perimeter
;WIDTH:0.684545
G1 X115.336 Y103.185 E.01943 ; perimeter
;WIDTH:0.719091
G1 X115.353 Y102.821 E.02047 ; perimeter
;WIDTH:0.753637
G1 X115.37 Y102.457 E.02152 ; perimeter
G1 X115.37 Y86.544 E.94044 ; perimeter
G1 X115.353 Y86.18 E.02153 ; perimeter
;WIDTH:0.719091
G1 X115.336 Y85.816 E.02048 ; perimeter
;WIDTH:0.684545
G1 X115.319 Y85.452 E.01944 ; perimeter
;WIDTH:0.649999
G1 X115.319 Y84.819 E.03197 ; perimeter
G1 X115.952 Y84.819 E.03197 ; perimeter
;WIDTH:0.684545
G1 X116.316 Y84.836 E.01944 ; perimeter
;WIDTH:0.719091
G1 X116.68 Y84.853 E.02048 ; perimeter
;WIDTH:0.753636
G1 X117.044 Y84.87 E.02153 ; perimeter
G1 X132.957 Y84.87 E.94045 ; perimeter
G1 X133.321 Y84.853 E.02152 ; perimeter
;WIDTH:0.719091
G1 X133.685 Y84.836 E.02047 ; perimeter
;WIDTH:0.684545
G1 X134.048 Y84.819 E.01943 ; perimeter
;WIDTH:0.649999
G1 X134.681 Y84.819 E.03195 ; perimeter
G1 X134.681 Y85.452 E.03195 ; perimeter
;WIDTH:0.684408
G1 X134.664 Y85.816 E.01944 ; perimeter
;WIDTH:0.718817
G1 X134.647 Y86.18 E.02048 ; perimeter
;WIDTH:0.753225
G1 X134.63 Y86.544 E.02152 ; perimeter
G1 X134.63 Y102.457 E.9399 ; perimeter
;WIDTH:0.763206
G1 X134.644 Y102.974 E.03096 ; perimeter
;WIDTH:0.725471
G1 X134.663 Y103.261 E.01634 ; perimeter
;WIDTH:0.687735
G1 X134.681 Y103.549 E.01544 ; perimeter
;WIDTH:0.649999
G1 X134.681 Y104.091 E.0274 ; perimeter
M204 S1000 ; adjust acceleration
G1 X135.289 Y104.789 F10800 ; move to first perimeter point
M204 S800 ; adjust acceleration
;TYPE:External perimeter
G1 F1200
G1 X114.711 Y104.789 E1.03871 ; perimeter
G1 X114.711 Y84.211 E1.03871 ; perimeter
G1 X135.289 Y84.211 E1.03871 ; perimeter
G1 X135.289 Y104.699 E1.03416 ; perimeter
M204 S1000 ; adjust acceleration
G1 X134.709 Y104.633 F10800 ; move inwards before travel
M73 P9 R14
M73 Q9 S14
