; generated by PrusaSlicer 2.5.0+win64 on 2022-09-21 at 20:48:56 UTC


;
;
; 

; external perimeters extrusion width = 0.68mm
; perimeters extrusion width = 0.68mm
; infill extrusion width = 0.68mm
; solid infill extrusion width = 0.68mm
; top infill extrusion width = 0.60mm
; first layer extrusion width = 0.65mm

; external perimeters extrusion width = 0.68mm
; perimeters extrusion width = 0.68mm
; infill extrusion width = 0.68mm
; solid infill extrusion width = 0.68mm
; top infill extrusion width = 0.60mm
; first layer extrusion width = 0.65mm

; external perimeters extrusion width = 0.68mm
; perimeters extrusion width = 0.68mm
; infill extrusion width = 0.68mm
; solid infill extrusion width = 0.68mm
; top infill extrusion width = 0.60mm
; first layer extrusion width = 0.65mm

M73 P0 R117
M73 Q0 S119
M201 X1000 Y1000 Z200 E8000 ; sets maximum accelerations, mm/sec^2
M203 X200 Y200 Z12 E120 ; sets maximum feedrates, mm / sec
M204 P1250 R1250 T1250 ; sets acceleration (P, T) and retract acceleration (R), mm/sec^2
M205 X8.00 Y8.00 Z0.40 E4.50 ; sets the jerk limits, mm/sec
M205 S0 T0 ; sets the minimum extruding and travel feed rate, mm/sec
M107 ; disable fan
;TYPE:Custom
M862.3 P "MK3SMMU2S" ; printer model check
M862.1 P0.6 ; nozzle diameter check
M115 U3.11.0 ; tell printer latest fw version
G90 ; use absolute coordinates
M83 ; extruder relative mode
M104 S215 ; set extruder temp
M140 S60 ; set bed temp
M190 S60 ; wait for bed temp
M109 S215 ; wait for extruder temp
G28 W ; home all without mesh bed level

G4 S30 ; wait 30s for probe to reach temp -peter villano

G80 ; mesh bed leveling

; Send the filament type to the MMU2.0 unit.
; E stands for extruder number, F stands for filament type (0: default; 1:flex; 2: PVA)
M403 E0 F0
M403 E1 F0
M403 E2 F0
M403 E3 F0
M403 E4 F0


;go outside print area
G1 Y-3 F1000
G1 Z0.4 F1000
; select extruder
T0
; initial load
G1 X55 E29 F1073
G1 X5 E29 F1800
G1 X55 E8 F2000
G1 Z0.3 F1000
G92 E0
G1 X240 E25 F2200
G1 Y-2 F1000
M73 P0 R116
M73 Q0 S118
G1 X55 E25 F1400
G1 Z0.2 F1000
G1 X5 E4 F1000
G92 E0


M221 S95
G92 E0
G21 ; set units to millimeters
G90 ; use absolute coordinates
M83 ; use relative distances for extrusion
M900 K0.04 ; Filament gcode LA 1.5
M900 K18 ; Filament gcode LA 1.0
M107 ; disable fan
;LAYER_CHANGE
;Z:0.2
;HEIGHT:0.2
;BEFORE_LAYER_CHANGE
G92 E0.0
;0.2


G1 E-.8 F2100 ; retract
G1 Z.4 F720 ; lift Z
;AFTER_LAYER_CHANGE
;0.2
G1 X80.568 Y53.05 F10800 ; move to first skirt point
G1 Z.2 F720 ; restore layer Z
G1 E.8 F1500 ;  ; unretract
M204 S800 ; adjust acceleration
;TYPE:Skirt/Brim
;WIDTH:0.65
G1 F1200
G1 X81.057 Y52.372 E.04216 ; skirt
G1 X82.872 Y50.557 E.12964 ; skirt
G1 X84.716 Y49.793 E.10072 ; skirt
G1 X186.284 Y49.793 E5.12704 ; skirt
G1 X188.128 Y50.557 E.10072 ; skirt
G1 X189.943 Y52.372 E.12964 ; skirt
G1 X190.707 Y54.216 E.10072 ; skirt
G1 X190.707 Y155.784 E5.12704 ; skirt
G1 X189.943 Y157.628 E.10072 ; skirt
G1 X188.128 Y159.443 E.12964 ; skirt
G1 X186.284 Y160.207 E.10072 ; skirt
G1 X84.716 Y160.207 E5.12704 ; skirt
G1 X82.872 Y159.443 E.10072 ; skirt
G1 X81.057 Y157.628 E.12964 ; skirt
G1 X80.568 Y156.95 E.04216 ; skirt
G1 X59.568 Y114.95 E2.37036 ; skirt
G1 X59.293 Y113.784 E.06047 ; skirt
G1 X59.293 Y96.216 E.88682 ; skirt
G1 X59.568 Y95.05 E.06047 ; skirt
G1 X80.528 Y53.131 E2.36581 ; skirt
M204 S1000 ; adjust acceleration
;WIPE_START
G1 F8640
G1 X81.057 Y52.372 E-.21339 ; wipe and retract
G1 X82.73 Y50.699 E-.54661 ; wipe and retract
;WIPE_END
G1 E-.04 F2100 ; retract
G1 Z.6 F720 ; lift Z
G1 X83.973 Y54.558 F10800 ; move to first brim point
G1 Z.2 F720 ; restore layer Z
G1 E.8 F1500 ;  ; unretract
M204 S800 ; adjust acceleration
G1 F1200
G1 X84.017 Y54.451 E.00582 ; brim
G1 X84.249 Y54.105 E.02103 ; brim
G1 X84.604 Y53.749 E.02537 ; brim
G1 X84.894 Y53.547 E.01785 ; brim
G1 X85.337 Y53.358 E.02428 ; brim
G1 X85.749 Y53.275 E.02121 ; brim
G1 X185.312 Y53.281 E5.02585 ; brim
G1 X185.663 Y53.358 E.01813 ; brim
G1 X186.157 Y53.576 E.02727 ; brim
G1 X186.394 Y53.747 E.01475 ; brim
G1 X186.751 Y54.105 E.02551 ; brim
G1 X186.983 Y54.451 E.02103 ; brim
G1 X187.144 Y54.84 E.02123 ; brim
G1 X187.225 Y55.248 E.02103 ; brim
G1 X187.225 Y154.752 E5.02282 ; brim
G1 X187.144 Y155.16 E.02103 ; brim
G1 X186.983 Y155.549 E.02123 ; brim
G1 X186.751 Y155.895 E.02103 ; brim
G1 X186.396 Y156.251 E.02537 ; brim
G1 X186.106 Y156.453 E.01785 ; brim
G1 X185.663 Y156.642 E.02428 ; brim
G1 X185.251 Y156.725 E.02121 ; brim
G1 X85.748 Y156.725 E5.02281 ; brim
G1 X85.34 Y156.644 E.02103 ; brim
G1 X84.951 Y156.483 E.02123 ; brim
G1 X84.605 Y156.251 E.02103 ; brim
G1 X84.249 Y155.896 E.02537 ; brim
G1 X84.047 Y155.606 E.01785 ; brim
G1 X83.858 Y155.163 E.02428 ; brim
G1 X83.775 Y154.751 E.02121 ; brim
G1 X83.775 Y55.248 E5.02281 ; brim
G1 X83.856 Y54.84 E.02103 ; brim
G1 X83.939 Y54.641 E.01087 ; brim
M204 S1000 ; adjust acceleration
G1 X84.5 Y54.873 F10800 ; move to first brim point
M204 S800 ; adjust acceleration
G1 F1200
G1 X84.567 Y54.711 E.00885 ; brim
G1 X84.699 Y54.513 E.01202 ; brim
G1 X85.016 Y54.197 E.02259 ; brim
G1 X85.163 Y54.092 E.00912 ; brim
G1 X85.546 Y53.928 E.02103 ; brim
G1 X85.778 Y53.882 E.01193 ; brim
G1 X185.277 Y53.888 E5.02262 ; brim
G1 X185.45 Y53.927 E.00894 ; brim
M73 P1 R115
M73 Q1 S117
G1 X185.837 Y54.092 E.02122 ; brim
G1 X185.984 Y54.197 E.00912 ; brim
G1 X186.301 Y54.513 E.02259 ; brim
G1 X186.433 Y54.711 E.01202 ; brim
G1 X186.571 Y55.045 E.01822 ; brim
G1 X186.618 Y55.278 E.01202 ; brim
G1 X186.618 Y154.722 E5.01981 ; brim
G1 X186.571 Y154.955 E.01202 ; brim
G1 X186.433 Y155.289 E.01822 ; brim
G1 X186.301 Y155.487 E.01202 ; brim
G1 X185.984 Y155.803 E.02259 ; brim
G1 X185.837 Y155.908 E.00912 ; brim
G1 X185.454 Y156.072 E.02103 ; brim
G1 X185.222 Y156.118 E.01193 ; brim
G1 X85.778 Y156.118 E5.01981 ; brim
G1 X85.545 Y156.071 E.01202 ; brim
G1 X85.211 Y155.933 E.01822 ; brim
G1 X85.013 Y155.801 E.01202 ; brim
G1 X84.697 Y155.484 E.02259 ; brim
G1 X84.593 Y155.337 E.00912 ; brim
G1 X84.428 Y154.954 E.02103 ; brim
G1 X84.382 Y154.722 E.01193 ; brim
G1 X84.382 Y55.278 E5.01981 ; brim
G1 X84.429 Y55.045 E.01202 ; brim
G1 X84.465 Y54.956 E.00482 ; brim
M204 S1000 ; adjust acceleration
G1 X85.026 Y55.189 F10800 ; move to first brim point
M204 S800 ; adjust acceleration
G1 F1200
G1 X85.15 Y54.921 E.01486 ; brim
G1 X85.421 Y54.65 E.01939 ; brim
G1 X85.808 Y54.489 E.02113 ; brim
G1 X185.192 Y54.489 E5.0168 ; brim
G1 X185.579 Y54.65 E.02113 ; brim
G1 X185.884 Y54.971 E.02236 ; brim
G1 X186.011 Y55.308 E.01818 ; brim
G1 X186.011 Y154.692 E5.0168 ; brim
G1 X185.85 Y155.079 E.02113 ; brim
G1 X185.529 Y155.384 E.02236 ; brim
G1 X185.192 Y155.511 E.01818 ; brim
G1 X85.808 Y155.511 E5.0168 ; brim
G1 X85.421 Y155.35 E.02113 ; brim
G1 X85.116 Y155.029 E.02236 ; brim
G1 X84.989 Y154.692 E.01818 ; brim
G1 X84.996 Y55.273 E5.01856 ; brim
M204 S1000 ; adjust acceleration
G1 X85.596 Y55.398 F10800 ; move to first brim point
M204 S800 ; adjust acceleration
G1 F1200
G1 X85.643 Y55.287 E.0061 ; brim
G1 X85.787 Y55.143 E.01028 ; brim
G1 X85.898 Y55.096 E.0061 ; brim
G1 X185.102 Y55.096 E5.00769 ; brim
G1 X185.213 Y55.143 E.0061 ; brim
G1 X185.357 Y55.287 E.01028 ; brim
G1 X185.404 Y55.398 E.0061 ; brim
G1 X185.404 Y154.602 E5.00769 ; brim
G1 X185.357 Y154.713 E.0061 ; brim
G1 X185.213 Y154.857 E.01028 ; brim
G1 X185.102 Y154.904 E.0061 ; brim
G1 X85.898 Y154.904 E5.00769 ; brim
G1 X85.787 Y154.857 E.0061 ; brim
G1 X85.643 Y154.713 E.01028 ; brim
G1 X85.596 Y154.602 E.0061 ; brim
G1 X85.596 Y55.488 E5.00314 ; brim
M204 S1000 ; adjust acceleration
;WIPE_START
G1 F8640
G1 X85.643 Y55.287 E-.04775 ; wipe and retract
G1 X85.787 Y55.143 E-.04701 ; wipe and retract
G1 X85.898 Y55.096 E-.02788 ; wipe and retract
G1 X88.658 Y55.096 E-.63736 ; wipe and retract
;WIPE_END
G1 E-.04 F2100 ; retract
G1 Z.6 F720 ; lift Z
G1 X80.312 Y95.281 F10800 ; move to first brim point
G1 Z.2 F720 ; restore layer Z
G1 E.8 F1500 ;  ; unretract
M204 S800 ; adjust acceleration
G1 F1200
G1 X80.663 Y95.358 E.01813 ; brim
G1 X81.157 Y95.576 E.02727 ; brim
G1 X81.394 Y95.747 E.01475 ; brim
G1 X81.751 Y96.105 E.02551 ; brim
G1 X81.983 Y96.451 E.02103 ; brim
G1 X82.144 Y96.84 E.02123 ; brim
G1 X82.225 Y97.248 E.02103 ; brim
G1 X82.225 Y112.752 E.7826 ; brim
G1 X82.144 Y113.16 E.02103 ; brim
M73 P1 R114
M73 Q1 S116
G1 X81.983 Y113.549 E.02123 ; brim
G1 X81.751 Y113.895 E.02103 ; brim
G1 X81.396 Y114.251 E.02537 ; brim
G1 X81.106 Y114.453 E.01785 ; brim
G1 X80.663 Y114.642 E.02428 ; brim
G1 X80.251 Y114.725 E.02121 ; brim
G1 X64.748 Y114.725 E.78258 ; brim
G1 X64.34 Y114.644 E.02103 ; brim
G1 X63.951 Y114.483 E.02123 ; brim
G1 X63.605 Y114.251 E.02103 ; brim
G1 X63.249 Y113.896 E.02537 ; brim
G1 X63.047 Y113.606 E.01785 ; brim
G1 X62.858 Y113.163 E.02428 ; brim
G1 X62.775 Y112.751 E.02121 ; brim
G1 X62.775 Y97.248 E.78258 ; brim
G1 X62.856 Y96.84 E.02103 ; brim
G1 X63.017 Y96.451 E.02123 ; brim
G1 X63.249 Y96.105 E.02103 ; brim
G1 X63.604 Y95.749 E.02537 ; brim
G1 X63.894 Y95.547 E.01785 ; brim
G1 X64.337 Y95.358 E.02428 ; brim
G1 X64.749 Y95.275 E.02122 ; brim
G1 X80.222 Y95.281 E.78108 ; brim
M204 S1000 ; adjust acceleration
G1 X80.222 Y95.888 F10800 ; move to first brim point
M204 S800 ; adjust acceleration
G1 F1200
G1 X80.45 Y95.927 E.0117 ; brim
G1 X80.837 Y96.092 E.02122 ; brim
G1 X80.984 Y96.197 E.00912 ; brim
G1 X81.301 Y96.513 E.02259 ; brim
G1 X81.433 Y96.711 E.01202 ; brim
G1 X81.571 Y97.045 E.01822 ; brim
G1 X81.618 Y97.278 E.01202 ; brim
G1 X81.618 Y112.722 E.77959 ; brim
G1 X81.571 Y112.955 E.01202 ; brim
G1 X81.433 Y113.289 E.01822 ; brim
G1 X81.301 Y113.487 E.01202 ; brim
G1 X80.984 Y113.803 E.02259 ; brim
G1 X80.837 Y113.908 E.00912 ; brim
G1 X80.454 Y114.072 E.02103 ; brim
G1 X80.222 Y114.118 E.01193 ; brim
G1 X64.778 Y114.118 E.77959 ; brim
G1 X64.545 Y114.071 E.01202 ; brim
G1 X64.211 Y113.933 E.01822 ; brim
G1 X64.013 Y113.801 E.01202 ; brim
G1 X63.697 Y113.484 E.02259 ; brim
G1 X63.592 Y113.337 E.00912 ; brim
G1 X63.428 Y112.954 E.02103 ; brim
G1 X63.382 Y112.722 E.01193 ; brim
G1 X63.382 Y97.278 E.77959 ; brim
G1 X63.429 Y97.045 E.01202 ; brim
G1 X63.567 Y96.711 E.01822 ; brim
G1 X63.699 Y96.513 E.01202 ; brim
G1 X64.016 Y96.197 E.02259 ; brim
G1 X64.163 Y96.092 E.00912 ; brim
G1 X64.546 Y95.928 E.02103 ; brim
G1 X64.778 Y95.882 E.01193 ; brim
G1 X80.132 Y95.888 E.77504 ; brim
M204 S1000 ; adjust acceleration
G1 X80.132 Y96.489 F10800 ; move to first brim point
M204 S800 ; adjust acceleration
G1 F1200
G1 X80.251 Y96.501 E.00603 ; brim
G1 X80.579 Y96.65 E.01818 ; brim
G1 X80.884 Y96.971 E.02236 ; brim
G1 X81.011 Y97.308 E.01818 ; brim
G1 X81.011 Y112.692 E.77657 ; brim
G1 X80.85 Y113.079 E.02113 ; brim
G1 X80.529 Y113.384 E.02236 ; brim
G1 X80.192 Y113.511 E.01818 ; brim
G1 X64.808 Y113.511 E.77657 ; brim
G1 X64.421 Y113.35 E.02113 ; brim
G1 X64.116 Y113.029 E.02236 ; brim
G1 X63.989 Y112.692 E.01818 ; brim
G1 X63.989 Y97.308 E.77657 ; brim
G1 X64.15 Y96.921 E.02113 ; brim
G1 X64.471 Y96.616 E.02236 ; brim
G1 X64.808 Y96.489 E.01818 ; brim
G1 X80.042 Y96.489 E.76899 ; brim
M204 S1000 ; adjust acceleration
G1 X80.042 Y97.096 F10800 ; move to first brim point
M204 S800 ; adjust acceleration
G1 F1200
G1 X80.102 Y97.096 E.00303 ; brim
G1 X80.213 Y97.143 E.0061 ; brim
G1 X80.357 Y97.287 E.01028 ; brim
G1 X80.404 Y97.398 E.0061 ; brim
G1 X80.404 Y112.602 E.76746 ; brim
G1 X80.357 Y112.713 E.0061 ; brim
G1 X80.213 Y112.857 E.01028 ; brim
G1 X80.102 Y112.904 E.0061 ; brim
G1 X64.898 Y112.904 E.76746 ; brim
G1 X64.787 Y112.857 E.0061 ; brim
G1 X64.643 Y112.713 E.01028 ; brim
G1 X64.596 Y112.602 E.0061 ; brim
G1 X64.596 Y97.398 E.76746 ; brim
G1 X64.643 Y97.287 E.0061 ; brim
M73 P2 R114
G1 X64.787 Y97.143 E.01028 ; brim
G1 X64.898 Y97.096 E.0061 ; brim
G1 X79.952 Y97.096 E.75989 ; brim
M204 S1000 ; adjust acceleration
; printing object main part.stl id:1 copy 0
;WIPE_START
G1 F8640
G1 X80.102 Y97.096 E-.03465 ; wipe and retract
G1 X80.213 Y97.143 E-.02788 ; wipe and retract
G1 X80.357 Y97.287 E-.04701 ; wipe and retract
G1 X80.404 Y97.398 E-.02788 ; wipe and retract
G1 X80.404 Y100.094 E-.62258 ; wipe and retract
;WIPE_END
G1 E-.04 F2100 ; retract
G1 Z.6 F720 ; lift Z
G1 X86.932 Y56.432 F10800 ; move to first perimeter point
G1 Z.2 F720 ; restore layer Z
G1 E.8 F1500 ;  ; unretract
M204 S800 ; adjust acceleration
;TYPE:Perimeter
;WIDTH:0.649999
G1 F1200
G1 X184.068 Y56.432 E4.9033 ; perimeter
G1 X184.068 Y153.568 E4.9033 ; perimeter
M73 Q2 S116
G1 X86.932 Y153.568 E4.9033 ; perimeter
G1 X86.932 Y56.522 E4.89876 ; perimeter
M204 S1000 ; adjust acceleration
G1 X86.325 Y55.825 F10800 ; move to first perimeter point
M204 S800 ; adjust acceleration
;TYPE:External perimeter
G1 F1200
G1 X184.675 Y55.825 E4.96459 ; perimeter
G1 X184.675 Y154.175 E4.96459 ; perimeter
G1 X86.325 Y154.175 E4.96459 ; perimeter
G1 X86.325 Y55.915 E4.96005 ; perimeter
M204 S1000 ; adjust acceleration
G1 X86.905 Y55.98 F10800 ; move inwards before travel
G1 E-.8 F2100 ; retract
G1 Z.6 F720 ; lift Z
G1 X182.655 Y56.614 F10800 ; move to first infill point
G1 Z.2 F720 ; restore layer Z
G1 E.8 F1500 ;  ; unretract
M204 S800 ; adjust acceleration
;TYPE:Solid infill
;WIDTH:0.651549
G1 F1200
G1 X183.613 Y57.571 E.06851 ; infill
G1 X183.613 Y58.432 E.04356 ; infill
G1 X182.068 Y56.887 E.11056 ; infill
G1 X181.207 Y56.887 E.04356 ; infill
G1 X183.613 Y59.293 E.17217 ; infill
G1 X183.613 Y60.154 E.04356 ; infill
G1 X180.346 Y56.887 E.23377 ; infill
G1 X179.486 Y56.887 E.04356 ; infill
G1 X183.613 Y61.014 E.29537 ; infill
G1 X183.613 Y61.875 E.04356 ; infill
G1 X178.625 Y56.887 E.35697 ; infill
G1 X177.764 Y56.887 E.04356 ; infill
G1 X183.613 Y62.736 E.41858 ; infill
G1 X183.613 Y63.597 E.04356 ; infill
G1 X176.903 Y56.887 E.48018 ; infill
G1 X176.043 Y56.887 E.04356 ; infill
G1 X183.613 Y64.457 E.54178 ; infill
G1 X183.613 Y65.318 E.04356 ; infill
G1 X175.182 Y56.887 E.60338 ; infill
G1 X174.321 Y56.887 E.04356 ; infill
G1 X183.613 Y66.179 E.66499 ; infill
G1 X183.613 Y67.04 E.04356 ; infill
G1 X173.46 Y56.887 E.72659 ; infill
G1 X172.6 Y56.887 E.04356 ; infill
M73 Q2 S115
G1 X183.613 Y67.9 E.78819 ; infill
G1 X183.613 Y68.761 E.04356 ; infill
M73 P2 R113
G1 X171.739 Y56.887 E.84979 ; infill
G1 X170.878 Y56.887 E.04356 ; infill
G1 X183.613 Y69.622 E.9114 ; infill
G1 X183.613 Y70.482 E.04356 ; infill
G1 X170.018 Y56.887 E.973 ; infill
G1 X169.157 Y56.887 E.04356 ; infill
G1 X183.613 Y71.343 E1.0346 ; infill
G1 X183.613 Y72.204 E.04356 ; infill
G1 X168.296 Y56.887 E1.09621 ; infill
G1 X167.435 Y56.887 E.04356 ; infill
G1 X183.613 Y73.065 E1.15781 ; infill
G1 X183.613 Y73.925 E.04356 ; infill
G1 X166.575 Y56.887 E1.21941 ; infill
G1 X165.714 Y56.887 E.04356 ; infill
G1 X183.613 Y74.786 E1.28101 ; infill
G1 X183.613 Y75.647 E.04356 ; infill
G1 X164.853 Y56.887 E1.34262 ; infill
G1 X163.992 Y56.887 E.04356 ; infill
G1 X183.613 Y76.508 E1.40422 ; infill
G1 X183.613 Y77.368 E.04356 ; infill
G1 X163.132 Y56.887 E1.46582 ; infill
G1 X162.271 Y56.887 E.04356 ; infill
G1 X183.613 Y78.229 E1.52742 ; infill
G1 X183.613 Y79.09 E.04356 ; infill
G1 X161.41 Y56.887 E1.58903 ; infill
G1 X160.55 Y56.887 E.04356 ; infill
G1 X183.613 Y79.95 E1.65063 ; infill
G1 X183.613 Y80.811 E.04356 ; infill
G1 X159.689 Y56.887 E1.71223 ; infill
G1 X158.828 Y56.887 E.04356 ; infill
G1 X183.613 Y81.672 E1.77383 ; infill
G1 X183.613 Y82.533 E.04356 ; infill
G1 X157.967 Y56.887 E1.83544 ; infill
G1 X157.107 Y56.887 E.04356 ; infill
M73 P3 R113
G1 X183.613 Y83.393 E1.89704 ; infill
G1 X183.613 Y84.254 E.04356 ; infill
M73 Q3 S115
G1 X156.246 Y56.887 E1.95864 ; infill
G1 X155.385 Y56.887 E.04356 ; infill
G1 X183.613 Y85.115 E2.02024 ; infill
G1 X183.613 Y85.976 E.04356 ; infill
G1 X154.524 Y56.887 E2.08185 ; infill
G1 X153.664 Y56.887 E.04356 ; infill
G1 X183.613 Y86.836 E2.14345 ; infill
G1 X183.613 Y87.697 E.04356 ; infill
G1 X152.803 Y56.887 E2.20505 ; infill
G1 X151.942 Y56.887 E.04356 ; infill
G1 X183.613 Y88.558 E2.26666 ; infill
G1 X183.613 Y89.419 E.04356 ; infill
G1 X151.081 Y56.887 E2.32826 ; infill
G1 X150.221 Y56.887 E.04356 ; infill
