; generated by PrusaSlicer 2.5.0+win64 on 2022-09-21 at 18:11:21 UTC


;
;
; 

; external perimeters extrusion width = 0.68mm
; perimeters extrusion width = 0.68mm
; infill extrusion width = 0.68mm
; solid infill extrusion width = 0.68mm
; top infill extrusion width = 0.60mm
; first layer extrusion width = 0.65mm

M73 P0 R69
M73 Q0 S72
M201 X1000 Y1000 Z200 E8000 ; sets maximum accelerations, mm/sec^2
M203 X200 Y200 Z12 E120 ; sets maximum feedrates, mm / sec
M204 P1250 R1250 T1250 ; sets acceleration (P, T) and retract acceleration (R), mm/sec^2
M205 X8.00 Y8.00 Z0.40 E4.50 ; sets the jerk limits, mm/sec
M205 S0 T0 ; sets the minimum extruding and travel feed rate, mm/sec
M107 ; disable fan
;TYPE:Custom
M862.3 P "MK3SMMU2S" ; printer model check
M862.1 P0.6 ; nozzle diameter check
M115 U3.11.0 ; tell printer latest fw version
G90 ; use absolute coordinates
M83 ; extruder relative mode
M104 S215 ; set extruder temp
M140 S60 ; set bed temp
M190 S60 ; wait for bed temp
M109 S215 ; wait for extruder temp
G28 W ; home all without mesh bed level

G4 S30 ; wait 30s for probe to reach temp -peter villano

G80 ; mesh bed leveling

; Send the filament type to the MMU2.0 unit.
; E stands for extruder number, F stands for filament type (0: default; 1:flex; 2: PVA)
M403 E0 F0
M403 E1 F0
M403 E2 F0
M403 E3 F0
M403 E4 F0


;go outside print area
G1 Y-3 F1000
G1 Z0.4 F1000
; select extruder
T0
; initial load
G1 X55 E29 F1073
G1 X5 E29 F1800
M73 P0 R68
M73 Q0 S71
G1 X55 E8 F2000
G1 Z0.3 F1000
G92 E0
G1 X240 E25 F2200
G1 Y-2 F1000
G1 X55 E25 F1400
G1 Z0.2 F1000
G1 X5 E4 F1000
G92 E0


M221 S95
G92 E0
G21 ; set units to millimeters
G90 ; use absolute coordinates
M83 ; use relative distances for extrusion
M900 K0.04 ; Filament gcode LA 1.5
M900 K18 ; Filament gcode LA 1.0
M107 ; disable fan
;LAYER_CHANGE
;Z:0.2
;HEIGHT:0.2
;BEFORE_LAYER_CHANGE
G92 E0.0
;0.2


G1 E-.8 F2100 ; retract
G1 Z.4 F720 ; lift Z
;AFTER_LAYER_CHANGE
;0.2
G1 X36.695 Y19.971 F10800 ; move to first skirt point
G1 Z.2 F720 ; restore layer Z
G1 E.8 F1500 ;  ; unretract
M204 S800 ; adjust acceleration
;TYPE:Skirt/Brim
;WIDTH:0.65
G1 F1200
G1 X37.992 Y18.28 E.10757 ; skirt
G1 X39.687 Y16.884 E.11081 ; skirt
G1 X40.628 Y16.341 E.05486 ; skirt
G1 X42.684 Y15.571 E.11081 ; skirt
G1 X44.899 Y15.293 E.11267 ; skirt
G1 X205.272 Y15.299 E8.09547 ; skirt
G1 X207.316 Y15.571 E.1041 ; skirt
G1 X209.372 Y16.341 E.1108 ; skirt
G1 X210.313 Y16.884 E.05487 ; skirt
G1 X211.72 Y17.992 E.09041 ; skirt
G1 X213.116 Y19.687 E.11081 ; skirt
G1 X213.659 Y20.628 E.05486 ; skirt
G1 X214.429 Y22.684 E.11081 ; skirt
G1 X214.701 Y24.728 E.1041 ; skirt
G1 X214.707 Y185.101 E8.09547 ; skirt
G1 X214.495 Y186.982 E.09551 ; skirt
G1 X214.214 Y188.032 E.05487 ; skirt
G1 X213.305 Y190.029 E.1108 ; skirt
G1 X212.008 Y191.72 E.10758 ; skirt
G1 X210.313 Y193.116 E.11081 ; skirt
G1 X209.372 Y193.659 E.05486 ; skirt
G1 X207.316 Y194.429 E.11081 ; skirt
G1 X205.101 Y194.707 E.11267 ; skirt
G1 X44.899 Y194.707 E8.08686 ; skirt
G1 X43.018 Y194.495 E.09551 ; skirt
M73 P1 R68
M73 Q1 S71
G1 X41.968 Y194.214 E.05487 ; skirt
G1 X39.971 Y193.305 E.1108 ; skirt
G1 X38.28 Y192.008 E.10758 ; skirt
G1 X36.884 Y190.313 E.11081 ; skirt
G1 X36.341 Y189.372 E.05486 ; skirt
G1 X35.571 Y187.316 E.11081 ; skirt
G1 X35.293 Y185.101 E.11267 ; skirt
G1 X35.293 Y24.899 E8.08687 ; skirt
G1 X35.505 Y23.018 E.09551 ; skirt
G1 X35.786 Y21.968 E.05487 ; skirt
G1 X36.658 Y20.052 E.10626 ; skirt
M204 S1000 ; adjust acceleration
;WIPE_START
G1 F8640
G1 X37.992 Y18.28 E-.51234 ; wipe and retract
G1 X38.82 Y17.598 E-.24766 ; wipe and retract
;WIPE_END
G1 E-.04 F2100 ; retract
G1 Z.6 F720 ; lift Z
G1 X39.61 Y21.89 F10800 ; move to first brim point
G1 Z.2 F720 ; restore layer Z
G1 E.8 F1500 ;  ; unretract
M204 S800 ; adjust acceleration
G1 F1200
G1 X40.478 Y20.723 E.0734 ; brim
G1 X42.045 Y19.523 E.09963 ; brim
G1 X43.477 Y18.966 E.07753 ; brim
G1 X44.937 Y18.775 E.07434 ; brim
G1 X205.071 Y18.776 E8.08337 ; brim
G1 X206.54 Y18.971 E.07481 ; brim
M73 P1 R67
M73 Q1 S70
G1 X207.957 Y19.524 E.0768 ; brim
G1 X209.406 Y20.607 E.09132 ; brim
G1 X210.467 Y22.027 E.08951 ; brim
G1 X211.027 Y23.452 E.07727 ; brim
G1 X211.225 Y24.935 E.0755 ; brim
G1 X211.225 Y185.065 E8.08322 ; brim
G1 X210.962 Y186.784 E.08778 ; brim
G1 X210.39 Y188.11 E.07291 ; brim
G1 X209.522 Y189.277 E.0734 ; brim
G1 X207.955 Y190.477 E.09963 ; brim
G1 X206.523 Y191.034 E.07753 ; brim
G1 X205.063 Y191.225 E.07434 ; brim
G1 X44.935 Y191.225 E8.08311 ; brim
G1 X43.216 Y190.962 E.08778 ; brim
M73 P2 R67
G1 X41.889 Y190.39 E.07291 ; brim
G1 X40.723 Y189.522 E.0734 ; brim
G1 X39.523 Y187.955 E.09964 ; brim
G1 X38.966 Y186.523 E.07753 ; brim
G1 X38.775 Y185.063 E.07434 ; brim
G1 X38.775 Y24.935 E8.08311 ; brim
G1 X39.038 Y23.216 E.08777 ; brim
M73 Q2 S70
G1 X39.574 Y21.972 E.06837 ; brim
M204 S1000 ; adjust acceleration
G1 X40.132 Y22.213 F10800 ; move to first brim point
M204 S800 ; adjust acceleration
G1 F1200
G1 X40.938 Y21.122 E.06846 ; brim
G1 X42.308 Y20.071 E.08716 ; brim
G1 X43.594 Y19.563 E.06981 ; brim
G1 X44.957 Y19.382 E.06939 ; brim
G1 X205.05 Y19.383 E8.0813 ; brim
G1 X206.421 Y19.567 E.06982 ; brim
G1 X207.693 Y20.072 E.06911 ; brim
G1 X209.005 Y21.064 E.08301 ; brim
G1 X209.919 Y22.29 E.07718 ; brim
G1 X210.431 Y23.572 E.06966 ; brim
G1 X210.618 Y24.955 E.07049 ; brim
G1 X210.618 Y185.044 E8.08107 ; brim
G1 X210.389 Y186.581 E.07844 ; brim
G1 X209.847 Y187.836 E.06902 ; brim
G1 X209.062 Y188.878 E.06586 ; brim
G1 X207.692 Y189.929 E.08716 ; brim
G1 X206.406 Y190.437 E.06981 ; brim
G1 X205.043 Y190.618 E.06939 ; brim
G1 X44.956 Y190.618 E8.08098 ; brim
G1 X43.419 Y190.389 E.07844 ; brim
G1 X42.164 Y189.847 E.06902 ; brim
G1 X41.122 Y189.062 E.06586 ; brim
G1 X40.071 Y187.692 E.08717 ; brim
G1 X39.563 Y186.406 E.06981 ; brim
G1 X39.382 Y185.043 E.06939 ; brim
G1 X39.382 Y24.956 E8.08098 ; brim
G1 X39.611 Y23.419 E.07844 ; brim
M73 P3 R66
M73 Q2 S69
G1 X40.096 Y22.295 E.0618 ; brim
M204 S1000 ; adjust acceleration
G1 X40.648 Y22.529 F10800 ; move to first brim point
M204 S800 ; adjust acceleration
G1 F1200
G1 X41.398 Y21.52 E.06348 ; brim
G1 X42.574 Y20.618 E.0748 ; brim
G1 X43.714 Y20.159 E.06204 ; brim
G1 X44.978 Y19.989 E.06436 ; brim
G1 X205.029 Y19.99 E8.07921 ; brim
G1 X206.3 Y20.163 E.06475 ; brim
M73 Q3 S69
G1 X207.428 Y20.619 E.06142 ; brim
G1 X208.547 Y21.464 E.07077 ; brim
G1 X209.372 Y22.557 E.06914 ; brim
G1 X209.835 Y23.693 E.06189 ; brim
G1 X210.011 Y24.976 E.06539 ; brim
G1 X210.011 Y185.022 E8.07895 ; brim
G1 X209.814 Y186.381 E.0693 ; brim
G1 X209.339 Y187.501 E.06141 ; brim
G1 X208.602 Y188.48 E.06186 ; brim
G1 X207.426 Y189.382 E.0748 ; brim
G1 X206.286 Y189.841 E.06204 ; brim
G1 X205.022 Y190.011 E.06436 ; brim
G1 X44.978 Y190.011 E8.07888 ; brim
G1 X43.619 Y189.814 E.0693 ; brim
G1 X42.499 Y189.339 E.06141 ; brim
G1 X41.52 Y188.602 E.06186 ; brim
G1 X40.618 Y187.426 E.0748 ; brim
G1 X40.159 Y186.286 E.06204 ; brim
G1 X39.989 Y185.022 E.06436 ; brim
G1 X39.989 Y24.977 E8.07888 ; brim
G1 X40.186 Y23.619 E.0693 ; brim
G1 X40.613 Y22.612 E.0552 ; brim
M204 S1000 ; adjust acceleration
G1 X41.172 Y22.849 F10800 ; move to first brim point
M204 S800 ; adjust acceleration
G1 F1200
G1 X41.204 Y22.772 E.00422 ; brim
G1 X41.855 Y21.921 E.05408 ; brim
G1 X42.839 Y21.166 E.06261 ; brim
G1 X43.904 Y20.737 E.05796 ; brim
G1 X44.996 Y20.596 E.05559 ; brim
G1 X205.01 Y20.597 E8.07731 ; brim
G1 X206.109 Y20.741 E.05595 ; brim
M73 P4 R66
G1 X207.161 Y21.166 E.0573 ; brim
G1 X208.144 Y21.92 E.0625 ; brim
G1 X208.827 Y22.827 E.05732 ; brim
G1 X209.239 Y23.817 E.05413 ; brim
G1 X209.404 Y24.998 E.06019 ; brim
G1 X209.404 Y185.002 E8.07685 ; brim
G1 X209.24 Y186.182 E.0601 ; brim
M73 Q4 S69
G1 X208.796 Y187.228 E.05736 ; brim
G1 X208.145 Y188.079 E.05408 ; brim
G1 X207.161 Y188.834 E.06262 ; brim
G1 X206.096 Y189.263 E.05796 ; brim
G1 X205.004 Y189.404 E.05559 ; brim
G1 X44.998 Y189.404 E8.07692 ; brim
G1 X43.818 Y189.24 E.0601 ; brim
M73 P4 R65
M73 Q4 S68
G1 X42.772 Y188.796 E.05736 ; brim
G1 X41.921 Y188.145 E.05408 ; brim
G1 X41.166 Y187.161 E.06262 ; brim
G1 X40.737 Y186.096 E.05796 ; brim
G1 X40.596 Y185.004 E.05559 ; brim
G1 X40.596 Y24.998 E8.07692 ; brim
G1 X40.76 Y23.818 E.0601 ; brim
G1 X41.136 Y22.932 E.0486 ; brim
M204 S1000 ; adjust acceleration
;WIPE_START
G1 F8640
G1 X41.204 Y22.772 E-.04009 ; wipe and retract
G1 X41.855 Y21.921 E-.24736 ; wipe and retract
G1 X42.839 Y21.166 E-.28642 ; wipe and retract
G1 X43.587 Y20.865 E-.18613 ; wipe and retract
;WIPE_END
G1 E-.04 F2100 ; retract
G1 Z.6 F720 ; lift Z
G1 X46.111 Y23.443 F10800 ; move to first brim point
G1 X44.98 Y23.443 ; move to first brim point
G1 X44.596 Y23.493 ; move to first brim point
G1 X44.22 Y23.649 ; move to first brim point
G1 X43.897 Y23.897 ; move to first brim point
G1 X43.649 Y24.22 ; move to first brim point
G1 X43.493 Y24.596 ; move to first brim point
G1 X43.443 Y24.98 ; move to first brim point
G1 X43.443 Y59.02 ; move to first brim point
G1 X43.493 Y59.404 ; move to first brim point
G1 X43.649 Y59.78 ; move to first brim point
G1 X43.897 Y60.103 ; move to first brim point
G1 X44.22 Y60.351 ; move to first brim point
G1 X44.596 Y60.507 ; move to first brim point
G1 X85.607 Y66.321 ; move to first brim point
G1 X85.493 Y66.596 ; move to first brim point
G1 X85.443 Y66.98 ; move to first brim point
G1 X85.443 Y101.02 ; move to first brim point
G1 X85.493 Y101.404 ; move to first brim point
G1 X85.649 Y101.78 ; move to first brim point
G1 X85.897 Y102.103 ; move to first brim point
G1 X86.22 Y102.351 ; move to first brim point
G1 X86.596 Y102.507 ; move to first brim point
G1 X86.98 Y102.557 ; move to first brim point
G1 X163.02 Y107.443 ; move to first brim point
G1 X163.404 Y107.493 ; move to first brim point
G1 X163.78 Y107.649 ; move to first brim point
G1 X164.103 Y107.897 ; move to first brim point
G1 X164.351 Y108.22 ; move to first brim point
G1 X164.507 Y108.596 ; move to first brim point
G1 X164.557 Y108.98 ; move to first brim point
G1 X169.922 Y149.878 ; move to first brim point
G1 X171.971 Y151.971 ; move to first brim point
G1 Z.2 F720 ; restore layer Z
G1 E.8 F1500 ;  ; unretract
M204 S800 ; adjust acceleration
G1 F1200
G1 X204.029 Y151.971 E1.61823 ; brim
G1 X204.029 Y184.029 E1.61823 ; brim
G1 X171.971 Y184.029 E1.61823 ; brim
G1 X171.971 Y152.061 E1.61369 ; brim
M204 S1000 ; adjust acceleration
G1 X171.364 Y152.061 F10800 ; move to first brim point
M204 S800 ; adjust acceleration
G1 F1200
G1 X171.364 Y151.364 E.03519 ; brim
G1 X204.636 Y151.364 E1.67952 ; brim
G1 X204.636 Y184.636 E1.67952 ; brim
G1 X171.364 Y184.636 E1.67952 ; brim
G1 X171.364 Y152.151 E1.63979 ; brim
M204 S1000 ; adjust acceleration
M73 P5 R65
G1 X170.757 Y152.151 F10800 ; move to first brim point
M204 S800 ; adjust acceleration
G1 F1200
G1 X170.757 Y151.066 E.05477 ; brim
G1 X170.774 Y150.939 E.00646 ; brim
G1 X170.834 Y150.834 E.00612 ; brim
G1 X170.939 Y150.774 E.00612 ; brim
G1 X171.066 Y150.757 E.00646 ; brim
G1 X204.934 Y150.757 E1.70959 ; brim
G1 X205.121 Y150.801 E.00973 ; brim
G1 X205.203 Y150.883 E.00584 ; brim
G1 X205.243 Y151.066 E.00948 ; brim
G1 X205.243 Y184.934 E1.70959 ; brim
G1 X205.226 Y185.061 E.00646 ; brim
G1 X205.166 Y185.166 E.00612 ; brim
G1 X205.061 Y185.226 E.00612 ; brim
G1 X204.934 Y185.243 E.00646 ; brim
G1 X171.066 Y185.243 E1.70959 ; brim
G1 X170.939 Y185.226 E.00646 ; brim
G1 X170.834 Y185.166 E.00612 ; brim
G1 X170.774 Y185.061 E.00612 ; brim
G1 X170.757 Y184.934 E.00646 ; brim
G1 X170.757 Y152.241 E1.65028 ; brim
M204 S1000 ; adjust acceleration
G1 X170.15 Y152.241 F10800 ; move to first brim point
M204 S800 ; adjust acceleration
M73 Q5 S68
G1 F1200
G1 X170.15 Y151.026 E.06132 ; brim
G1 X170.182 Y150.781 E.0125 ; brim
G1 X170.267 Y150.577 E.01115 ; brim
G1 X170.401 Y150.401 E.01116 ; brim
G1 X170.577 Y150.267 E.01115 ; brim
G1 X170.781 Y150.182 E.01115 ; brim
G1 X171.026 Y150.15 E.0125 ; brim
G1 X204.974 Y150.15 E1.71361 ; brim
G1 X205.203 Y150.18 E.01168 ; brim
G1 X205.423 Y150.267 E.01195 ; brim
G1 X205.599 Y150.401 E.01116 ; brim
G1 X205.733 Y150.577 E.01115 ; brim
G1 X205.818 Y150.781 E.01116 ; brim
G1 X205.85 Y151.026 E.0125 ; brim
G1 X205.85 Y184.974 E1.71361 ; brim
G1 X205.818 Y185.219 E.0125 ; brim
G1 X205.733 Y185.423 E.01116 ; brim
G1 X205.599 Y185.599 E.01116 ; brim
G1 X205.423 Y185.733 E.01115 ; brim
G1 X205.219 Y185.818 E.01116 ; brim
G1 X204.974 Y185.85 E.0125 ; brim
G1 X171.026 Y185.85 E1.71361 ; brim
G1 X170.781 Y185.818 E.0125 ; brim
G1 X170.577 Y185.733 E.01116 ; brim
G1 X170.401 Y185.599 E.01116 ; brim
G1 X170.267 Y185.423 E.01115 ; brim
G1 X170.182 Y185.219 E.01116 ; brim
G1 X170.15 Y184.974 E.0125 ; brim
G1 X170.15 Y152.331 E1.64775 ; brim
M204 S1000 ; adjust acceleration
;WIPE_START
G1 F8640
G1 X170.15 Y151.026 E-.30128 ; wipe and retract
G1 X170.182 Y150.781 E-.05719 ; wipe and retract
G1 X170.267 Y150.577 E-.05103 ; wipe and retract
G1 X170.401 Y150.401 E-.05103 ; wipe and retract
G1 X170.577 Y150.267 E-.05102 ; wipe and retract
G1 X170.781 Y150.182 E-.05102 ; wipe and retract
G1 X171.026 Y150.15 E-.05719 ; wipe and retract
G1 X171.634 Y150.15 E-.14024 ; wipe and retract
;WIPE_END
G1 E-.04 F2100 ; retract
G1 Z.6 F720 ; lift Z
G1 X171.634 Y149.443 F10800 ; move to first brim point
G1 X170.98 Y149.443 ; move to first brim point
G1 X170.596 Y149.493 ; move to first brim point
G1 X164.557 Y151.757 ; move to first brim point
G1 X162.029 Y152.331 ; move to first brim point
G1 Z.2 F720 ; restore layer Z
G1 E.8 F1500 ;  ; unretract
M204 S800 ; adjust acceleration
G1 F1200
G1 X162.029 Y184.029 E1.60006 ; brim
G1 X129.971 Y184.029 E1.61823 ; brim
G1 X129.971 Y151.971 E1.61823 ; brim
G1 X162.029 Y151.971 E1.61823 ; brim
G1 X162.029 Y152.241 E.01363 ; brim
M204 S1000 ; adjust acceleration
G1 X162.636 Y152.241 F10800 ; move to first brim point
M204 S800 ; adjust acceleration
G1 F1200
G1 X162.636 Y184.636 E1.63524 ; brim
G1 X129.364 Y184.636 E1.67952 ; brim
G1 X129.364 Y151.364 E1.67952 ; brim
G1 X162.636 Y151.364 E1.67952 ; brim
G1 X162.636 Y152.151 E.03973 ; brim
M204 S1000 ; adjust acceleration
G1 X163.243 Y152.151 F10800 ; move to first brim point
M204 S800 ; adjust acceleration
G1 F1200
G1 X163.243 Y184.934 E1.65483 ; brim
G1 X163.226 Y185.061 E.00646 ; brim
G1 X163.166 Y185.166 E.00612 ; brim
G1 X163.061 Y185.226 E.00612 ; brim
G1 X162.934 Y185.243 E.00646 ; brim
G1 X129.066 Y185.243 E1.70959 ; brim
G1 X128.939 Y185.226 E.00646 ; brim
M73 Q5 S67
G1 X128.834 Y185.166 E.00612 ; brim
G1 X128.774 Y185.061 E.00612 ; brim
G1 X128.757 Y184.934 E.00646 ; brim
G1 X128.757 Y151.066 E1.7096 ; brim
G1 X128.774 Y150.939 E.00646 ; brim
M73 P5 R64
G1 X128.834 Y150.834 E.00612 ; brim
G1 X128.939 Y150.774 E.00612 ; brim
G1 X129.066 Y150.757 E.00646 ; brim
G1 X162.934 Y150.757 E1.70959 ; brim
G1 X163.126 Y150.804 E.00998 ; brim
G1 X163.203 Y150.883 E.00557 ; brim
G1 X163.243 Y151.066 E.00947 ; brim
G1 X163.243 Y152.061 E.05023 ; brim
M204 S1000 ; adjust acceleration
G1 X163.85 Y152.061 F10800 ; move to first brim point
M204 S800 ; adjust acceleration
G1 F1200
G1 X163.85 Y184.974 E1.66138 ; brim
G1 X163.818 Y185.219 E.0125 ; brim
G1 X163.733 Y185.423 E.01116 ; brim
G1 X163.599 Y185.599 E.01116 ; brim
G1 X163.423 Y185.733 E.01115 ; brim
G1 X163.219 Y185.818 E.01116 ; brim
G1 X162.974 Y185.85 E.0125 ; brim
G1 X129.026 Y185.85 E1.71361 ; brim
G1 X128.781 Y185.818 E.0125 ; brim
G1 X128.577 Y185.733 E.01116 ; brim
G1 X128.401 Y185.599 E.01116 ; brim
G1 X128.267 Y185.423 E.01115 ; brim
G1 X128.182 Y185.219 E.01116 ; brim
G1 X128.15 Y184.974 E.0125 ; brim
G1 X128.15 Y151.026 E1.71361 ; brim
G1 X128.182 Y150.781 E.0125 ; brim
M73 P6 R64
G1 X128.267 Y150.577 E.01116 ; brim
G1 X128.401 Y150.401 E.01115 ; brim
G1 X128.577 Y150.267 E.01116 ; brim
G1 X128.781 Y150.182 E.01116 ; brim
G1 X129.026 Y150.15 E.0125 ; brim
G1 X162.974 Y150.15 E1.71361 ; brim
G1 X163.185 Y150.178 E.01075 ; brim
G1 X163.423 Y150.267 E.01285 ; brim
G1 X163.599 Y150.401 E.01116 ; brim
G1 X163.733 Y150.577 E.01116 ; brim
G1 X163.818 Y150.781 E.01116 ; brim
