; generated by PrusaSlicer 2.4.2+win64 on 2022-05-29 at 20:09:24 UTC


;
;
; 

; external perimeters extrusion width = 0.45mm
; perimeters extrusion width = 0.45mm
; infill extrusion width = 0.45mm
; solid infill extrusion width = 0.45mm
; top infill extrusion width = 0.40mm
; support material extrusion width = 0.35mm
; first layer extrusion width = 0.42mm

M73 P0 R216
M73 Q0 S218
M201 X1000 Y1000 Z200 E8000 ; sets maximum accelerations, mm/sec^2
M203 X200 Y200 Z12 E120 ; sets maximum feedrates, mm / sec
M204 P1250 R1250 T1250 ; sets acceleration (P, T) and retract acceleration (R), mm/sec^2
M205 X8.00 Y8.00 Z0.40 E4.50 ; sets the jerk limits, mm/sec
M205 S0 T0 ; sets the minimum extruding and travel feed rate, mm/sec
M107
;TYPE:Custom
M862.3 P "MK3SMMU2S" ; printer model check
M862.1 P0.4 ; nozzle diameter check
M115 U3.11.0 ; tell printer latest fw version
G90 ; use absolute coordinates
M83 ; extruder relative mode
M104 S225 ; set extruder temp
M140 S60 ; set bed temp
M190 S60 ; wait for bed temp
M109 S225 ; wait for extruder temp
G28 W ; home all without mesh bed level
G80 ; mesh bed leveling

; Send the filament type to the MMU2.0 unit.
; E stands for extruder number, F stands for filament type (0: default; 1:flex; 2: PVA)
M403 E0 F0
M403 E1 F0
M403 E2 F0
M403 E3 F0
M403 E4 F0


;go outside print area
G1 Y-3 F1000
G1 Z0.4 F1000
; select extruder
T0
; initial load
G1 X55 E29 F1073
G1 X5 E29 F1800
G1 X55 E8 F2000
G1 Z0.3 F1000
G92 E0
G1 X240 E25 F2200
G1 Y-2 F1000
G1 X55 E25 F1400
G1 Z0.2 F1000
G1 X5 E4 F1000
G92 E0


M221 S95
G92 E0

; Don't change E values below. Excessive value can damage the printer.

M907 E538 ; set extruder motor current
G21 ; set units to millimeters
G90 ; use absolute coordinates
M83 ; use relative distances for extrusion
M900 K0.05 ; Filament gcode LA 1.5
M900 K30 ; Filament gcode LA 1.0
M107
;LAYER_CHANGE
;Z:0.2
;HEIGHT:0.2
;BEFORE_LAYER_CHANGE
G92 E0.0
;0.2


G1 E-.8 F2100
G1 Z.4 F720
;AFTER_LAYER_CHANGE
;0.2
G1 X87.704 Y66.253 F10800
G1 Z.2 F720
G1 E.8 F2100
M204 S800
;TYPE:Skirt/Brim
;WIDTH:0.42
G1 F1200
G1 X88.077 Y65.77 E.01913
G1 X90.384 Y63.462 E.1023
G1 X92.815 Y61.347 E.10103
G1 X100.262 Y56.257 E.28284
G1 X101.6 Y55.845 E.04389
G1 X153.321 Y55.845 E1.62169
G1 X155.002 Y56.541 E.05704
G1 X157.606 Y59.211 E.11693
G1 X162.22 Y66.132 E.26081
G1 X178.445 Y93.938 E1.0094
G1 X178.769 Y95.135 E.0389
G1 X178.769 Y114.865 E.6186
G1 X178.445 Y116.062 E.0389
G1 X162.22 Y143.868 E1.0094
G1 X157.606 Y150.789 E.26081
G1 X155.002 Y153.459 E.11693
G1 X153.321 Y154.155 E.05704
G1 X101.6 Y154.155 E1.62169
G1 X100.262 Y153.743 E.04389
G1 X92.815 Y148.653 E.28284
G1 X90.384 Y146.538 E.10103
G1 X88.077 Y144.231 E.1023
G1 X87.704 Y143.747 E.01913
G1 X71.555 Y116.062 E1.00494
G1 X69.175 Y111.314 E.16655
G1 X68.924 Y110.251 E.03425
G1 X68.924 Y99.749 E.32925
G1 X69.175 Y98.686 E.03425
G1 X71.555 Y93.938 E.16655
G1 X87.674 Y66.304 E1.00305
M204 S1000
; printing object draining travel soap bars v3.chamber.stl id:0 copy 0
;WIPE_START
G1 F8640
G1 X88.077 Y65.77 E-.1546
G1 X89.931 Y63.916 E-.6054
;WIPE_END
G1 E-.04 F2100
G1 Z.6 F720
G1 X97.464 Y65.78 F10800
G1 Z.2 F720
G1 E.8 F2100
M204 S800
;TYPE:Support material interface
;WIDTH:0.35
G1 F1200
G1 X97.315 Y65.78 E.00381
G1 X97.315 Y63.473 E.05891
G1 X97.618 Y63.473 E.00773
G1 X97.618 Y65.78 E.05891
G1 X98.125 Y65.78 E.01295
G1 X98.125 Y63.473 E.05891
G1 X98.632 Y63.473 E.01295
G1 X98.632 Y65.78 E.05891
G1 X99.139 Y65.78 E.01295
G1 X99.139 Y63.473 E.05891
G1 X99.622 Y63.473 E.01234
G1 X99.622 Y63.23 E.0062
M204 S1000
;WIPE_START
G1 F8640
G1 X99.622 Y63.473 E-.05607
G1 X99.139 Y63.473 E-.11156
G1 X99.139 Y65.78 E-.53272
G1 X98.881 Y65.78 E-.05965
;WIPE_END
G1 E-.04 F2100
G1 Z.6 F720
G1 X99.622 Y64.573 F10800
G1 Z.2 F720
G1 E.8 F2100
M204 S800
G1 F1200
G1 X99.622 Y64.004 E.01453
G1 X99.395 Y63.943 E.00602
G1 X99.246 Y64.201 E.0076
G1 X99.355 Y64.608 E.01077
G1 X99.576 Y64.579 E.0057
M204 S1000
;WIPE_START
G1 F8640
G1 X99.355 Y64.608 E-.05153
G1 X99.246 Y64.201 E-.09741
G1 X99.395 Y63.943 E-.06871
G1 X99.622 Y64.004 E-.05442
G1 X99.622 Y64.573 E-.1314
;WIPE_END
G1 E-.39653 F2100
G1 Z.6 F720
G1 X101.717 Y62.695 F10800
G1 Z.2 F720
G1 E.8 F2100
M204 S800
;TYPE:Support material
;WIDTH:0.42
G1 F1200
G1 X101.717 Y64.603 E.05982
G1 X101.657 Y64.638 E.00217
G1 X100.005 Y63.684 E.05982
G1 X99.992 Y63.636 E.00156
G1 X100.12 Y63.414 E.00804
G1 X100.945 Y63.89 E.02989
G1 X101.425 Y63.613 E.01738
G1 X101.425 Y62.66 E.02989
G1 X101.675 Y62.66 E.00782
M204 S1000
;WIPE_START
G1 F8640
G1 X101.425 Y62.66 E-.05759
G1 X101.425 Y63.613 E-.22011
G1 X100.945 Y63.89 E-.12798
G1 X100.12 Y63.414 E-.22011
G1 X99.992 Y63.636 E-.05919
G1 X100.005 Y63.684 E-.01146
G1 X100.243 Y63.821 E-.06357
;WIPE_END
G1 E-.04 F2100
G1 Z.6 F720
G1 X101.674 Y61.165 F10800
G1 Z.2 F720
G1 E.8 F2100
M204 S800
;TYPE:Support material interface
;WIDTH:0.35
G1 F1200
G1 X101.674 Y62.296 E.02888
G1 X101.167 Y62.296 E.01295
G1 X101.167 Y61.165 E.02888
G1 X100.66 Y61.165 E.01295
G1 X100.66 Y62.296 E.02888
G1 X100.476 Y62.296 E.0047
G1 X100.28 Y62.41 E.0058
G1 X100.153 Y62.629 E.00646
G1 X100.153 Y61.165 E.03737
G1 X99.646 Y61.165 E.01295
G1 X99.646 Y63.507 E.0598
G1 X99.601 Y63.584 E.00228
G1 X99.646 Y63.751 E.0044
G1 X99.646 Y68.087 E.11071
G1 X100.153 Y68.087 E.01295
G1 X100.153 Y64.189 E.09951
G1 X100.66 Y64.482 E.01495
G1 X100.66 Y68.087 E.09204
G1 X101.167 Y68.087 E.01295
G1 X101.167 Y64.775 E.08456
G1 X101.657 Y65.058 E.01444
G1 X101.674 Y65.048 E.00051
G1 X101.674 Y68.087 E.0776
G1 X102.181 Y68.087 E.01295
G1 X102.181 Y61.165 E.17673
G1 X102.689 Y61.165 E.01295
G1 X102.689 Y68.087 E.17673
G1 X103.196 Y68.087 E.01295
G1 X103.196 Y61.165 E.17673
G1 X103.703 Y61.165 E.01295
G1 X103.703 Y68.087 E.17673
G1 X104.21 Y68.087 E.01295
G1 X104.21 Y61.165 E.17673
M204 S1000
;WIPE_START
G1 F8640
G1 X104.21 Y64.457 E-.76
;WIPE_END
G1 E-.04 F2100
G1 Z.6 F720
G1 X153.321 Y60.529 F10800
G1 Z.2 F720
G1 E.8 F2100
M204 S800
;TYPE:Support material
;WIDTH:0.42
G1 F1200
G1 X155.628 Y60.529 E.07234
G1 X155.628 Y65.143 E.14467
G1 X157.935 Y65.143 E.07234
G1 X157.935 Y67.45 E.07234
G1 X160.243 Y67.45 E.07234
M73 P0 R215
G1 X160.243 Y72.065 E.14467
G1 X162.55 Y72.065 E.07234
G1 X162.55 Y76.679 E.14467
G1 X164.857 Y76.679 E.07234
G1 X164.857 Y81.293 E.14467
G1 X167.164 Y81.293 E.07234
G1 X167.164 Y83.6 E.07234
G1 X169.471 Y83.6 E.07234
G1 X169.471 Y88.214 E.14467
G1 X171.778 Y88.214 E.07234
G1 X171.778 Y92.828 E.14467
G1 X174.085 Y92.828 E.07234
G1 X174.085 Y95.135 E.07234
G1 X176.392 Y95.135 E.07234
G1 X176.392 Y114.865 E.6186
G1 X174.085 Y114.865 E.07234
M73 Q0 S217
G1 X174.085 Y117.172 E.07234
G1 X171.778 Y117.172 E.07234
G1 X171.778 Y121.786 E.14467
G1 X169.471 Y121.786 E.07234
G1 X169.471 Y126.4 E.14467
G1 X167.164 Y126.4 E.07234
G1 X167.164 Y128.707 E.07234
G1 X164.857 Y128.707 E.07234
G1 X164.857 Y133.321 E.14467
G1 X162.55 Y133.321 E.07234
G1 X162.55 Y137.935 E.14467
G1 X160.243 Y137.935 E.07234
G1 X160.243 Y142.55 E.14467
G1 X157.935 Y142.55 E.07234
G1 X157.935 Y144.857 E.07234
G1 X155.628 Y144.857 E.07234
G1 X155.628 Y149.471 E.14467
G1 X153.321 Y149.471 E.07234
G1 X153.321 Y151.778 E.07234
G1 X101.6 Y151.778 E1.62169
G1 X101.6 Y149.198 E.08089
G1 X104.6 Y149.198 E.09406
G1 X104.6 Y141.55 E.23981
G1 X99.258 Y141.55 E.16748
G1 X99.258 Y143.857 E.07234
G1 X96.951 Y143.857 E.07234
G1 X96.951 Y146.891 E.09514
G1 X99.258 Y146.891 E.07234
G1 X99.258 Y148.823 E.06058
G1 X98.123 Y149.128 E.03685
G1 X96.812 Y146.857 E.08222
G1 X94.372 Y146.857 E.07652
G1 X94.372 Y144.857 E.06271
G1 X92.065 Y144.857 E.07234
G1 X92.065 Y142.55 E.07234
G1 X89.757 Y142.55 E.07234
G1 X89.757 Y137.935 E.14467
G1 X87.45 Y137.935 E.07234
G1 X87.45 Y133.321 E.14467
G1 X85.143 Y133.321 E.07234
G1 X85.143 Y128.707 E.14467
G1 X82.836 Y128.707 E.07234
G1 X82.836 Y126.4 E.07234
G1 X80.529 Y126.4 E.07234
G1 X80.529 Y121.786 E.14467
G1 X78.222 Y121.786 E.07234
G1 X78.222 Y117.172 E.14467
G1 X75.915 Y117.172 E.07234
G1 X75.915 Y114.865 E.07234
G1 X73.608 Y114.865 E.07234
G1 X73.608 Y110.251 E.14467
G1 X71.301 Y110.251 E.07234
G1 X71.301 Y99.749 E.32925
G1 X73.608 Y99.749 E.07234
G1 X73.608 Y95.135 E.14467
G1 X75.915 Y95.135 E.07234
G1 X75.915 Y92.828 E.07234
G1 X78.222 Y92.828 E.07234
G1 X78.222 Y88.214 E.14467
G1 X80.529 Y88.214 E.07234
G1 X80.529 Y83.6 E.14467
G1 X82.836 Y83.6 E.07234
G1 X82.836 Y81.293 E.07234
G1 X85.143 Y81.293 E.07234
G1 X85.143 Y76.679 E.14467
G1 X87.45 Y76.679 E.07234
G1 X87.45 Y72.065 E.14467
G1 X89.757 Y72.065 E.07234
G1 X89.757 Y67.45 E.14467
G1 X92.065 Y67.45 E.07234
G1 X92.065 Y65.143 E.07234
G1 X94.372 Y65.143 E.07234
G1 X94.372 Y63.143 E.06271
G1 X96.812 Y63.143 E.07652
G1 X98.123 Y60.873 E.0822
G1 X99.258 Y61.177 E.03686
G1 X99.258 Y63.109 E.06057
G1 X96.951 Y63.109 E.07234
G1 X96.951 Y66.143 E.09514
G1 X99.258 Y66.143 E.07234
G1 X99.258 Y68.45 E.07234
G1 X104.6 Y68.45 E.16748
G1 X104.6 Y60.802 E.23981
G1 X101.6 Y60.802 E.09406
G1 X101.6 Y58.222 E.08089
G1 X153.321 Y58.222 E1.62169
G1 X153.321 Y60.473 E.07056
M204 S1000
;WIPE_START
G1 F8640
G1 X153.321 Y58.222 E-.51965
G1 X152.28 Y58.222 E-.24035
;WIPE_END
G1 E-.04 F2100
G1 Z.6 F720
G1 X123.329 Y121.786 F10800
G1 Z.2 F720
G1 E.8 F2100
M204 S800
G1 F1200
G1 X123.329 Y124.093 E.07234
G1 X121.022 Y124.093 E.07234
G1 X121.022 Y126.4 E.07234
G1 X118.715 Y126.4 E.07234
G1 X118.715 Y134.356 E.24944
G1 X121.022 Y134.356 E.07234
G1 X121.022 Y138.97 E.14467
G1 X128.978 Y138.97 E.24944
G1 X128.978 Y134.356 E.14467
G1 X131.285 Y134.356 E.07234
G1 X131.285 Y126.4 E.24944
G1 X128.978 Y126.4 E.07234
G1 X128.978 Y124.093 E.07234
G1 X126.671 Y124.093 E.07234
G1 X126.671 Y121.786 E.07234
G1 X123.386 Y121.786 E.103
M204 S1000
;WIPE_START
G1 F8640
G1 X126.671 Y121.786 E-.75849
G1 X126.671 Y121.792 E-.00151
;WIPE_END
G1 E-.04 F2100
G1 Z.6 F720
G1 X141.786 Y137.935 F10800
G1 Z.2 F720
G1 E.8 F2100
M204 S800
G1 F1200
G1 X141.786 Y138.97 E.03243
G1 X142.82 Y138.97 E.03243
G1 X142.82 Y137.935 E.03243
G1 X141.843 Y137.935 E.03066
M204 S1000
;WIPE_START
G1 F8640
G1 X142.82 Y137.935 E-.22577
G1 X142.82 Y138.97 E-.23883
G1 X141.786 Y138.97 E-.23883
G1 X141.786 Y138.725 E-.05656
;WIPE_END
G1 E-.04 F2100
G1 Z.6 F720
G1 X107.18 Y137.935 F10800
G1 Z.2 F720
G1 E.8 F2100
M204 S800
G1 F1200
G1 X107.18 Y138.97 E.03243
G1 X108.214 Y138.97 E.03243
G1 X108.214 Y137.935 E.03243
G1 X107.236 Y137.935 E.03066
M204 S1000
;WIPE_START
G1 F8640
G1 X108.214 Y137.935 E-.22577
G1 X108.214 Y138.97 E-.23883
G1 X107.18 Y138.97 E-.23883
G1 X107.18 Y138.725 E-.05656
;WIPE_END
G1 E-.04 F2100
G1 Z.6 F720
G1 X144.093 Y135.628 F10800
G1 Z.2 F720
G1 E.8 F2100
M204 S800
G1 F1200
G1 X144.093 Y136.663 E.03243
G1 X145.127 Y136.663 E.03243
G1 X145.127 Y135.628 E.03243
G1 X144.15 Y135.628 E.03066
M204 S1000
;WIPE_START
G1 F8640
G1 X145.127 Y135.628 E-.22577
G1 X145.127 Y136.663 E-.23883
G1 X144.093 Y136.663 E-.23883
G1 X144.093 Y136.418 E-.05656
;WIPE_END
G1 E-.04 F2100
G1 Z.6 F720
G1 X104.873 Y135.628 F10800
G1 Z.2 F720
G1 E.8 F2100
M204 S800
G1 F1200
G1 X104.873 Y136.663 E.03243
G1 X105.907 Y136.663 E.03243
G1 X105.907 Y135.628 E.03243
G1 X104.929 Y135.628 E.03066
M204 S1000
;WIPE_START
G1 F8640
G1 X105.907 Y135.628 E-.22577
G1 X105.907 Y136.663 E-.23883
G1 X104.873 Y136.663 E-.23883
G1 X104.873 Y136.418 E-.05656
;WIPE_END
G1 E-.04 F2100
G1 Z.6 F720
G1 X100.258 Y110.251 F10800
G1 Z.2 F720
G1 E.8 F2100
M204 S800
G1 F1200
G1 X100.258 Y112.558 E.07234
G1 X97.951 Y112.558 E.07234
G1 X97.951 Y114.865 E.07234
G1 X95.644 Y114.865 E.07234
G1 X95.644 Y120.513 E.17711
G1 X97.951 Y120.513 E.07234
G1 X97.951 Y122.82 E.07234
G1 X100.258 Y122.82 E.07234
G1 X100.258 Y125.127 E.07234
G1 X105.907 Y125.127 E.17711
G1 X105.907 Y122.82 E.07234
G1 X108.214 Y122.82 E.07234
G1 X108.214 Y118.206 E.14467
G1 X110.521 Y118.206 E.07234
G1 X110.521 Y117.172 E.03243
G1 X108.214 Y117.172 E.07234
G1 X108.214 Y112.558 E.14467
G1 X105.907 Y112.558 E.07234
G1 X105.907 Y110.251 E.07234
G1 X100.315 Y110.251 E.17533
M204 S1000
;WIPE_START
G1 F8640
G1 X103.606 Y110.251 E-.76
;WIPE_END
G1 E-.04 F2100
G1 Z.6 F720
G1 X144.093 Y110.251 F10800
G1 Z.2 F720
G1 E.8 F2100
M204 S800
G1 F1200
G1 X144.093 Y112.558 E.07234
G1 X141.786 Y112.558 E.07234
G1 X141.786 Y117.172 E.14467
G1 X139.479 Y117.172 E.07234
G1 X139.479 Y118.206 E.03243
G1 X141.786 Y118.206 E.07234
G1 X141.786 Y122.82 E.14467
G1 X144.093 Y122.82 E.07234
G1 X144.093 Y125.127 E.07234
G1 X149.742 Y125.127 E.17711
G1 X149.742 Y122.82 E.07234
G1 X152.049 Y122.82 E.07234
G1 X152.049 Y120.513 E.07234
G1 X154.356 Y120.513 E.07234
G1 X154.356 Y114.865 E.17711
G1 X152.049 Y114.865 E.07234
G1 X152.049 Y112.558 E.07234
G1 X149.742 Y112.558 E.07234
G1 X149.742 Y110.251 E.07234
G1 X144.15 Y110.251 E.17533
M204 S1000
;WIPE_START
G1 F8640
G1 X147.441 Y110.251 E-.76
;WIPE_END
G1 E-.04 F2100
G1 Z.6 F720
G1 X121.022 Y96.408 F10800
G1 Z.2 F720
G1 E.8 F2100
M204 S800
G1 F1200
G1 X121.022 Y101.022 E.14467
G1 X118.715 Y101.022 E.07234
G1 X118.715 Y108.978 E.24944
G1 X121.022 Y108.978 E.07234
G1 X121.022 Y113.592 E.14467
G1 X128.978 Y113.592 E.24944
G1 X128.978 Y108.978 E.14467
G1 X131.285 Y108.978 E.07234
G1 X131.285 Y101.022 E.24944
G1 X128.978 Y101.022 E.07234
G1 X128.978 Y96.408 E.14467
G1 X121.079 Y96.408 E.24767
M204 S1000
;WIPE_START
G1 F8640
G1 X124.37 Y96.408 E-.76
;WIPE_END
G1 E-.04 F2100
G1 Z.6 F720
G1 X168.471 Y107.671 F10800
G1 Z.2 F720
G1 E.8 F2100
M204 S800
G1 F1200
G1 X173.812 Y107.671 E.16748
G1 X173.812 Y105.76 E.05992
G1 X173.959 Y105.72 E.00477
G1 X174.301 Y105.129 E.02142
G1 X174.301 Y104.871 E.00807
G1 X173.959 Y104.28 E.02142
G1 X173.812 Y104.24 E.00477
G1 X173.812 Y102.329 E.05992
G1 X168.471 Y102.329 E.16748
G1 X168.471 Y107.614 E.1657
M204 S1000
;WIPE_START
G1 F8640
G1 X168.471 Y104.323 E-.76
;WIPE_END
G1 E-.04 F2100
G1 Z.6 F720
G1 X100.258 Y84.873 F10800
G1 Z.2 F720
G1 E.8 F2100
M204 S800
G1 F1200
G1 X100.258 Y87.18 E.07234
G1 X97.951 Y87.18 E.07234
G1 X97.951 Y89.487 E.07234
G1 X95.644 Y89.487 E.07234
G1 X95.644 Y95.135 E.17711
G1 X97.951 Y95.135 E.07234
G1 X97.951 Y97.442 E.07234
G1 X100.258 Y97.442 E.07234
G1 X100.258 Y99.749 E.07234
G1 X105.907 Y99.749 E.17711
G1 X105.907 Y97.442 E.07234
G1 X108.214 Y97.442 E.07234
G1 X108.214 Y92.828 E.14467
G1 X110.521 Y92.828 E.07234
G1 X110.521 Y91.794 E.03243
G1 X108.214 Y91.794 E.07234
G1 X108.214 Y87.18 E.14467
G1 X105.907 Y87.18 E.07234
G1 X105.907 Y84.873 E.07234
G1 X100.315 Y84.873 E.17533
M204 S1000
;WIPE_START
G1 F8640
G1 X103.606 Y84.873 E-.76
;WIPE_END
G1 E-.04 F2100
G1 Z.6 F720
G1 X144.093 Y84.873 F10800
G1 Z.2 F720
G1 E.8 F2100
M204 S800
G1 F1200
G1 X144.093 Y87.18 E.07234
G1 X141.786 Y87.18 E.07234
G1 X141.786 Y91.794 E.14467
G1 X139.479 Y91.794 E.07234
G1 X139.479 Y92.828 E.03243
G1 X141.786 Y92.828 E.07234
G1 X141.786 Y97.442 E.14467
G1 X144.093 Y97.442 E.07234
G1 X144.093 Y99.749 E.07234
G1 X149.742 Y99.749 E.17711
G1 X149.742 Y97.442 E.07234
G1 X152.049 Y97.442 E.07234
G1 X152.049 Y95.135 E.07234
G1 X154.356 Y95.135 E.07234
G1 X154.356 Y89.487 E.17711
G1 X152.049 Y89.487 E.07234
G1 X152.049 Y87.18 E.07234
G1 X149.742 Y87.18 E.07234
G1 X149.742 Y84.873 E.07234
G1 X144.15 Y84.873 E.17533
M204 S1000
;WIPE_START
G1 F8640
G1 X147.441 Y84.873 E-.76
;WIPE_END
G1 E-.04 F2100
G1 Z.6 F720
G1 X121.022 Y71.03 F10800
G1 Z.2 F720
G1 E.8 F2100
M204 S800
G1 F1200
G1 X121.022 Y75.644 E.14467
G1 X118.715 Y75.644 E.07234
G1 X118.715 Y83.6 E.24944
G1 X121.022 Y83.6 E.07234
G1 X121.022 Y85.907 E.07234
G1 X123.329 Y85.907 E.07234
G1 X123.329 Y88.214 E.07234
G1 X126.671 Y88.214 E.10477
G1 X126.671 Y85.907 E.07234
G1 X128.978 Y85.907 E.07234
G1 X128.978 Y83.6 E.07234
G1 X131.285 Y83.6 E.07234
G1 X131.285 Y75.644 E.24944
G1 X128.978 Y75.644 E.07234
G1 X128.978 Y71.03 E.14467
G1 X121.079 Y71.03 E.24767
M204 S1000
;WIPE_START
G1 F8640
G1 X124.37 Y71.03 E-.76
;WIPE_END
G1 E-.04 F2100
G1 Z.6 F720
G1 X144.093 Y73.337 F10800
G1 Z.2 F720
G1 E.8 F2100
M204 S800
G1 F1200
G1 X144.093 Y74.372 E.03243
G1 X145.127 Y74.372 E.03243
G1 X145.127 Y73.337 E.03243
G1 X144.15 Y73.337 E.03066
M204 S1000
;WIPE_START
G1 F8640
G1 X145.127 Y73.337 E-.22577
G1 X145.127 Y74.372 E-.23883
