; generated by PrusaSlicer 2.5.0-beta1+win64 on 2022-08-22 at 17:07:41 UTC


;
;
; 

; external perimeters extrusion width = 0.60mm
; perimeters extrusion width = 0.50mm
; infill extrusion width = 0.50mm
; solid infill extrusion width = 0.50mm
; top infill extrusion width = 0.45mm
; first layer extrusion width = 0.42mm

M73 P0 R58
M73 Q0 S58
M201 X1000 Y1000 Z200 E8000 ; sets maximum accelerations, mm/sec^2
M203 X200 Y200 Z12 E120 ; sets maximum feedrates, mm / sec
M204 P1250 R1250 T1500 ; sets acceleration (P, T) and retract acceleration (R), mm/sec^2
M205 X8.00 Y8.00 Z0.40 E4.50 ; sets the jerk limits, mm/sec
M205 S0 T0 ; sets the minimum extruding and travel feed rate, mm/sec
M107 ; disable fan
;TYPE:Custom
M862.3 P "MK3SMMU2S" ; printer model check
M862.1 P0.4 ; nozzle diameter check
M115 U3.11.0 ; tell printer latest fw version
G90 ; use absolute coordinates
M83 ; extruder relative mode
M104 S240 ; set extruder temp
M140 S85 ; set bed temp
M190 S85 ; wait for bed temp
M109 S240 ; wait for extruder temp
G28 W ; home all without mesh bed level

G4 S30 ; wait 30s for probe to reach temp -peter villano

G80 ; mesh bed leveling

; Send the filament type to the MMU2.0 unit.
; E stands for extruder number, F stands for filament type (0: default; 1:flex; 2: PVA)
M403 E0 F0
M403 E1 F0
M403 E2 F0
M403 E3 F0
M403 E4 F0


;go outside print area
G1 Y-3 F1000
G1 Z0.4 F1000
; select extruder
T1
; initial load
G1 X55 E29 F1073
G1 X5 E29 F1800
G1 X55 E8 F2000
M73 P0 R57
G1 Z0.3 F1000
G92 E0
G1 X240 E25 F2200
G1 Y-2 F1000
G1 X55 E25 F1400
G1 Z0.2 F1000
M73 Q0 S57
G1 X5 E4 F1000
G92 E0


M221 S95
G92 E0

; Don't change E values below. Excessive value can damage the printer.

G21 ; set units to millimeters
G90 ; use absolute coordinates
M83 ; use relative distances for extrusion
T1 ; change extruder
M104 S240 ; set temperature
M900 K0.08 ; Filament gcode LA 1.5
M900 K45 ; Filament gcode LA 1.0
M107 ; disable fan
;LAYER_CHANGE
;Z:0.2
;HEIGHT:0.2
;BEFORE_LAYER_CHANGE
G92 E0.0
;0.2


G1 E-1 F2100 ; retract
M73 P1 R57
M73 Q1 S57
G1 Z.2 F720 ; lift Z
;AFTER_LAYER_CHANGE
;0.2
G1 Z.4 ; lift Z
G1 X106.336 Y76.748 F10800 ; move to first skirt point
G1 Z.2 F720 ; restore layer Z
G1 E1 F2100 ;  ; unretract
M204 P800 ; adjust acceleration
;TYPE:Skirt/Brim
;WIDTH:0.42
G1 F1200
G1 X106.524 Y76.487 E.0101 ; skirt
G1 X108.007 Y74.93 E.06742 ; skirt
G1 X109.707 Y73.545 E.06875 ; skirt
G1 X111.64 Y72.35 E.07124 ; skirt
G1 X113.948 Y71.336 E.07903 ; skirt
G1 X116.058 Y70.736 E.06879 ; skirt
G1 X118.262 Y70.406 E.06988 ; skirt
G1 X120.738 Y70.346 E.07765 ; skirt
G1 X131.469 Y70.386 E.33646 ; skirt
G1 X133.721 Y70.69 E.07125 ; skirt
G1 X136.188 Y71.385 E.08039 ; skirt
G1 X137.676 Y72.008 E.05058 ; skirt
G1 X139.061 Y72.744 E.04919 ; skirt
G1 X140.107 Y73.415 E.03893 ; skirt
G1 X141.387 Y74.395 E.05057 ; skirt
G1 X142.54 Y75.461 E.04923 ; skirt
G1 X143.618 Y76.659 E.05054 ; skirt
G1 X144.535 Y77.889 E.0481 ; skirt
G1 X145.377 Y79.265 E.05057 ; skirt
G1 X146.087 Y80.714 E.05059 ; skirt
G1 X146.682 Y82.297 E.05304 ; skirt
G1 X147.102 Y83.854 E.05057 ; skirt
G1 X147.379 Y85.487 E.05192 ; skirt
G1 X147.503 Y87.467 E.0622 ; skirt
G1 X147.435 Y89.078 E.05059 ; skirt
G1 X147.209 Y90.719 E.05192 ; skirt
G1 X146.838 Y92.288 E.05057 ; skirt
G1 X146.293 Y93.89 E.05307 ; skirt
G1 X145.628 Y95.361 E.05059 ; skirt
G1 X144.83 Y96.76 E.05052 ; skirt
G1 X143.877 Y98.115 E.05195 ; skirt
G1 X142.828 Y99.34 E.05057 ; skirt
G1 X141.387 Y100.705 E.06221 ; skirt
G1 X140.071 Y101.71 E.05191 ; skirt
G1 X138.633 Y102.601 E.05307 ; skirt
G1 X136.804 Y103.477 E.06356 ; skirt
G1 X135.243 Y104.029 E.05192 ; skirt
G1 X133.558 Y104.443 E.05441 ; skirt
G1 X131.591 Y104.705 E.06222 ; skirt
G1 X119.336 Y104.75 E.38425 ; skirt
G1 X117.77 Y104.645 E.04922 ; skirt
G1 X116.542 Y104.462 E.03891 ; skirt
G1 X114.616 Y103.986 E.06222 ; skirt
G1 X112.986 Y103.39 E.05441 ; skirt
G1 X111.169 Y102.49 E.06356 ; skirt
G1 X109.707 Y101.555 E.05441 ; skirt
G1 X108.129 Y100.282 E.06357 ; skirt
G1 X106.905 Y99.052 E.05441 ; skirt
G1 X105.642 Y97.467 E.06356 ; skirt
G1 X104.693 Y95.963 E.05576 ; skirt
G1 X103.761 Y94.026 E.0674 ; skirt
G1 X102.986 Y91.627 E.07904 ; skirt
G1 X102.603 Y89.468 E.06875 ; skirt
G1 X102.498 Y87.241 E.0699 ; skirt
G1 X102.677 Y85.056 E.06875 ; skirt
G1 X103.224 Y82.595 E.07904 ; skirt
G1 X103.988 Y80.54 E.06875 ; skirt
G1 X105.049 Y78.53 E.07124 ; skirt
G1 X106.301 Y76.797 E.06704 ; skirt
M204 P1000 ; adjust acceleration
G1 X106.606 Y77.017 F10800 ; move to first skirt point
M204 P800 ; adjust acceleration
G1 F1200
G1 X106.816 Y76.726 E.01124 ; skirt
G1 X108.267 Y75.204 E.06594 ; skirt
G1 X109.926 Y73.852 E.06709 ; skirt
G1 X111.813 Y72.685 E.06958 ; skirt
G1 X114.078 Y71.69 E.07756 ; skirt
G1 X116.137 Y71.104 E.06712 ; skirt
G1 X118.294 Y70.782 E.0684 ; skirt
G1 X120.738 Y70.723 E.07663 ; skirt
G1 X131.442 Y70.762 E.33563 ; skirt
G1 X133.642 Y71.058 E.06958 ; skirt
G1 X136.023 Y71.727 E.07756 ; skirt
G1 X137.514 Y72.348 E.05063 ; skirt
G1 X138.873 Y73.071 E.04827 ; skirt
G1 X139.888 Y73.722 E.03782 ; skirt
G1 X141.141 Y74.681 E.04946 ; skirt
G1 X142.273 Y75.726 E.0483 ; skirt
G1 X143.326 Y76.899 E.04943 ; skirt
G1 X144.222 Y78.1 E.04699 ; skirt
G1 X145.028 Y79.413 E.0483 ; skirt
G1 X145.741 Y80.863 E.05065 ; skirt
G1 X146.323 Y82.413 E.05193 ; skirt
G1 X146.734 Y83.936 E.04946 ; skirt
G1 X147.004 Y85.528 E.05062 ; skirt
G1 X147.126 Y87.472 E.06109 ; skirt
G1 X147.059 Y89.049 E.04948 ; skirt
G1 X146.839 Y90.648 E.05062 ; skirt
G1 X146.476 Y92.184 E.04946 ; skirt
G1 X145.942 Y93.752 E.05196 ; skirt
G1 X145.292 Y95.19 E.04948 ; skirt
G1 X144.511 Y96.559 E.04941 ; skirt
G1 X143.582 Y97.881 E.05065 ; skirt
G1 X142.556 Y99.079 E.04946 ; skirt
G1 X141.141 Y100.419 E.06111 ; skirt
G1 X139.858 Y101.399 E.05062 ; skirt
G1 X138.519 Y102.233 E.04946 ; skirt
G1 X137.001 Y102.985 E.05312 ; skirt
G1 X135.135 Y103.667 E.06227 ; skirt
G1 X133.491 Y104.072 E.05311 ; skirt
G1 X131.559 Y104.33 E.06111 ; skirt
G1 X119.345 Y104.373 E.38296 ; skirt
G1 X117.808 Y104.27 E.0483 ; skirt
G1 X116.615 Y104.092 E.03781 ; skirt
G1 X114.723 Y103.624 E.06111 ; skirt
G1 X113.132 Y103.043 E.05312 ; skirt
G1 X111.353 Y102.161 E.06227 ; skirt
G1 X109.926 Y101.248 E.05312 ; skirt
G1 X108.38 Y100.001 E.06227 ; skirt
G1 X107.185 Y98.799 E.05312 ; skirt
G1 X105.947 Y97.247 E.06227 ; skirt
G1 X105.042 Y95.815 E.05312 ; skirt
G1 X104.112 Y93.888 E.06709 ; skirt
G1 X103.351 Y91.534 E.07756 ; skirt
G1 X102.977 Y89.427 E.06709 ; skirt
G1 X102.875 Y87.247 E.06842 ; skirt
G1 X103.05 Y85.115 E.06709 ; skirt
G1 X103.587 Y82.7 E.07757 ; skirt
G1 X104.332 Y80.694 E.06709 ; skirt
G1 X105.368 Y78.732 E.06958 ; skirt
G1 X106.571 Y77.066 E.06442 ; skirt
M204 P1000 ; adjust acceleration
;WIPE_START
G1 F8640
G1 X106.816 Y76.726 E-.09666 ; wipe and retract
G1 X108.267 Y75.204 E-.48563 ; wipe and retract
G1 X109.501 Y74.198 E-.36771 ; wipe and retract
;WIPE_END
G1 E-.05 F2100 ; retract
G1 Z.4 F720 ; lift Z
G1 X108.643 Y78.714 F10800 ; move to first brim point
G1 Z.2 F720 ; restore layer Z
G1 E1 F2100 ;  ; unretract
M204 P800 ; adjust acceleration
G1 F1200
G1 X108.956 Y78.321 E.01577 ; brim
G1 X109.751 Y77.469 E.03651 ; brim
G1 X110.511 Y76.772 E.03235 ; brim
G1 X111.448 Y76.039 E.03729 ; brim
G1 X112.242 Y75.509 E.02996 ; brim
G1 X113.06 Y75.039 E.02957 ; brim
G1 X114.115 Y74.534 E.03665 ; brim
G1 X115.047 Y74.173 E.03134 ; brim
G1 X116.207 Y73.824 E.038 ; brim
G1 X117.235 Y73.603 E.03297 ; brim
G1 X118.344 Y73.452 E.03509 ; brim
G1 X119.378 Y73.39 E.03248 ; brim
G1 X130.52 Y73.389 E.34935 ; brim
G1 X131.433 Y73.433 E.02866 ; brim
G1 X132.55 Y73.567 E.03524 ; brim
G1 X133.515 Y73.756 E.03084 ; brim
G1 X134.469 Y74.015 E.03098 ; brim
G1 X135.463 Y74.362 E.03303 ; brim
G1 X136.373 Y74.755 E.03108 ; brim
G1 X137.442 Y75.32 E.03791 ; brim
G1 X138.253 Y75.83 E.03004 ; brim
G1 X139.325 Y76.635 E.04204 ; brim
G1 X140.139 Y77.363 E.03422 ; brim
G1 X140.986 Y78.255 E.03856 ; brim
G1 X141.766 Y79.236 E.03931 ; brim
G1 X142.523 Y80.396 E.04344 ; brim
G1 X143.082 Y81.45 E.03741 ; brim
G1 X143.471 Y82.342 E.03051 ; brim
G1 X143.798 Y83.264 E.03066 ; brim
G1 X144.152 Y84.599 E.04331 ; brim
G1 X144.353 Y85.792 E.03793 ; brim
G1 X144.452 Y86.985 E.03753 ; brim
G1 X144.428 Y88.551 E.0491 ; brim
G1 X144.31 Y89.622 E.03379 ; brim
G1 X144.12 Y90.646 E.03265 ; brim
G1 X143.865 Y91.619 E.03154 ; brim
G1 X143.498 Y92.689 E.03546 ; brim
G1 X142.896 Y94.025 E.04596 ; brim
G1 X142.255 Y95.144 E.04044 ; brim
G1 X141.503 Y96.214 E.041 ; brim
G1 X140.643 Y97.226 E.04163 ; brim
G1 X139.702 Y98.143 E.04121 ; brim
G1 X139.035 Y98.698 E.02721 ; brim
G1 X138.328 Y99.218 E.02753 ; brim
G1 X137.15 Y99.947 E.04343 ; brim
G1 X135.977 Y100.526 E.04101 ; brim
G1 X134.719 Y101.006 E.0422 ; brim
G1 X133.468 Y101.355 E.04075 ; brim
G1 X132.582 Y101.528 E.02828 ; brim
G1 X131.675 Y101.646 E.0287 ; brim
G1 X130.434 Y101.713 E.03895 ; brim
G1 X119.384 Y101.71 E.34646 ; brim
G1 X118.5 Y101.663 E.02777 ; brim
G1 X117.62 Y101.56 E.02777 ; brim
G1 X116.678 Y101.387 E.03003 ; brim
G1 X115.741 Y101.148 E.03032 ; brim
G1 X114.741 Y100.816 E.03304 ; brim
G1 X113.791 Y100.422 E.03223 ; brim
G1 X112.726 Y99.877 E.0375 ; brim
G1 X111.883 Y99.361 E.031 ; brim
G1 X110.87 Y98.624 E.03928 ; brim
G1 X110.084 Y97.949 E.03248 ; brim
G1 X109.218 Y97.076 E.03858 ; brim
G1 X108.528 Y96.256 E.03361 ; brim
G1 X107.852 Y95.311 E.03644 ; brim
G1 X107.367 Y94.516 E.02918 ; brim
G1 X106.939 Y93.696 E.02899 ; brim
G1 X106.467 Y92.601 E.03741 ; brim
G1 X106.142 Y91.649 E.03155 ; brim
G1 X105.834 Y90.439 E.03913 ; brim
G1 X105.673 Y89.517 E.02935 ; brim
G1 X105.576 Y88.61 E.0286 ; brim
G1 X105.537 Y87.404 E.03784 ; brim
G1 X105.589 Y86.328 E.03378 ; brim
G1 X105.722 Y85.264 E.0336 ; brim
G1 X105.917 Y84.287 E.03124 ; brim
G1 X106.253 Y83.104 E.03858 ; brim
G1 X106.656 Y82.032 E.0359 ; brim
G1 X107.103 Y81.075 E.03313 ; brim
G1 X107.572 Y80.233 E.03023 ; brim
G1 X108.29 Y79.159 E.04048 ; brim
G1 X108.606 Y78.761 E.01594 ; brim
M204 P1000 ; adjust acceleration
G1 X108.901 Y78.996 F10800 ; move to first brim point
M204 P800 ; adjust acceleration
G1 F1200
G1 X109.237 Y78.572 E.01695 ; brim
G1 X110.011 Y77.742 E.03559 ; brim
G1 X110.749 Y77.064 E.03142 ; brim
G1 X111.663 Y76.349 E.03638 ; brim
G1 X112.436 Y75.832 E.02914 ; brim
G1 X113.242 Y75.37 E.02914 ; brim
G1 X114.271 Y74.878 E.03577 ; brim
G1 X115.162 Y74.532 E.02998 ; brim
G1 X116.309 Y74.188 E.03753 ; brim
G1 X117.293 Y73.976 E.03158 ; brim
G1 X118.388 Y73.827 E.03463 ; brim
G1 X119.395 Y73.767 E.03164 ; brim
G1 X130.507 Y73.766 E.34841 ; brim
G1 X131.395 Y73.808 E.02788 ; brim
G1 X132.484 Y73.938 E.03437 ; brim
G1 X133.423 Y74.122 E.03 ; brim
G1 X134.351 Y74.373 E.03013 ; brim
G1 X135.332 Y74.716 E.0326 ; brim
G1 X136.203 Y75.092 E.02975 ; brim
G1 X137.259 Y75.65 E.03746 ; brim
G1 X138.045 Y76.145 E.02913 ; brim
G1 X139.08 Y76.922 E.04056 ; brim
G1 X139.871 Y77.628 E.03325 ; brim
G1 X140.696 Y78.496 E.03754 ; brim
G1 X141.455 Y79.45 E.03822 ; brim
G1 X142.203 Y80.595 E.04289 ; brim
G1 X142.739 Y81.608 E.03593 ; brim
G1 X143.122 Y82.487 E.03008 ; brim
G1 X143.44 Y83.383 E.0298 ; brim
G1 X143.782 Y84.67 E.04177 ; brim
G1 X143.978 Y85.831 E.03691 ; brim
G1 X144.075 Y87.007 E.03699 ; brim
G1 X144.052 Y88.518 E.04739 ; brim
G1 X143.936 Y89.574 E.0333 ; brim
G1 X143.754 Y90.557 E.03136 ; brim
G1 X143.506 Y91.503 E.03066 ; brim
G1 X143.144 Y92.558 E.03496 ; brim
G1 X142.564 Y93.846 E.04428 ; brim
G1 X141.941 Y94.935 E.03934 ; brim
G1 X141.21 Y95.977 E.03991 ; brim
G1 X140.373 Y96.962 E.04053 ; brim
G1 X139.454 Y97.858 E.04024 ; brim
G1 X138.798 Y98.405 E.02679 ; brim
G1 X138.111 Y98.91 E.02674 ; brim
G1 X136.974 Y99.613 E.04189 ; brim
G1 X135.834 Y100.177 E.0399 ; brim
G1 X134.609 Y100.645 E.0411 ; brim
G1 X133.388 Y100.986 E.03978 ; brim
G1 X132.527 Y101.155 E.02748 ; brim
G1 X131.647 Y101.27 E.02783 ; brim
G1 X130.429 Y101.336 E.03825 ; brim
G1 X119.39 Y101.333 E.34613 ; brim
G1 X118.526 Y101.286 E.02711 ; brim
G1 X117.67 Y101.186 E.02703 ; brim
G1 X116.752 Y101.018 E.02925 ; brim
G1 X115.853 Y100.788 E.02909 ; brim
G1 X114.866 Y100.461 E.03262 ; brim
G1 X113.943 Y100.077 E.03134 ; brim
G1 X112.905 Y99.545 E.03658 ; brim
G1 X112.087 Y99.044 E.03009 ; brim
G1 X111.099 Y98.324 E.03833 ; brim
G1 X110.347 Y97.678 E.03107 ; brim
G1 X109.502 Y96.827 E.03762 ; brim
G1 X108.83 Y96.03 E.03267 ; brim
G1 X108.162 Y95.097 E.03598 ; brim
G1 X107.693 Y94.325 E.02833 ; brim
G1 X107.283 Y93.541 E.02775 ; brim
G1 X106.817 Y92.458 E.03695 ; brim
G1 X106.502 Y91.534 E.03062 ; brim
G1 X106.201 Y90.353 E.0382 ; brim
G1 X106.048 Y89.471 E.0281 ; brim
G1 X105.953 Y88.591 E.02775 ; brim
G1 X105.914 Y87.414 E.03691 ; brim
G1 X105.964 Y86.367 E.03287 ; brim
G1 X106.096 Y85.318 E.03316 ; brim
G1 X106.282 Y84.383 E.02989 ; brim
G1 X106.613 Y83.214 E.03809 ; brim
G1 X107 Y82.185 E.03448 ; brim
G1 X107.442 Y81.241 E.03269 ; brim
G1 X107.898 Y80.423 E.02936 ; brim
G1 X108.59 Y79.388 E.03904 ; brim
G1 X108.864 Y79.043 E.01382 ; brim
M204 P1000 ; adjust acceleration
G1 X109.159 Y79.277 F10800 ; move to first brim point
M204 P800 ; adjust acceleration
G1 F1200
G1 X109.519 Y78.824 E.01814 ; brim
G1 X110.272 Y78.015 E.03466 ; brim
G1 X110.988 Y77.356 E.0305 ; brim
G1 X111.879 Y76.658 E.03548 ; brim
G1 X112.629 Y76.156 E.02831 ; brim
G1 X113.423 Y75.7 E.02871 ; brim
G1 X114.427 Y75.221 E.03488 ; brim
G1 X115.278 Y74.891 E.02861 ; brim
G1 X116.41 Y74.551 E.03706 ; brim
G1 X117.351 Y74.348 E.0302 ; brim
G1 X118.432 Y74.201 E.03418 ; brim
G1 X119.412 Y74.144 E.03078 ; brim
G1 X130.494 Y74.143 E.34748 ; brim
G1 X131.358 Y74.183 E.02711 ; brim
G1 X132.419 Y74.31 E.0335 ; brim
G1 X133.331 Y74.488 E.02916 ; brim
G1 X134.233 Y74.731 E.02928 ; brim
G1 X135.202 Y75.069 E.03217 ; brim
G1 X136.034 Y75.428 E.02841 ; brim
G1 X137.076 Y75.98 E.03699 ; brim
G1 X137.838 Y76.46 E.02821 ; brim
G1 X138.835 Y77.209 E.03909 ; brim
G1 X139.603 Y77.894 E.03228 ; brim
G1 X140.406 Y78.738 E.03652 ; brim
G1 X141.144 Y79.663 E.03712 ; brim
G1 X141.882 Y80.794 E.04233 ; brim
G1 X142.396 Y81.765 E.03445 ; brim
G1 X142.769 Y82.62 E.02924 ; brim
G1 X143.082 Y83.502 E.02935 ; brim
G1 X143.411 Y84.742 E.04024 ; brim
G1 X143.603 Y85.87 E.03588 ; brim
G1 X143.699 Y87.029 E.03645 ; brim
G1 X143.676 Y88.486 E.04569 ; brim
G1 X143.562 Y89.526 E.0328 ; brim
G1 X143.387 Y90.469 E.03007 ; brim
G1 X143.147 Y91.388 E.02978 ; brim
G1 X142.79 Y92.427 E.03446 ; brim
G1 X142.232 Y93.667 E.04262 ; brim
G1 X141.627 Y94.726 E.03825 ; brim
G1 X140.917 Y95.74 E.03881 ; brim
G1 X140.103 Y96.698 E.03942 ; brim
G1 X139.207 Y97.573 E.03927 ; brim
G1 X138.57 Y98.105 E.02601 ; brim
G1 X137.893 Y98.602 E.02633 ; brim
G1 X136.799 Y99.279 E.04035 ; brim
G1 X135.69 Y99.828 E.0388 ; brim
G1 X134.499 Y100.284 E.03999 ; brim
G1 X133.307 Y100.618 E.03881 ; brim
G1 X132.472 Y100.782 E.02669 ; brim
G1 X131.619 Y100.894 E.02697 ; brim
G1 X130.424 Y100.959 E.03753 ; brim
G1 X119.395 Y100.956 E.34581 ; brim
G1 X118.553 Y100.91 E.02645 ; brim
G1 X117.72 Y100.812 E.02628 ; brim
G1 X116.839 Y100.651 E.02809 ; brim
G1 X115.966 Y100.428 E.02826 ; brim
G1 X114.991 Y100.105 E.03218 ; brim
G1 X114.095 Y99.732 E.03045 ; brim
G1 X113.083 Y99.213 E.03565 ; brim
G1 X112.29 Y98.726 E.02917 ; brim
G1 X111.327 Y98.024 E.03739 ; brim
G1 X110.609 Y97.407 E.02967 ; brim
G1 X109.785 Y96.578 E.03667 ; brim
G1 X109.133 Y95.804 E.03172 ; brim
G1 X108.473 Y94.883 E.03552 ; brim
G1 X108.018 Y94.134 E.02747 ; brim
G1 X107.626 Y93.385 E.02652 ; brim
G1 X107.166 Y92.316 E.0365 ; brim
G1 X106.861 Y91.42 E.02968 ; brim
G1 X106.569 Y90.268 E.03727 ; brim
G1 X106.422 Y89.424 E.02686 ; brim
G1 X106.329 Y88.571 E.02689 ; brim
G1 X106.291 Y87.424 E.03597 ; brim
G1 X106.339 Y86.407 E.03194 ; brim
G1 X106.469 Y85.371 E.03272 ; brim
G1 X106.646 Y84.479 E.02854 ; brim
G1 X106.974 Y83.325 E.03761 ; brim
G1 X107.345 Y82.338 E.03305 ; brim
G1 X107.781 Y81.407 E.03225 ; brim
G1 X108.224 Y80.613 E.02849 ; brim
G1 X108.89 Y79.616 E.03761 ; brim
G1 X109.122 Y79.324 E.01169 ; brim
M204 P1000 ; adjust acceleration
G1 X109.417 Y79.558 F10800 ; move to first brim point
