; generated by PrusaSlicer 2.5.0-beta1+win64 on 2022-08-22 at 21:31:37 UTC


;
;
; 

; external perimeters extrusion width = 0.45mm
; perimeters extrusion width = 0.45mm
; infill extrusion width = 0.45mm
; solid infill extrusion width = 0.45mm
; top infill extrusion width = 0.40mm
; first layer extrusion width = 0.42mm

M73 P0 R82
M73 Q0 S82
M201 X1000 Y1000 Z200 E8000 ; sets maximum accelerations, mm/sec^2
M203 X200 Y200 Z12 E120 ; sets maximum feedrates, mm / sec
M204 P1250 R1250 T1500 ; sets acceleration (P, T) and retract acceleration (R), mm/sec^2
M205 X8.00 Y8.00 Z0.40 E4.50 ; sets the jerk limits, mm/sec
M205 S0 T0 ; sets the minimum extruding and travel feed rate, mm/sec
M107 ; disable fan
;TYPE:Custom
M862.3 P "MK3SMMU2S" ; printer model check
M862.1 P0.4 ; nozzle diameter check
M115 U3.11.0 ; tell printer latest fw version
G90 ; use absolute coordinates
M83 ; extruder relative mode
M104 S240 ; set extruder temp
M140 S85 ; set bed temp
M190 S85 ; wait for bed temp
M109 S240 ; wait for extruder temp
G28 W ; home all without mesh bed level

G4 S30 ; wait 30s for probe to reach temp -peter villano

G80 ; mesh bed leveling

; Send the filament type to the MMU2.0 unit.
; E stands for extruder number, F stands for filament type (0: default; 1:flex; 2: PVA)
M403 E0 F0
M403 E1 F0
M403 E2 F0
M403 E3 F0
M403 E4 F0


;go outside print area
G1 Y-3 F1000
G1 Z0.4 F1000
; select extruder
T1
; initial load
M73 P0 R81
G1 X55 E29 F1073
G1 X5 E29 F1800
G1 X55 E8 F2000
G1 Z0.3 F1000
G92 E0
G1 X240 E25 F2200
G1 Y-2 F1000
G1 X55 E25 F1400
G1 Z0.2 F1000
M73 Q0 S81
G1 X5 E4 F1000
G92 E0


M221 S95
G92 E0

; Don't change E values below. Excessive value can damage the printer.

G21 ; set units to millimeters
G90 ; use absolute coordinates
M83 ; use relative distances for extrusion
T1 ; change extruder
M104 S240 ; set temperature
M900 K0.08 ; Filament gcode LA 1.5
M900 K45 ; Filament gcode LA 1.0
M107 ; disable fan
;LAYER_CHANGE
;Z:0.2
;HEIGHT:0.2
;BEFORE_LAYER_CHANGE
G92 E0.0
;0.2


G1 E-1 F2100 ; retract
G1 Z.2 F720 ; lift Z
;AFTER_LAYER_CHANGE
;0.2
G1 Z.4 ; lift Z
G1 X89.023 Y24.086 F10800 ; move to first skirt point
G1 Z.2 F720 ; restore layer Z
G1 E1 F2100 ;  ; unretract
M204 P800 ; adjust acceleration
;TYPE:Skirt/Brim
;WIDTH:0.42
G1 F1200
G1 X89.719 Y22.405 E.05704 ; skirt
G1 X92.707 Y19.418 E.13247 ; skirt
G1 X94.388 Y18.722 E.05704 ; skirt
G1 X155.612 Y18.722 E1.91967 ; skirt
G1 X157.293 Y19.418 E.05704 ; skirt
G1 X160.281 Y22.405 E.13247 ; skirt
G1 X160.977 Y24.086 E.05704 ; skirt
G1 X160.977 Y36.023 E.37426 ; skirt
G1 X160.281 Y37.704 E.05704 ; skirt
G1 X157.293 Y40.691 E.13247 ; skirt
G1 X155.612 Y41.387 E.05704 ; skirt
G1 X94.388 Y41.387 E1.91967 ; skirt
G1 X92.707 Y40.691 E.05704 ; skirt
G1 X89.719 Y37.704 E.13247 ; skirt
G1 X89.023 Y36.023 E.05704 ; skirt
G1 X89.023 Y24.146 E.37238 ; skirt
M204 P1000 ; adjust acceleration
;WIPE_START
G1 F8640
G1 X89.719 Y22.405 E-.43292 ; wipe and retract
G1 X91.303 Y20.822 E-.51708 ; wipe and retract
;WIPE_END
G1 E-.05 F2100 ; retract
G1 Z.4 F720 ; lift Z
G1 X91.8 Y25.134 F10800 ; move to first brim point
G1 Z.2 F720 ; restore layer Z
G1 E1 F2100 ;  ; unretract
M204 P800 ; adjust acceleration
G1 F1200
G1 X92.201 Y24.006 E.03755 ; brim
G1 X92.934 Y22.95 E.0403 ; brim
G1 X93.501 Y22.425 E.02423 ; brim
G1 X94.074 Y22.017 E.02206 ; brim
G1 X95.42 Y21.488 E.04534 ; brim
G1 X95.587 Y21.463 E.0053 ; brim
G1 X154.35 Y21.444 E1.84247 ; brim
G1 X155.153 Y21.664 E.0261 ; brim
M73 P1 R81
M73 Q1 S81
G1 X155.921 Y22.017 E.0265 ; brim
G1 X157.015 Y22.897 E.04403 ; brim
G1 X157.905 Y24.233 E.05035 ; brim
G1 X158.314 Y25.787 E.05039 ; brim
G1 X158.227 Y34.898 E.28569 ; brim
G1 X157.799 Y36.103 E.04009 ; brim
G1 X157.066 Y37.159 E.0403 ; brim
G1 X156.499 Y37.684 E.02423 ; brim
G1 X155.926 Y38.092 E.02206 ; brim
G1 X154.581 Y38.621 E.04533 ; brim
G1 X154.414 Y38.646 E.00529 ; brim
G1 X96.082 Y38.724 E1.82894 ; brim
G1 X94.596 Y38.343 E.04812 ; brim
G1 X93.259 Y37.485 E.0498 ; brim
G1 X92.726 Y36.91 E.0246 ; brim
G1 X92.318 Y36.336 E.02206 ; brim
G1 X91.79 Y34.992 E.04529 ; brim
G1 X91.764 Y34.825 E.00529 ; brim
G1 X91.78 Y25.191 E.30207 ; brim
M204 P1000 ; adjust acceleration
G1 X92.138 Y25.308 F10800 ; move to first brim point
M204 P800 ; adjust acceleration
G1 F1200
G1 X92.527 Y24.198 E.03688 ; brim
G1 X93.205 Y23.212 E.03754 ; brim
G1 X93.748 Y22.71 E.02317 ; brim
G1 X94.273 Y22.338 E.02017 ; brim
G1 X95.501 Y21.856 E.04137 ; brim
G1 X95.603 Y21.84 E.00325 ; brim
G1 X154.275 Y21.814 E1.83959 ; brim
G1 X155.038 Y22.023 E.02481 ; brim
G1 X155.741 Y22.349 E.02429 ; brim
G1 X156.755 Y23.171 E.04096 ; brim
G1 X157.549 Y24.361 E.04484 ; brim
G1 X157.937 Y25.81 E.04704 ; brim
G1 X157.861 Y34.804 E.282 ; brim
G1 X157.473 Y35.91 E.03677 ; brim
G1 X156.795 Y36.897 E.03754 ; brim
G1 X156.252 Y37.399 E.02317 ; brim
G1 X155.727 Y37.771 E.02017 ; brim
G1 X154.499 Y38.252 E.04136 ; brim
G1 X154.397 Y38.269 E.00325 ; brim
G1 X96.106 Y38.347 E1.82766 ; brim
G1 X94.72 Y37.986 E.04491 ; brim
M73 P1 R80
G1 X93.52 Y37.212 E.04479 ; brim
G1 X93.011 Y36.663 E.02347 ; brim
G1 X92.639 Y36.137 E.02017 ; brim
G1 X92.158 Y34.91 E.04133 ; brim
G1 X92.141 Y34.808 E.00324 ; brim
G1 X92.138 Y25.368 E.29598 ; brim
M204 P1000 ; adjust acceleration
G1 X92.504 Y25.403 F10800 ; move to first brim point
M204 P800 ; adjust acceleration
G1 F1200
G1 X92.874 Y24.347 E.03507 ; brim
G1 X93.477 Y23.475 E.03324 ; brim
G1 X93.994 Y22.995 E.02213 ; brim
G1 X94.471 Y22.66 E.01827 ; brim
G1 X95.623 Y22.217 E.03871 ; brim
G1 X154.201 Y22.185 E1.83665 ; brim
G1 X154.894 Y22.373 E.02253 ; brim
G1 X155.56 Y22.681 E.02302 ; brim
G1 X156.494 Y23.445 E.03781 ; brim
G1 X157.218 Y24.542 E.04122 ; brim
G1 X157.56 Y25.832 E.04186 ; brim
G1 X157.495 Y34.708 E.27831 ; brim
G1 X157.126 Y35.762 E.035 ; brim
G1 X156.523 Y36.634 E.03324 ; brim
G1 X156.006 Y37.114 E.02213 ; brim
G1 X155.529 Y37.449 E.01827 ; brim
G1 X154.377 Y37.892 E.0387 ; brim
G1 X96.13 Y37.97 E1.82631 ; brim
G1 X94.898 Y37.652 E.03989 ; brim
G1 X93.78 Y36.937 E.0416 ; brim
G1 X93.296 Y36.416 E.0223 ; brim
G1 X92.961 Y35.939 E.01827 ; brim
G1 X92.525 Y34.822 E.03762 ; brim
G1 X92.504 Y25.463 E.29344 ; brim
M204 P1000 ; adjust acceleration
G1 X92.871 Y25.495 F10800 ; move to first brim point
M204 P800 ; adjust acceleration
G1 F1200
G1 X93.2 Y24.538 E.03172 ; brim
G1 X93.749 Y23.737 E.03046 ; brim
G1 X94.241 Y23.281 E.02104 ; brim
G1 X94.668 Y22.982 E.01632 ; brim
G1 X95.676 Y22.594 E.03387 ; brim
G1 X154.126 Y22.555 E1.83267 ; brim
G1 X154.779 Y22.732 E.02123 ; brim
G1 X155.379 Y23.012 E.02073 ; brim
G1 X156.231 Y23.716 E.03466 ; brim
G1 X156.885 Y24.722 E.03761 ; brim
G1 X157.182 Y25.855 E.03674 ; brim
G1 X157.128 Y34.616 E.27469 ; brim
G1 X156.8 Y35.571 E.03167 ; brim
G1 X156.251 Y36.372 E.03046 ; brim
G1 X155.759 Y36.828 E.02104 ; brim
G1 X155.332 Y37.127 E.01632 ; brim
G1 X154.324 Y37.515 E.03387 ; brim
G1 X96.154 Y37.592 E1.82389 ; brim
G1 X95.023 Y37.295 E.03667 ; brim
G1 X94.04 Y36.664 E.03662 ; brim
G1 X93.582 Y36.169 E.02114 ; brim
G1 X93.284 Y35.743 E.01632 ; brim
G1 X92.895 Y34.735 E.03385 ; brim
G1 X92.871 Y25.555 E.28784 ; brim
M204 P1000 ; adjust acceleration
G1 X93.238 Y25.585 F10800 ; move to first brim point
M204 P800 ; adjust acceleration
G1 F1200
G1 X93.527 Y24.728 E.02837 ; brim
G1 X94.021 Y23.998 E.02762 ; brim
G1 X94.487 Y23.566 E.01993 ; brim
G1 X94.863 Y23.306 E.01434 ; brim
G1 X95.777 Y22.959 E.03065 ; brim
G1 X154.053 Y22.926 E1.8272 ; brim
G1 X154.635 Y23.081 E.01889 ; brim
G1 X155.196 Y23.343 E.01941 ; brim
G1 X155.967 Y23.987 E.03149 ; brim
G1 X156.529 Y24.849 E.03224 ; brim
G1 X156.805 Y25.879 E.03344 ; brim
G1 X156.761 Y34.525 E.27109 ; brim
G1 X156.473 Y35.381 E.02834 ; brim
G1 X155.979 Y36.11 E.02762 ; brim
G1 X155.513 Y36.542 E.01993 ; brim
G1 X155.137 Y36.803 E.01434 ; brim
G1 X154.223 Y37.15 E.03065 ; brim
G1 X96.177 Y37.215 E1.81998 ; brim
G1 X95.199 Y36.961 E.03169 ; brim
G1 X94.3 Y36.389 E.03341 ; brim
G1 X93.868 Y35.923 E.01994 ; brim
G1 X93.607 Y35.547 E.01434 ; brim
G1 X93.26 Y34.634 E.03064 ; brim
G1 X93.239 Y25.645 E.28182 ; brim
M204 P1000 ; adjust acceleration
G1 X93.606 Y25.674 F10800 ; move to first brim point
M204 P800 ; adjust acceleration
G1 F1200
G1 X93.855 Y24.915 E.02504 ; brim
G1 X94.294 Y24.26 E.02473 ; brim
G1 X94.733 Y23.853 E.01878 ; brim
G1 X95.057 Y23.63 E.01232 ; brim
G1 X95.877 Y23.324 E.02744 ; brim
G1 X153.98 Y23.296 E1.82178 ; brim
G1 X154.521 Y23.441 E.01757 ; brim
G1 X155.012 Y23.673 E.01702 ; brim
G1 X155.701 Y24.256 E.0283 ; brim
G1 X156.195 Y25.027 E.0287 ; brim
G1 X156.428 Y25.902 E.02841 ; brim
G1 X156.394 Y34.436 E.26757 ; brim
G1 X156.145 Y35.194 E.02502 ; brim
G1 X155.706 Y35.849 E.02473 ; brim
G1 X155.267 Y36.256 E.01878 ; brim
G1 X154.943 Y36.479 E.01232 ; brim
G1 X154.123 Y36.785 E.02744 ; brim
G1 X96.202 Y36.838 E1.81607 ; brim
G1 X95.325 Y36.604 E.02846 ; brim
M73 Q1 S80
G1 X94.56 Y36.116 E.02846 ; brim
G1 X94.154 Y35.677 E.01876 ; brim
G1 X93.931 Y35.353 E.01232 ; brim
G1 X93.625 Y34.534 E.02743 ; brim
G1 X93.606 Y25.734 E.27592 ; brim
M204 P1000 ; adjust acceleration
G1 X93.974 Y25.76 F10800 ; move to first brim point
M204 P800 ; adjust acceleration
G1 F1200
G1 X94.185 Y25.1 E.02171 ; brim
G1 X94.567 Y24.52 E.02177 ; brim
G1 X94.979 Y24.139 E.0176 ; brim
G1 X95.249 Y23.955 E.01025 ; brim
G1 X95.975 Y23.689 E.02423 ; brim
G1 X153.909 Y23.667 E1.81647 ; brim
G1 X154.377 Y23.79 E.01517 ; brim
G1 X154.828 Y24.003 E.01564 ; brim
G1 X155.434 Y24.523 E.02507 ; brim
G1 X155.839 Y25.154 E.02351 ; brim
G1 X156.051 Y25.927 E.02512 ; brim
G1 X156.026 Y34.35 E.26408 ; brim
G1 X155.815 Y35.009 E.02171 ; brim
G1 X155.433 Y35.588 E.02177 ; brim
G1 X155.021 Y35.97 E.0176 ; brim
G1 X154.751 Y36.154 E.01025 ; brim
G1 X154.025 Y36.42 E.02423 ; brim
G1 X96.228 Y36.461 E1.81218 ; brim
G1 X95.454 Y36.249 E.02518 ; brim
M73 P2 R80
M73 Q2 S80
G1 X94.821 Y35.842 E.02358 ; brim
G1 X94.44 Y35.431 E.01756 ; brim
G1 X94.256 Y35.161 E.01025 ; brim
G1 X93.99 Y34.436 E.02422 ; brim
G1 X93.974 Y25.82 E.27015 ; brim
M204 P1000 ; adjust acceleration
G1 X94.343 Y25.843 F10800 ; move to first brim point
M204 P800 ; adjust acceleration
G1 F1200
G1 X94.516 Y25.282 E.01841 ; brim
G1 X94.841 Y24.781 E.01873 ; brim
G1 X95.224 Y24.426 E.01636 ; brim
G1 X95.439 Y24.282 E.00812 ; brim
G1 X96.071 Y24.055 E.02104 ; brim
G1 X153.839 Y24.039 E1.81129 ; brim
G1 X154.233 Y24.138 E.01272 ; brim
G1 X154.642 Y24.332 E.0142 ; brim
G1 X155.166 Y24.789 E.0218 ; brim
G1 X155.485 Y25.285 E.01847 ; brim
G1 X155.674 Y25.954 E.02179 ; brim
G1 X155.657 Y34.266 E.26063 ; brim
G1 X155.484 Y34.827 E.01841 ; brim
G1 X155.159 Y35.328 E.01873 ; brim
G1 X154.776 Y35.683 E.01636 ; brim
G1 X154.561 Y35.827 E.00812 ; brim
G1 X153.929 Y36.054 E.02104 ; brim
G1 X96.255 Y36.084 E1.80834 ; brim
G1 X95.585 Y35.894 E.02185 ; brim
G1 X95.082 Y35.569 E.01878 ; brim
G1 X94.727 Y35.186 E.01636 ; brim
G1 X94.583 Y34.971 E.00812 ; brim
G1 X94.356 Y34.339 E.02104 ; brim
G1 X94.343 Y25.903 E.26453 ; brim
M204 P1000 ; adjust acceleration
G1 X94.712 Y25.927 F10800 ; move to first brim point
M204 P800 ; adjust acceleration
G1 F1200
G1 X94.869 Y25.418 E.01668 ; brim
G1 X95.114 Y25.042 E.01411 ; brim
G1 X95.468 Y24.714 E.01513 ; brim
G1 X95.626 Y24.61 E.00592 ; brim
G1 X96.165 Y24.421 E.01789 ; brim
G1 X153.772 Y24.41 E1.80626 ; brim
G1 X154.089 Y24.488 E.01023 ; brim
G1 X154.456 Y24.661 E.0127 ; brim
G1 X154.896 Y25.053 E.01848 ; brim
G1 X155.131 Y25.418 E.01362 ; brim
G1 X155.297 Y25.981 E.01841 ; brim
G1 X155.288 Y34.182 E.25712 ; brim
G1 X155.131 Y34.69 E.01669 ; brim
G1 X154.886 Y35.067 E.01411 ; brim
G1 X154.532 Y35.395 E.01513 ; brim
G1 X154.374 Y35.499 E.00592 ; brim
G1 X153.835 Y35.687 E.01789 ; brim
G1 X96.283 Y35.707 E1.80452 ; brim
G1 X95.719 Y35.541 E.01844 ; brim
G1 X95.343 Y35.296 E.01407 ; brim
G1 X95.015 Y34.942 E.01513 ; brim
G1 X94.911 Y34.784 E.00592 ; brim
G1 X94.723 Y34.246 E.01789 ; brim
G1 X94.712 Y25.987 E.25895 ; brim
M204 P1000 ; adjust acceleration
G1 X95.08 Y26.011 F10800 ; move to first brim point
M204 P800 ; adjust acceleration
G1 F1200
G1 X95.221 Y25.556 E.01494 ; brim
G1 X95.387 Y25.303 E.00948 ; brim
G1 X95.712 Y25.002 E.01387 ; brim
G1 X95.808 Y24.94 E.0036 ; brim
G1 X96.256 Y24.788 E.01481 ; brim
G1 X153.709 Y24.783 E1.80142 ; brim
G1 X153.947 Y24.838 E.00767 ; brim
G1 X154.268 Y24.989 E.01111 ; brim
G1 X154.623 Y25.314 E.01508 ; brim
G1 X154.779 Y25.556 E.00902 ; brim
G1 X154.92 Y26.011 E.01495 ; brim
G1 X154.92 Y34.098 E.25355 ; brim
G1 X154.779 Y34.553 E.01495 ; brim
G1 X154.613 Y34.806 E.00948 ; brim
G1 X154.288 Y35.106 E.01387 ; brim
G1 X154.192 Y35.168 E.0036 ; brim
G1 X153.744 Y35.32 E.01481 ; brim
G1 X96.312 Y35.33 E1.80074 ; brim
G1 X95.857 Y35.189 E.01495 ; brim
M73 P2 R79
G1 X95.604 Y35.023 E.00948 ; brim
G1 X95.304 Y34.699 E.01387 ; brim
G1 X95.242 Y34.602 E.0036 ; brim
G1 X95.09 Y34.154 E.01481 ; brim
G1 X95.08 Y26.071 E.25345 ; brim
M204 P1000 ; adjust acceleration
G1 X95.457 Y26.071 F10800 ; move to first brim point
M204 P800 ; adjust acceleration
G1 F1200
G1 X95.57 Y25.699 E.01218 ; brim
G1 X95.66 Y25.565 E.00506 ; brim
G1 X95.983 Y25.275 E.01361 ; brim
G1 X96.344 Y25.156 E.01193 ; brim
G1 X153.687 Y25.16 E1.79795 ; brim
G1 X153.804 Y25.187 E.00377 ; brim
G1 X154.078 Y25.317 E.0095 ; brim
G1 X154.347 Y25.571 E.0116 ; brim
G1 X154.43 Y25.699 E.00476 ; brim
G1 X154.543 Y26.043 E.01136 ; brim
G1 X154.543 Y34.066 E.25156 ; brim
G1 X154.43 Y34.41 E.01134 ; brim
G1 X154.34 Y34.544 E.00506 ; brim
G1 X154.017 Y34.834 E.01361 ; brim
G1 X153.656 Y34.953 E.01193 ; brim
G1 X96.344 Y34.953 E1.79697 ; brim
G1 X96.001 Y34.84 E.01134 ; brim
G1 X95.866 Y34.751 E.00506 ; brim
G1 X95.576 Y34.427 E.01361 ; brim
G1 X95.457 Y34.066 E.01193 ; brim
G1 X95.457 Y26.131 E.2488 ; brim
M204 P1000 ; adjust acceleration
G1 X95.834 Y26.131 F10800 ; move to first brim point
M204 P800 ; adjust acceleration
G1 F1200
G1 X95.834 Y26.078 E.00167 ; brim
G1 X95.932 Y25.827 E.00845 ; brim
G1 X96.166 Y25.609 E.01002 ; brim
G1 X96.379 Y25.533 E.00709 ; brim
G1 X153.635 Y25.533 E1.79522 ; brim
G1 X153.885 Y25.643 E.00856 ; brim
G1 X154.066 Y25.824 E.00802 ; brim
G1 X154.166 Y26.078 E.00856 ; brim
G1 X154.166 Y34.031 E.24936 ; brim
G1 X154.068 Y34.282 E.00845 ; brim
G1 X153.834 Y34.5 E.01002 ; brim
G1 X153.621 Y34.576 E.00709 ; brim
G1 X96.379 Y34.576 E1.79477 ; brim
G1 X96.128 Y34.478 E.00845 ; brim
G1 X95.911 Y34.244 E.01002 ; brim
G1 X95.834 Y34.031 E.00709 ; brim
G1 X95.834 Y26.191 E.24582 ; brim
M204 P1000 ; adjust acceleration
G1 X96.211 Y26.191 F10800 ; move to first brim point
M204 P800 ; adjust acceleration
G1 F1200
G1 X96.211 Y26.12 E.00223 ; brim
G1 X96.24 Y26.05 E.00235 ; brim
G1 X96.352 Y25.939 E.00495 ; brim
G1 X96.421 Y25.91 E.00235 ; brim
G1 X153.579 Y25.91 E1.79214 ; brim
G1 X153.648 Y25.939 E.00235 ; brim
G1 X153.76 Y26.05 E.00495 ; brim
G1 X153.789 Y26.12 E.00235 ; brim
G1 X153.789 Y33.989 E.24674 ; brim
G1 X153.76 Y34.058 E.00235 ; brim
G1 X153.648 Y34.17 E.00495 ; brim
G1 X153.579 Y34.199 E.00235 ; brim
G1 X96.421 Y34.199 E1.79214 ; brim
G1 X96.352 Y34.17 E.00235 ; brim
G1 X96.24 Y34.058 E.00495 ; brim
G1 X96.211 Y33.989 E.00235 ; brim
G1 X96.211 Y26.251 E.24262 ; brim
M204 P1000 ; adjust acceleration
; printing object canopy fix id:0 copy 0
;WIPE_START
G1 F8640
G1 X96.211 Y26.12 E-.0303 ; wipe and retract
G1 X96.24 Y26.05 E-.01732 ; wipe and retract
G1 X96.352 Y25.939 E-.03645 ; wipe and retract
G1 X96.421 Y25.91 E-.01732 ; wipe and retract
G1 X100.096 Y25.91 E-.84862 ; wipe and retract
;WIPE_END
G1 E-.05 F2100 ; retract
G1 Z.4 F720 ; lift Z
G1 X98.218 Y27.917 F10800 ; move to first perimeter point
G1 Z.2 F720 ; restore layer Z
G1 E1 F2100 ;  ; unretract
M204 P800 ; adjust acceleration
;TYPE:Perimeter
;WIDTH:0.419999
G1 F1200
G1 X151.782 Y27.917 E1.67944 ; perimeter
G1 X151.782 Y32.192 E.13403 ; perimeter
G1 X98.218 Y32.192 E1.67944 ; perimeter
G1 X98.218 Y27.977 E.13215 ; perimeter
M204 P1000 ; adjust acceleration
M73 P3 R79
M73 Q3 S80
G1 X97.841 Y27.54 F10800 ; move to first perimeter point
M204 P800 ; adjust acceleration
G1 F1200
