; generated by PrusaSlicer 2.5.0-beta1+win64 on 2022-08-22 at 23:58:33 UTC


;
;
; 

; external perimeters extrusion width = 0.45mm
; perimeters extrusion width = 0.45mm
; infill extrusion width = 0.45mm
; solid infill extrusion width = 0.45mm
; top infill extrusion width = 0.40mm
; support material extrusion width = 0.35mm
; first layer extrusion width = 0.42mm

; external perimeters extrusion width = 0.45mm
; perimeters extrusion width = 0.45mm
; infill extrusion width = 0.45mm
; solid infill extrusion width = 0.45mm
; top infill extrusion width = 0.40mm
; support material extrusion width = 0.35mm
; first layer extrusion width = 0.42mm

M73 P0 R102
M73 Q0 S103
M201 X1000 Y1000 Z200 E8000 ; sets maximum accelerations, mm/sec^2
M203 X200 Y200 Z12 E120 ; sets maximum feedrates, mm / sec
M204 P1250 R1250 T1500 ; sets acceleration (P, T) and retract acceleration (R), mm/sec^2
M205 X8.00 Y8.00 Z0.40 E4.50 ; sets the jerk limits, mm/sec
M205 S0 T0 ; sets the minimum extruding and travel feed rate, mm/sec
M107 ; disable fan
;TYPE:Custom
M862.3 P "MK3SMMU2S" ; printer model check
M862.1 P0.4 ; nozzle diameter check
M115 U3.11.0 ; tell printer latest fw version
G90 ; use absolute coordinates
M83 ; extruder relative mode
M104 S240 ; set extruder temp
M140 S85 ; set bed temp
M190 S85 ; wait for bed temp
M109 S240 ; wait for extruder temp
G28 W ; home all without mesh bed level

G4 S30 ; wait 30s for probe to reach temp -peter villano

G80 ; mesh bed leveling

; Send the filament type to the MMU2.0 unit.
; E stands for extruder number, F stands for filament type (0: default; 1:flex; 2: PVA)
M403 E0 F0
M403 E1 F0
M403 E2 F0
M403 E3 F0
M403 E4 F0


;go outside print area
G1 Y-3 F1000
G1 Z0.4 F1000
; select extruder
T1
; initial load
M73 Q0 S102
G1 X55 E29 F1073
G1 X5 E29 F1800
G1 X55 E8 F2000
G1 Z0.3 F1000
G92 E0
G1 X240 E25 F2200
G1 Y-2 F1000
G1 X55 E25 F1400
G1 Z0.2 F1000
G1 X5 E4 F1000
G92 E0


M221 S95
G92 E0

; Don't change E values below. Excessive value can damage the printer.

G21 ; set units to millimeters
G90 ; use absolute coordinates
M83 ; use relative distances for extrusion
T1 ; change extruder
M104 S240 ; set temperature
M900 K0.08 ; Filament gcode LA 1.5
M900 K45 ; Filament gcode LA 1.0
M107 ; disable fan
;LAYER_CHANGE
;Z:0.2
;HEIGHT:0.2
;BEFORE_LAYER_CHANGE
G92 E0.0
;0.2


G1 E-1 F2100 ; retract
G1 Z.2 F720 ; lift Z
;AFTER_LAYER_CHANGE
;0.2
G1 Z.4 ; lift Z
G1 X98.481 Y74.993 F10800 ; move to first skirt point
G1 Z.2 F720 ; restore layer Z
G1 E1 F2100 ;  ; unretract
M204 P800 ; adjust acceleration
;TYPE:Skirt/Brim
;WIDTH:0.42
G1 F1200
G1 X99.527 Y74.117 E.04278 ; skirt
G1 X100.467 Y73.923 E.03008 ; skirt
G1 X119.373 Y73.923 E.5928 ; skirt
G1 X120.381 Y74.147 E.03236 ; skirt
G1 X148.906 Y87.497 E.98749 ; skirt
G1 X149.579 Y87.969 E.02578 ; skirt
G1 X155.173 Y93.563 E.24806 ; skirt
G1 X155.87 Y95.244 E.05704 ; skirt
G1 X155.87 Y114.756 E.61177 ; skirt
G1 X155.173 Y116.437 E.05704 ; skirt
G1 X149.579 Y122.031 E.24806 ; skirt
G1 X148.906 Y122.503 E.02578 ; skirt
G1 X120.381 Y135.853 E.98749 ; skirt
G1 X119.373 Y136.077 E.03236 ; skirt
G1 X100.467 Y136.077 E.5928 ; skirt
G1 X99.16 Y135.685 E.04278 ; skirt
G1 X98.283 Y134.64 E.04278 ; skirt
G1 X98.09 Y133.7 E.03008 ; skirt
G1 X98.09 Y76.3 E1.79974 ; skirt
G1 X98.464 Y75.05 E.0409 ; skirt
M204 P1000 ; adjust acceleration
; printing object OpenSCAD Model id:0 copy 0
;WIPE_START
G1 F8640
G1 X99.527 Y74.117 E-.32671 ; wipe and retract
G1 X100.467 Y73.923 E-.22155 ; wipe and retract
G1 X102.207 Y73.923 E-.40174 ; wipe and retract
;WIPE_END
G1 E-.05 F2100 ; retract
G1 Z.4 F720 ; lift Z
G1 X135.171 Y95.567 F10800 ; move to first perimeter point
G1 Z.2 F720 ; restore layer Z
G1 E1 F2100 ;  ; unretract
M204 P800 ; adjust acceleration
;TYPE:Perimeter
;WIDTH:0.403714
G1 F1200
G1 X135.414 Y95.304 E.01072 ; perimeter
;WIDTH:0.375631
G1 X140.047 Y90.672 E.18126 ; perimeter
;WIDTH:0.403714
G1 X140.309 Y90.429 E.01072 ; perimeter
G1 X140.666 Y90.415 E.01072 ; perimeter
;WIDTH:0.375638
G1 X147.219 Y90.415 E.18127 ; perimeter
;WIDTH:0.403718
G1 X147.576 Y90.429 E.01072 ; perimeter
G1 X147.838 Y90.672 E.01072 ; perimeter
;WIDTH:0.375631
G1 X152.471 Y95.304 E.18126 ; perimeter
;WIDTH:0.40371
G1 X152.714 Y95.567 E.01072 ; perimeter
G1 X152.714 Y95.642 E.00224 ; perimeter
G1 X152.728 Y95.924 E.00848 ; perimeter
;WIDTH:0.375631
G1 X152.728 Y114.076 E.50218 ; perimeter
;WIDTH:0.403711
G1 X152.714 Y114.433 E.01072 ; perimeter
M73 P0 R101
G1 X152.471 Y114.696 E.01072 ; perimeter
;WIDTH:0.37563
G1 X147.838 Y119.328 E.18126 ; perimeter
;WIDTH:0.403713
G1 X147.576 Y119.571 E.01072 ; perimeter
G1 X147.218 Y119.585 E.01072 ; perimeter
;WIDTH:0.375631
G1 X140.666 Y119.585 E.18126 ; perimeter
;WIDTH:0.403714
G1 X140.309 Y119.571 E.01072 ; perimeter
G1 X140.047 Y119.328 E.01072 ; perimeter
;WIDTH:0.375631
G1 X135.414 Y114.696 E.18126 ; perimeter
;WIDTH:0.403714
G1 X135.171 Y114.433 E.01072 ; perimeter
G1 X135.157 Y114.076 E.01072 ; perimeter
;WIDTH:0.375631
G1 X135.157 Y95.924 E.50218 ; perimeter
;WIDTH:0.403714
G1 X135.169 Y95.627 E.00892 ; perimeter
M204 P1000 ; adjust acceleration
G1 X134.802 Y95.414 F10800 ; move to first perimeter point
M204 P800 ; adjust acceleration
;TYPE:External perimeter
;WIDTH:0.419999
G1 F1200
G1 X140.157 Y90.06 E.23741 ; perimeter
G1 X147.728 Y90.06 E.23741 ; perimeter
G1 X153.082 Y95.414 E.23741 ; perimeter
G1 X153.082 Y114.586 E.60112 ; perimeter
G1 X147.728 Y119.94 E.23741 ; perimeter
G1 X140.157 Y119.94 E.23741 ; perimeter
G1 X134.802 Y114.586 E.23741 ; perimeter
G1 X134.802 Y95.474 E.59924 ; perimeter
M204 P1000 ; adjust acceleration
G1 X135.201 Y95.385 F10800 ; move inwards before travel
G1 X135.617 Y95.582 ; move to first perimeter point
M204 P800 ; adjust acceleration
;TYPE:Perimeter
;WIDTH:0.403714
G1 F1200
G1 X135.649 Y95.54 E.00161 ; perimeter
;WIDTH:0.375631
G1 X140.282 Y90.907 E.18126 ; perimeter
;WIDTH:0.403714
G1 X140.453 Y90.776 E.00646 ; perimeter
G1 X140.666 Y90.748 E.00646 ; perimeter
;WIDTH:0.375638
G1 X147.219 Y90.748 E.18127 ; perimeter
;WIDTH:0.403718
G1 X147.432 Y90.776 E.00646 ; perimeter
G1 X147.603 Y90.907 E.00646 ; perimeter
;WIDTH:0.375631
G1 X152.236 Y95.54 E.18126 ; perimeter
;WIDTH:0.40371
G1 X152.367 Y95.711 E.00646 ; perimeter
G1 X152.395 Y95.924 E.00646 ; perimeter
;WIDTH:0.375631
G1 X152.395 Y114.076 E.50218 ; perimeter
;WIDTH:0.403711
G1 X152.367 Y114.289 E.00646 ; perimeter
G1 X152.299 Y114.39 E.00364 ; perimeter
;WIDTH:0.381003
G1 X152.236 Y114.46 E.00266 ; perimeter
;WIDTH:0.37563
G1 X147.603 Y119.093 E.18126 ; perimeter
;WIDTH:0.403713
G1 X147.432 Y119.224 E.00646 ; perimeter
G1 X147.218 Y119.252 E.00646 ; perimeter
;WIDTH:0.375631
G1 X140.666 Y119.252 E.18126 ; perimeter
;WIDTH:0.403714
G1 X140.453 Y119.224 E.00646 ; perimeter
G1 X140.282 Y119.093 E.00646 ; perimeter
;WIDTH:0.375631
G1 X135.649 Y114.46 E.18126 ; perimeter
;WIDTH:0.403714
G1 X135.518 Y114.289 E.00646 ; perimeter
G1 X135.49 Y114.076 E.00646 ; perimeter
;WIDTH:0.375631
G1 X135.49 Y95.924 E.50218 ; perimeter
;WIDTH:0.403714
G1 X135.518 Y95.711 E.00646 ; perimeter
M73 P1 R101
M73 Q1 S102
G1 X135.58 Y95.63 E.00305 ; perimeter
M204 P1000 ; adjust acceleration
G1 X135.9 Y95.791 F10800 ; move to first perimeter point
M204 P800 ; adjust acceleration
;TYPE:External perimeter
;WIDTH:0.419999
G1 F1200
G1 X140.533 Y91.158 E.20543 ; perimeter
G1 X140.666 Y91.103 E.00452 ; perimeter
G1 X147.219 Y91.103 E.20543 ; perimeter
G1 X147.352 Y91.158 E.00452 ; perimeter
G1 X151.985 Y95.791 E.20543 ; perimeter
G1 X152.04 Y95.924 E.00452 ; perimeter
G1 X152.04 Y114.076 E.56914 ; perimeter
G1 X151.985 Y114.209 E.00452 ; perimeter
G1 X147.352 Y118.842 E.20543 ; perimeter
G1 X147.218 Y118.897 E.00452 ; perimeter
G1 X140.666 Y118.897 E.20543 ; perimeter
G1 X140.533 Y118.842 E.00452 ; perimeter
G1 X135.9 Y114.209 E.20543 ; perimeter
G1 X135.845 Y114.076 E.00452 ; perimeter
G1 X135.845 Y95.924 E.56914 ; perimeter
G1 X135.877 Y95.846 E.00264 ; perimeter
M204 P1000 ; adjust acceleration
G1 X135.701 Y95.444 F10800 ; move inwards before travel
; stop printing object OpenSCAD Model id:0 copy 0
; printing object OpenSCAD Model id:1 copy 0
;WIPE_START
G1 F8640
G1 X138.776 Y92.927 E-.95 ; wipe and retract
;WIPE_END
G1 E-.05 F2100 ; retract
G1 Z.4 F720 ; lift Z
G1 X138.927 Y93.077 F10800 ; move to first support material point
G1 X111.538 Y91.116 ; move to first support material point
G1 X111.36 Y90.938 ; move to first support material point
G1 X110.887 Y91.41 ; move to first support material point
G1 Z.2 F720 ; restore layer Z
G1 E1 F2100 ;  ; unretract
M204 P800 ; adjust acceleration
;TYPE:Support material
;WIDTH:0.42
G1 F1200
G1 X111.94 Y92.463 E.04669 ; support material
G1 X111.94 Y94.137 E.05247 ; support material
G1 X110.757 Y95.32 E.05247 ; support material
G1 X109.083 Y95.32 E.05247 ; support material
G1 X107.9 Y94.137 E.05247 ; support material
G1 X107.9 Y92.463 E.05247 ; support material
G1 X109.083 Y91.28 E.05247 ; support material
G1 X110.757 Y91.28 E.05247 ; support material
G1 X110.847 Y91.37 E.00401 ; support material
M204 P1000 ; adjust acceleration
G1 X111.596 Y94.241 F10800 ; move to first support material point
M204 P800 ; adjust acceleration
G1 F1200
G1 X111.596 Y92.599 E.05147 ; support material
G1 X111.177 Y92.18 E.01858 ; support material
G1 X111.177 Y94.42 E.07022 ; support material
G1 X110.758 Y94.839 E.01858 ; support material
G1 X110.758 Y91.761 E.0965 ; support material
G1 X110.616 Y91.619 E.00629 ; support material
G1 X110.339 Y91.619 E.00869 ; support material
G1 X110.339 Y94.981 E.10539 ; support material
G1 X109.92 Y94.981 E.01314 ; support material
G1 X109.92 Y91.619 E.10539 ; support material
G1 X109.501 Y91.619 E.01314 ; support material
G1 X109.501 Y94.981 E.10539 ; support material
G1 X109.224 Y94.981 E.00869 ; support material
G1 X109.082 Y94.839 E.00629 ; support material
G1 X109.082 Y91.761 E.0965 ; support material
G1 X108.663 Y92.18 E.01858 ; support material
G1 X108.663 Y94.42 E.07022 ; support material
G1 X108.244 Y94.001 E.01858 ; support material
G1 X108.244 Y92.359 E.05147 ; support material
M204 P1000 ; adjust acceleration
;WIPE_START
G1 F8640
G1 X108.244 Y94.001 E-.37907 ; wipe and retract
G1 X108.663 Y94.42 E-.13682 ; wipe and retract
G1 X108.663 Y92.54 E-.43411 ; wipe and retract
;WIPE_END
G1 E-.05 F2100 ; retract
G1 Z.4 F720 ; lift Z
G1 X107.988 Y90.896 F10800 ; move to first perimeter point
G1 X102.785 Y78.218 ; move to first perimeter point
G1 Z.2 F720 ; restore layer Z
G1 E1 F2100 ;  ; unretract
M204 P800 ; adjust acceleration
;TYPE:Perimeter
;WIDTH:0.419999
G1 F1200
G1 X117.055 Y78.218 E.44742 ; perimeter
G1 X117.055 Y131.782 E1.67944 ; perimeter
G1 X102.785 Y131.782 E.44742 ; perimeter
M73 Q1 S101
G1 X102.785 Y78.278 E1.67756 ; perimeter
M204 P1000 ; adjust acceleration
G1 X102.408 Y77.841 F10800 ; move to first perimeter point
M204 P800 ; adjust acceleration
G1 F1200
G1 X117.432 Y77.841 E.47106 ; perimeter
G1 X117.432 Y132.159 E1.70309 ; perimeter
G1 X102.408 Y132.159 E.47106 ; perimeter
G1 X102.408 Y77.901 E1.7012 ; perimeter
M204 P1000 ; adjust acceleration
G1 X102.031 Y77.464 F10800 ; move to first perimeter point
M204 P800 ; adjust acceleration
G1 F1200
G1 X117.809 Y77.464 E.49471 ; perimeter
G1 X117.809 Y132.536 E1.72673 ; perimeter
G1 X102.031 Y132.536 E.49471 ; perimeter
G1 X102.031 Y77.524 E1.72485 ; perimeter
M204 P1000 ; adjust acceleration
G1 X101.654 Y77.087 F10800 ; move to first perimeter point
M204 P800 ; adjust acceleration
G1 F1200
G1 X118.186 Y77.087 E.51836 ; perimeter
G1 X118.186 Y132.913 E1.75038 ; perimeter
G1 X101.654 Y132.913 E.51836 ; perimeter
G1 X101.654 Y77.147 E1.7485 ; perimeter
M204 P1000 ; adjust acceleration
G1 X101.277 Y76.71 F10800 ; move to first perimeter point
M204 P800 ; adjust acceleration
;TYPE:External perimeter
G1 F1200
G1 X118.563 Y76.71 E.542 ; perimeter
G1 X118.563 Y133.29 E1.77402 ; perimeter
G1 X101.277 Y133.29 E.542 ; perimeter
G1 X101.277 Y76.77 E1.77214 ; perimeter
M204 P1000 ; adjust acceleration
G1 X101.641 Y76.875 F10800 ; move inwards before travel
G1 E-1 F2100 ; retract
G1 Z.4 F720 ; lift Z
G1 X107.798 Y89.23 F10800 ; move to first perimeter point
G1 Z.2 F720 ; restore layer Z
G1 E1 F2100 ;  ; unretract
M204 P800 ; adjust acceleration
;TYPE:Perimeter
G1 F1200
G1 X108.022 Y89.067 E.00869 ; perimeter
G1 X108.442 Y88.918 E.01398 ; perimeter
G1 X108.793 Y88.882 E.01104 ; perimeter
G1 X111.047 Y88.882 E.07069 ; perimeter
G1 X111.398 Y88.918 E.01104 ; perimeter
G1 X111.818 Y89.067 E.01398 ; perimeter
G1 X112.247 Y89.379 E.01663 ; perimeter
G1 X113.841 Y90.973 E.07069 ; perimeter
G1 X114.098 Y91.302 E.01308 ; perimeter
G1 X114.275 Y91.713 E.01403 ; perimeter
G1 X114.338 Y92.173 E.01455 ; perimeter
G1 X114.338 Y94.427 E.07069 ; perimeter
G1 X114.275 Y94.887 E.01455 ; perimeter
G1 X114.098 Y95.298 E.01403 ; perimeter
G1 X113.841 Y95.627 E.01308 ; perimeter
G1 X112.247 Y97.221 E.07069 ; perimeter
G1 X111.825 Y97.53 E.01639 ; perimeter
G1 X111.41 Y97.679 E.01382 ; perimeter
G1 X111.047 Y97.718 E.01145 ; perimeter
G1 X108.793 Y97.718 E.07069 ; perimeter
G1 X108.43 Y97.679 E.01145 ; perimeter
G1 X108.015 Y97.53 E.01382 ; perimeter
G1 X107.593 Y97.221 E.01639 ; perimeter
G1 X105.999 Y95.627 E.07069 ; perimeter
G1 X105.742 Y95.298 E.01308 ; perimeter
G1 X105.527 Y94.72 E.01932 ; perimeter
G1 X105.502 Y94.427 E.00923 ; perimeter
G1 X105.502 Y92.173 E.07069 ; perimeter
G1 X105.565 Y91.713 E.01455 ; perimeter
G1 X105.742 Y91.302 E.01403 ; perimeter
G1 X105.999 Y90.973 E.01308 ; perimeter
G1 X107.593 Y89.379 E.07069 ; perimeter
G1 X107.749 Y89.265 E.00606 ; perimeter
M204 P1000 ; adjust acceleration
G1 X108.013 Y89.534 F10800 ; move to first perimeter point
M204 P800 ; adjust acceleration
G1 F1200
G1 X108.193 Y89.403 E.00698 ; perimeter
G1 X108.52 Y89.287 E.01088 ; perimeter
G1 X108.793 Y89.259 E.00859 ; perimeter
G1 X111.047 Y89.259 E.07069 ; perimeter
G1 X111.479 Y89.331 E.01374 ; perimeter
G1 X111.816 Y89.506 E.0119 ; perimeter
G1 X111.98 Y89.645 E.00675 ; perimeter
G1 X113.575 Y91.24 E.07069 ; perimeter
G1 X113.774 Y91.495 E.01018 ; perimeter
G1 X113.912 Y91.815 E.01091 ; perimeter
G1 X113.961 Y92.173 E.01132 ; perimeter
G1 X113.961 Y94.427 E.07069 ; perimeter
G1 X113.912 Y94.785 E.01132 ; perimeter
G1 X113.774 Y95.105 E.01091 ; perimeter
G1 X113.575 Y95.36 E.01018 ; perimeter
G1 X111.98 Y96.955 E.07069 ; perimeter
G1 X111.652 Y97.194 E.01275 ; perimeter
G1 X111.33 Y97.311 E.01075 ; perimeter
G1 X111.047 Y97.341 E.0089 ; perimeter
G1 X108.793 Y97.341 E.07069 ; perimeter
G1 X108.353 Y97.266 E.014 ; perimeter
G1 X108.021 Y97.092 E.01175 ; perimeter
G1 X107.86 Y96.955 E.00665 ; perimeter
G1 X106.265 Y95.36 E.07069 ; perimeter
G1 X106.066 Y95.105 E.01018 ; perimeter
G1 X105.899 Y94.655 E.01503 ; perimeter
G1 X105.879 Y94.427 E.00718 ; perimeter
G1 X105.879 Y92.173 E.07069 ; perimeter
G1 X105.928 Y91.815 E.01132 ; perimeter
G1 X106.066 Y91.495 E.01091 ; perimeter
G1 X106.265 Y91.24 E.01018 ; perimeter
G1 X107.86 Y89.645 E.07069 ; perimeter
G1 X107.965 Y89.569 E.00407 ; perimeter
M204 P1000 ; adjust acceleration
G1 X108.229 Y89.838 F10800 ; move to first perimeter point
M204 P800 ; adjust acceleration
G1 F1200
G1 X108.365 Y89.739 E.00527 ; perimeter
G1 X108.704 Y89.64 E.01109 ; perimeter
G1 X111.047 Y89.636 E.07346 ; perimeter
G1 X111.356 Y89.688 E.00981 ; perimeter
G1 X111.597 Y89.812 E.0085 ; perimeter
G1 X111.714 Y89.912 E.00482 ; perimeter
G1 X113.308 Y91.506 E.07069 ; perimeter
G1 X113.451 Y91.689 E.00727 ; perimeter
G1 X113.549 Y91.917 E.00779 ; perimeter
G1 X113.584 Y92.173 E.00809 ; perimeter
G1 X113.584 Y94.427 E.07069 ; perimeter
G1 X113.549 Y94.683 E.00809 ; perimeter
G1 X113.451 Y94.911 E.00779 ; perimeter
G1 X113.308 Y95.094 E.00727 ; perimeter
G1 X111.714 Y96.688 E.07069 ; perimeter
G1 X111.479 Y96.859 E.00911 ; perimeter
G1 X111.144 Y96.959 E.01098 ; perimeter
G1 X111.047 Y96.964 E.00303 ; perimeter
G1 X108.793 Y96.964 E.07069 ; perimeter
G1 X108.479 Y96.91 E.01 ; perimeter
G1 X108.241 Y96.786 E.00839 ; perimeter
G1 X108.126 Y96.688 E.00475 ; perimeter
