; generated by PrusaSlicer 2.5.0-alpha3+win64 on 2022-08-12 at 01:00:52 UTC


;
;
; 

; external perimeters extrusion width = 0.45mm
; perimeters extrusion width = 0.45mm
; infill extrusion width = 0.45mm
; solid infill extrusion width = 0.45mm
; top infill extrusion width = 0.40mm
; first layer extrusion width = 0.42mm

M73 P0 R21
M73 Q0 S21
M201 X1000 Y1000 Z200 E8000 ; sets maximum accelerations, mm/sec^2
M203 X200 Y200 Z12 E120 ; sets maximum feedrates, mm / sec
M204 P1250 R1250 T1500 ; sets acceleration (P, T) and retract acceleration (R), mm/sec^2
M205 X8.00 Y8.00 Z0.40 E4.50 ; sets the jerk limits, mm/sec
M205 S0 T0 ; sets the minimum extruding and travel feed rate, mm/sec
M107 ; disable fan
;TYPE:Custom
M862.3 P "MK3SMMU2S" ; printer model check
M862.1 P0.4 ; nozzle diameter check
M115 U3.11.0 ; tell printer latest fw version
G90 ; use absolute coordinates
M83 ; extruder relative mode
M104 S225 ; set extruder temp
M140 S60 ; set bed temp
M190 S60 ; wait for bed temp
M109 S225 ; wait for extruder temp
G28 W ; home all without mesh bed level

G4 S30 ; wait 30s for probe to reach temp -peter villano

G80 ; mesh bed leveling

; Send the filament type to the MMU2.0 unit.
; E stands for extruder number, F stands for filament type (0: default; 1:flex; 2: PVA)
M403 E0 F0
M403 E1 F2
M403 E2 F0
M403 E3 F0
M403 E4 F0


;go outside print area
G1 Y-3 F1000
G1 Z0.4 F1000
; select extruder
T0
; initial load
G1 X55 E29 F1073
G1 X5 E29 F1800
G1 X55 E8 F2000
G1 Z0.3 F1000
G92 E0
G1 X240 E25 F2200
G1 Y-2 F1000
G1 X55 E25 F1400
G1 Z0.2 F1000
M73 P1 R20
M73 Q1 S20
G1 X5 E4 F1000
G92 E0


M221 S95
G92 E0

; Don't change E values below. Excessive value can damage the printer.

G21 ; set units to millimeters
G90 ; use absolute coordinates
M83 ; use relative distances for extrusion
M900 K0.05 ; Filament gcode LA 1.5
M900 K30 ; Filament gcode LA 1.0
M107 ; disable fan
;LAYER_CHANGE
;Z:0.2
;HEIGHT:0.2
;BEFORE_LAYER_CHANGE
G92 E0.0
;0.2


G1 E-.8 F2100 ; retract
G1 Z.4 F720 ; lift Z
;AFTER_LAYER_CHANGE
;0.2
G1 X109.434 Y91.931 F10800 ; move to first skirt point
G1 Z.2 F720 ; restore layer Z
G1 E.8 F2100 ;  ; unretract
M204 P800 ; adjust acceleration
;TYPE:Skirt/Brim
;WIDTH:0.42
G1 F1200
G1 X110.961 Y90.303 E.06998 ; skirt
G1 X112.265 Y89.16 E.05434 ; skirt
G1 X113.725 Y88.09 E.05679 ; skirt
G1 X115.647 Y86.956 E.06995 ; skirt
G1 X117.291 Y86.194 E.05681 ; skirt
G1 X119.399 Y85.463 E.06996 ; skirt
G1 X121.161 Y85.042 E.05681 ; skirt
G1 X123.373 Y84.741 E.06998 ; skirt
G1 X125.183 Y84.677 E.05679 ; skirt
G1 X127.41 Y84.82 E.06998 ; skirt
G1 X129.193 Y85.113 E.05665 ; skirt
G1 X131.352 Y85.695 E.07012 ; skirt
G1 X133.046 Y86.337 E.05679 ; skirt
G1 X135.044 Y87.332 E.06998 ; skirt
G1 X136.577 Y88.296 E.05678 ; skirt
G1 X138.336 Y89.664 E.06988 ; skirt
M73 Q2 S20
G1 X139.651 Y90.915 E.05689 ; skirt
G1 X141.107 Y92.606 E.06998 ; skirt
M73 P2 R20
G1 X142.146 Y94.089 E.05679 ; skirt
G1 X143.239 Y96.035 E.06996 ; skirt
G1 X143.965 Y97.695 E.0568 ; skirt
G1 X144.649 Y99.81 E.0697 ; skirt
G1 X145.033 Y101.578 E.05675 ; skirt
G1 X145.252 Y103.308 E.05466 ; skirt
G1 X145.316 Y105.538 E.06996 ; skirt
G1 X145.196 Y107.267 E.05435 ; skirt
G1 X144.914 Y109.056 E.05679 ; skirt
G1 X144.349 Y111.216 E.06998 ; skirt
G1 X143.719 Y112.914 E.05679 ; skirt
G1 X142.738 Y114.919 E.06998 ; skirt
G1 X141.785 Y116.458 E.05678 ; skirt
G1 X140.427 Y118.23 E.06999 ; skirt
G1 X139.188 Y119.551 E.05679 ; skirt
G1 X137.507 Y121.019 E.06998 ; skirt
G1 X136.031 Y122.069 E.05679 ; skirt
G1 X134.093 Y123.176 E.06998 ; skirt
G1 X132.439 Y123.913 E.05679 ; skirt
G1 X130.32 Y124.615 E.06998 ; skirt
G1 X128.553 Y125.011 E.05679 ; skirt
G1 X126.337 Y125.28 E.06998 ; skirt
G1 X124.605 Y125.32 E.05434 ; skirt
G1 X122.797 Y125.204 E.05679 ; skirt
G1 X120.595 Y124.841 E.06998 ; skirt
G1 X118.846 Y124.37 E.05679 ; skirt
G1 X116.76 Y123.579 E.06998 ; skirt
G1 X115.138 Y122.772 E.05679 ; skirt
G1 X113.249 Y121.583 E.06998 ; skirt
G1 X111.819 Y120.471 E.05679 ; skirt
G1 X110.203 Y118.933 E.06998 ; skirt
G1 X109.021 Y117.56 E.05679 ; skirt
G1 X107.74 Y115.733 E.06996 ; skirt
G1 X106.888 Y114.223 E.05435 ; skirt
G1 X106.139 Y112.574 E.05679 ; skirt
G1 X105.422 Y110.461 E.06998 ; skirt
G1 X105.014 Y108.696 E.05679 ; skirt
G1 X104.729 Y106.482 E.06998 ; skirt
G1 X104.678 Y104.672 E.05679 ; skirt
G1 X104.836 Y102.446 E.06998 ; skirt
G1 X105.141 Y100.674 E.05637 ; skirt
G1 X105.586 Y98.985 E.05475 ; skirt
G1 X106.362 Y96.893 E.06998 ; skirt
G1 X107.152 Y95.277 E.05638 ; skirt
G1 X108.332 Y93.37 E.07033 ; skirt
G1 X109.398 Y91.978 E.05495 ; skirt
M204 P1000 ; adjust acceleration
G1 X109.71 Y92.224 F10800 ; move to first skirt point
M204 P800 ; adjust acceleration
G1 F1200
G1 X110.045 Y91.8 E.01696 ; skirt
G1 X111.225 Y90.572 E.0534 ; skirt
G1 X112.557 Y89.409 E.05545 ; skirt
G1 X113.931 Y88.406 E.05333 ; skirt
G1 X115.824 Y87.288 E.06895 ; skirt
G1 X117.43 Y86.545 E.05547 ; skirt
G1 X119.507 Y85.824 E.06895 ; skirt
G1 X121.228 Y85.413 E.05546 ; skirt
G1 X123.407 Y85.117 E.06897 ; skirt
G1 X125.175 Y85.054 E.05544 ; skirt
G1 X127.37 Y85.195 E.06897 ; skirt
G1 X129.11 Y85.481 E.05531 ; skirt
G1 X131.239 Y86.054 E.06911 ; skirt
G1 X132.892 Y86.681 E.05544 ; skirt
G1 X134.861 Y87.662 E.06897 ; skirt
G1 X136.358 Y88.603 E.05544 ; skirt
G1 X138.092 Y89.952 E.06887 ; skirt
G1 X139.376 Y91.173 E.05555 ; skirt
G1 X140.811 Y92.84 E.06897 ; skirt
G1 X141.824 Y94.285 E.05533 ; skirt
G1 X142.902 Y96.205 E.06907 ; skirt
G1 X143.611 Y97.826 E.05546 ; skirt
G1 X144.286 Y99.91 E.06869 ; skirt
G1 X144.66 Y101.637 E.05541 ; skirt
G1 X144.876 Y103.334 E.05364 ; skirt
G1 X144.939 Y105.533 E.06896 ; skirt
G1 X144.821 Y107.23 E.05334 ; skirt
G1 X144.546 Y108.977 E.05544 ; skirt
G1 X143.989 Y111.105 E.06897 ; skirt
G1 X143.374 Y112.763 E.05544 ; skirt
G1 X142.407 Y114.739 E.06897 ; skirt
G1 X141.476 Y116.242 E.05543 ; skirt
G1 X140.138 Y117.988 E.06898 ; skirt
G1 X138.928 Y119.278 E.05544 ; skirt
G1 X137.272 Y120.725 E.06897 ; skirt
G1 X135.831 Y121.75 E.05545 ; skirt
G1 X133.92 Y122.841 E.06897 ; skirt
G1 X132.305 Y123.561 E.05544 ; skirt
G1 X130.217 Y124.252 E.06897 ; skirt
G1 X128.492 Y124.639 E.05544 ; skirt
G1 X126.308 Y124.904 E.06897 ; skirt
G1 X124.608 Y124.943 E.05333 ; skirt
G1 X122.843 Y124.83 E.05544 ; skirt
G1 X120.673 Y124.472 E.06897 ; skirt
G1 X118.965 Y124.012 E.05544 ; skirt
G1 X116.908 Y123.232 E.06897 ; skirt
G1 X115.325 Y122.444 E.05544 ; skirt
G1 X113.463 Y121.273 E.06897 ; skirt
G1 X112.067 Y120.187 E.05544 ; skirt
G1 X110.474 Y118.671 E.06897 ; skirt
G1 X109.32 Y117.331 E.05544 ; skirt
G1 X108.058 Y115.53 E.06895 ; skirt
G1 X107.222 Y114.048 E.05334 ; skirt
G1 X106.491 Y112.438 E.05544 ; skirt
G1 X105.784 Y110.355 E.06897 ; skirt
G1 X105.386 Y108.632 E.05544 ; skirt
G1 X105.105 Y106.45 E.06897 ; skirt
G1 X105.055 Y104.683 E.05544 ; skirt
G1 X105.211 Y102.488 E.06897 ; skirt
G1 X105.509 Y100.759 E.05503 ; skirt
G1 X106.095 Y98.637 E.06902 ; skirt
G1 X106.737 Y96.977 E.0558 ; skirt
G1 X107.725 Y95.026 E.06857 ; skirt
G1 X108.684 Y93.525 E.05584 ; skirt
G1 X109.673 Y92.272 E.05006 ; skirt
M204 P1000 ; adjust acceleration
; printing object knife sharpener jig id:0 copy 0
;WIPE_START
G1 F8640
G1 X110.045 Y91.8 E-.13875 ; wipe and retract
G1 X111.225 Y90.572 E-.39324 ; wipe and retract
G1 X111.969 Y89.923 E-.22801 ; wipe and retract
;WIPE_END
G1 E-.04 F2100 ; retract
G1 Z.6 F720 ; lift Z
G1 X112.983 Y94.348 F10800 ; move to first perimeter point
G1 Z.2 F720 ; restore layer Z
G1 E.8 F2100 ;  ; unretract
M204 P800 ; adjust acceleration
;TYPE:Perimeter
;WIDTH:0.363799
G1 F1200
G1 X113.603 Y93.69 E.02415 ; perimeter
G1 X114.101 Y93.222 E.01822 ; perimeter
;WIDTH:0.361236
G1 X114.621 Y92.747 E.01865 ; perimeter
G1 X115.426 Y92.11 E.02716 ; perimeter
;WIDTH:0.362583
G1 X116.064 Y91.659 E.02077 ; perimeter
G1 X116.833 Y91.185 E.02402 ; perimeter
;WIDTH:0.358806
G1 X117.347 Y90.885 E.01563 ; perimeter
G1 X118.335 Y90.399 E.02892 ; perimeter
;WIDTH:0.354563
G1 X118.811 Y90.194 E.01343 ; perimeter
;WIDTH:0.364182
G1 X119.32 Y89.982 E.01472 ; perimeter
G1 X120.163 Y89.689 E.02385 ; perimeter
;WIDTH:0.363069
G1 X120.982 Y89.464 E.02262 ; perimeter
;WIDTH:0.359451
G1 X121.534 Y89.321 E.01499 ; perimeter
;WIDTH:0.363532
G1 X122.39 Y89.157 E.02326 ; perimeter
G1 X123.286 Y89.034 E.02409 ; perimeter
;WIDTH:0.360396
G1 X123.785 Y88.999 E.01322 ; perimeter
;WIDTH:0.358264
G1 X124.876 Y88.946 E.02863 ; perimeter
G1 X126.037 Y88.986 E.03048 ; perimeter
;WIDTH:0.357807
G1 X127.134 Y89.088 E.02884 ; perimeter
;WIDTH:0.358232
G1 X127.686 Y89.171 E.01463 ; perimeter
G1 X128.269 Y89.289 E.01559 ; perimeter
;WIDTH:0.358043
G1 X129.34 Y89.543 E.02886 ; perimeter
;WIDTH:0.362078
G1 X130.044 Y89.756 E.01951 ; perimeter
G1 X130.933 Y90.089 E.02521 ; perimeter
;WIDTH:0.358364
G1 X131.484 Y90.313 E.0156 ; perimeter
G1 X132.496 Y90.805 E.02949 ; perimeter
;WIDTH:0.364178
G1 X132.955 Y91.054 E.01397 ; perimeter
G1 X133.47 Y91.371 E.01614 ; perimeter
;WIDTH:0.357034
G1 X134.388 Y91.978 E.02877 ; perimeter
;WIDTH:0.360223
G1 X134.865 Y92.331 E.01564 ; perimeter
M73 Q3 S20
G1 X135.707 Y93.041 E.02905 ; perimeter
;WIDTH:0.356046
G1 X136.131 Y93.442 E.01519 ; perimeter
;WIDTH:0.364087
G1 X136.563 Y93.861 E.01608 ; perimeter
G1 X137.165 Y94.522 E.02389 ; perimeter
;WIDTH:0.363851
M73 P3 R20
G1 X137.623 Y95.093 E.01953 ; perimeter
;WIDTH:0.360516
G1 X138.025 Y95.611 E.01731 ; perimeter
;WIDTH:0.363781
G1 X138.527 Y96.352 E.02387 ; perimeter
G1 X138.898 Y96.98 E.01947 ; perimeter
;WIDTH:0.356784
G1 X139.421 Y97.949 E.02874 ; perimeter
;WIDTH:0.358674
G1 X139.673 Y98.485 E.01556 ; perimeter
G1 X140.083 Y99.505 E.02885 ; perimeter
;WIDTH:0.360215
G1 X140.28 Y100.064 E.01563 ; perimeter
;WIDTH:0.363496
G1 X140.531 Y100.93 E.02405 ; perimeter
G1 X140.697 Y101.673 E.02027 ; perimeter
;WIDTH:0.360025
G1 X140.825 Y102.288 E.01657 ; perimeter
;WIDTH:0.363369
G1 X140.998 Y103.647 E.03651 ; perimeter
G1 X141.051 Y104.548 E.02405 ; perimeter
;WIDTH:0.364167
G1 X141.048 Y105.461 E.02439 ; perimeter
G1 X141.012 Y106.152 E.01849 ; perimeter
;WIDTH:0.35772
G1 X140.949 Y106.775 E.01638 ; perimeter
;WIDTH:0.358694
G1 X140.804 Y107.832 E.02802 ; perimeter
;WIDTH:0.363016
G1 X140.641 Y108.625 E.02154 ; perimeter
G1 X140.411 Y109.506 E.02423 ; perimeter
;WIDTH:0.360036
G1 X140.088 Y110.467 E.02674 ; perimeter
;WIDTH:0.355083
G1 X140.063 Y110.542 E.00205 ; perimeter
;WIDTH:0.357493
G1 X139.838 Y111.126 E.01637 ; perimeter
;WIDTH:0.364106
G1 X139.399 Y112.096 E.02843 ; perimeter
;WIDTH:0.358254
G1 X139.128 Y112.624 E.01554 ; perimeter
G1 X138.566 Y113.574 E.02895 ; perimeter
;WIDTH:0.363889
G1 X138.007 Y114.412 E.0269 ; perimeter
G1 X137.599 Y114.949 E.01798 ; perimeter
;WIDTH:0.357535
G1 X137.218 Y115.405 E.01556 ; perimeter
G1 X136.46 Y116.242 E.02953 ; perimeter
G1 X135.725 Y116.942 E.02653 ; perimeter
;WIDTH:0.361916
G1 X134.797 Y117.721 E.03214 ; perimeter
;WIDTH:0.359071
G1 X134.348 Y118.051 E.01467 ; perimeter
;WIDTH:0.357279
G1 X133.855 Y118.385 E.01554 ; perimeter
;WIDTH:0.359242
G1 X132.996 Y118.923 E.02667 ; perimeter
;WIDTH:0.359416
G1 X132.921 Y118.967 E.0023 ; perimeter
;WIDTH:0.363294
G1 X132.159 Y119.371 E.02297 ; perimeter
G1 X131.387 Y119.721 E.02257 ; perimeter
;WIDTH:0.364033
G1 X130.892 Y119.935 E.01442 ; perimeter
G1 X130.398 Y120.118 E.01405 ; perimeter
;WIDTH:0.357703
G1 X129.803 Y120.319 E.01645 ; perimeter
G1 X128.775 Y120.598 E.02788 ; perimeter
;WIDTH:0.363775
G1 X127.822 Y120.806 E.026 ; perimeter
G1 X127.084 Y120.92 E.01993 ; perimeter
;WIDTH:0.358253
G1 X126.54 Y120.979 E.01437 ; perimeter
;WIDTH:0.36416
G1 X126.029 Y121.023 E.01369 ; perimeter
G1 X125.37 Y121.042 E.0176 ; perimeter
;WIDTH:0.35377
G1 X124.267 Y121.032 E.02852 ; perimeter
G1 X123.71 Y120.997 E.01442 ; perimeter
;WIDTH:0.358341
G1 X123.118 Y120.944 E.0156 ; perimeter
G1 X122.032 Y120.777 E.02882 ; perimeter
;WIDTH:0.359813
G1 X121.45 Y120.66 E.01562 ; perimeter
G1 X120.363 Y120.367 E.02969 ; perimeter
;WIDTH:0.358073
G1 X119.4 Y120.047 E.02658 ; perimeter
;WIDTH:0.360194
G1 X118.258 Y119.571 E.03264 ; perimeter
;WIDTH:0.357933
G1 X117.278 Y119.069 E.02884 ; perimeter
;WIDTH:0.363928
G1 X116.437 Y118.583 E.02591 ; perimeter
G1 X115.842 Y118.188 E.01906 ; perimeter
;WIDTH:0.357954
G1 X115.384 Y117.85 E.01491 ; perimeter
;WIDTH:0.364031
G1 X114.599 Y117.233 E.02666 ; perimeter
G1 X113.928 Y116.63 E.0241 ; perimeter
;WIDTH:0.362676
G1 X113.28 Y115.977 E.02446 ; perimeter
;WIDTH:0.359531
G1 X112.896 Y115.537 E.01536 ; perimeter
;WIDTH:0.357046
G1 X112.197 Y114.686 E.02876 ; perimeter
;WIDTH:0.359965
G1 X111.851 Y114.218 E.01534 ; perimeter
G1 X111.522 Y113.71 E.01595 ; perimeter
;WIDTH:0.354724
G1 X110.956 Y112.771 E.02844 ; perimeter
;WIDTH:0.360524
G1 X110.427 Y111.74 E.0306 ; perimeter
;WIDTH:0.359104
G1 X110.013 Y110.759 E.028 ; perimeter
;WIDTH:0.360609
G1 X109.791 Y110.153 E.01705 ; perimeter
;WIDTH:0.363794
G1 X109.526 Y109.287 E.02415 ; perimeter
G1 X109.363 Y108.605 E.01872 ; perimeter
;WIDTH:0.361471
G1 X109.213 Y107.936 E.01816 ; perimeter
G1 X109.058 Y106.914 E.02739 ; perimeter
;WIDTH:0.358701
G1 X108.966 Y105.818 E.02886 ; perimeter
;WIDTH:0.359983
G1 X108.943 Y105.223 E.01569 ; perimeter
G1 X108.969 Y104.21 E.02674 ; perimeter
;WIDTH:0.362877
G1 X108.984 Y103.853 E.0095 ; perimeter
G1 X109.076 Y103.01 E.02256 ; perimeter
;WIDTH:0.359321
G1 X109.147 Y102.445 E.01498 ; perimeter
;WIDTH:0.363236
G1 X109.306 Y101.606 E.02276 ; perimeter
G1 X109.512 Y100.798 E.0222 ; perimeter
;WIDTH:0.359468
G1 X109.679 Y100.194 E.01648 ; perimeter
G1 X110.034 Y99.187 E.02811 ; perimeter
;WIDTH:0.361269
G1 X110.289 Y98.562 E.01787 ; perimeter
G1 X110.727 Y97.644 E.02692 ; perimeter
;WIDTH:0.362804
G1 X111.115 Y96.935 E.02151 ; perimeter
G1 X111.592 Y96.163 E.02415 ; perimeter
;WIDTH:0.360094
G1 X112.184 Y95.339 E.02675 ; perimeter
;WIDTH:0.363219
G1 X112.404 Y95.041 E.00986 ; perimeter
G1 X112.944 Y94.394 E.02244 ; perimeter
M204 P1000 ; adjust acceleration
G1 X112.719 Y94.121 F10800 ; move to first perimeter point
M204 P800 ; adjust acceleration
;WIDTH:0.419999
G1 F1200
G1 X113.353 Y93.446 E.02904 ; perimeter
G1 X114.39 Y92.487 E.04427 ; perimeter
G1 X115.113 Y91.908 E.02903 ; perimeter
G1 X115.867 Y91.371 E.02904 ; perimeter
G1 X117.073 Y90.636 E.04427 ; perimeter
G1 X117.89 Y90.215 E.02883 ; perimeter
G1 X119.188 Y89.658 E.04427 ; perimeter
G1 X120.055 Y89.358 E.02877 ; perimeter
G1 X121.42 Y88.99 E.04433 ; perimeter
G1 X122.329 Y88.813 E.02904 ; perimeter
G1 X123.245 Y88.689 E.02899 ; perimeter
G1 X124.656 Y88.598 E.04432 ; perimeter
G1 X125.574 Y88.605 E.02879 ; perimeter
G1 X126.983 Y88.715 E.04431 ; perimeter
G1 X127.892 Y88.852 E.02883 ; perimeter
G1 X129.27 Y89.161 E.04428 ; perimeter
G1 X130.15 Y89.424 E.0288 ; perimeter
G1 X131.471 Y89.925 E.0443 ; perimeter
G1 X132.312 Y90.314 E.02904 ; perimeter
G1 X133.126 Y90.749 E.02893 ; perimeter
G1 X134.324 Y91.503 E.04438 ; perimeter
G1 X135.071 Y92.05 E.02903 ; perimeter
G1 X135.783 Y92.637 E.02894 ; perimeter
G1 X136.808 Y93.613 E.04437 ; perimeter
G1 X137.428 Y94.292 E.02883 ; perimeter
G1 X138.303 Y95.4 E.04427 ; perimeter
G1 X138.819 Y96.161 E.02883 ; perimeter
G1 X139.528 Y97.382 E.04427 ; perimeter
G1 X139.935 Y98.214 E.02903 ; perimeter
G1 X140.297 Y99.074 E.02924 ; perimeter
G1 X140.609 Y99.953 E.02925 ; perimeter
G1 X140.868 Y100.839 E.02895 ; perimeter
G1 X141.17 Y102.244 E.04505 ; perimeter
G1 X141.346 Y103.627 E.04374 ; perimeter
G1 X141.398 Y104.548 E.02892 ; perimeter
G1 X141.398 Y105.466 E.02879 ; perimeter
G1 X141.345 Y106.391 E.02904 ; perimeter
G1 X141.165 Y107.792 E.04428 ; perimeter
G1 X140.982 Y108.699 E.02903 ; perimeter
G1 X140.748 Y109.595 E.02904 ; perimeter
G1 X140.294 Y110.933 E.04428 ; perimeter
G1 X139.935 Y111.786 E.02904 ; perimeter
G1 X139.525 Y112.624 E.02924 ; perimeter
G1 X139.072 Y113.431 E.02904 ; perimeter
G1 X138.295 Y114.61 E.04427 ; perimeter
G1 X137.735 Y115.34 E.02883 ; perimeter
G1 X136.803 Y116.392 E.04407 ; perimeter
G1 X135.785 Y117.361 E.04406 ; perimeter
G1 X135.071 Y117.95 E.02903 ; perimeter
G1 X134.324 Y118.498 E.02904 ; perimeter
