; generated by PrusaSlicer 2.5.0+win64 on 2022-09-12 at 00:17:56 UTC


;
;
; 

; external perimeters extrusion width = 0.60mm
; perimeters extrusion width = 0.50mm
; infill extrusion width = 0.50mm
; solid infill extrusion width = 0.50mm
; top infill extrusion width = 0.45mm
; first layer extrusion width = 0.42mm

M73 P0 R54
M73 Q0 S54
M201 X1000 Y1000 Z200 E8000 ; sets maximum accelerations, mm/sec^2
M203 X200 Y200 Z12 E120 ; sets maximum feedrates, mm / sec
M204 P1250 R1250 T1500 ; sets acceleration (P, T) and retract acceleration (R), mm/sec^2
M205 X8.00 Y8.00 Z0.40 E4.50 ; sets the jerk limits, mm/sec
M205 S0 T0 ; sets the minimum extruding and travel feed rate, mm/sec
M107
;TYPE:Custom
M862.3 P "MK3SMMU2S" ; printer model check
M862.1 P0.4 ; nozzle diameter check
M115 U3.11.0 ; tell printer latest fw version
G90 ; use absolute coordinates
M83 ; extruder relative mode
M104 S240 ; set extruder temp
M140 S85 ; set bed temp
M190 S85 ; wait for bed temp
M109 S240 ; wait for extruder temp
G28 W ; home all without mesh bed level

G4 S30 ; wait 30s for probe to reach temp -peter villano

G80 ; mesh bed leveling

; Send the filament type to the MMU2.0 unit.
; E stands for extruder number, F stands for filament type (0: default; 1:flex; 2: PVA)
M403 E0 F0
M403 E1 F0
M403 E2 F0
M403 E3 F0
M403 E4 F0


;go outside print area
G1 Y-3 F1000
G1 Z0.4 F1000
; select extruder
T1
; initial load
M73 P0 R53
M73 Q0 S53
G1 X55 E29 F1073
G1 X5 E29 F1800
G1 X55 E8 F2000
G1 Z0.3 F1000
G92 E0
G1 X240 E25 F2200
G1 Y-2 F1000
G1 X55 E25 F1400
G1 Z0.2 F1000
M73 P1 R53
M73 Q1 S53
G1 X5 E4 F1000
G92 E0


M221 S95
G92 E0

; Don't change E values below. Excessive value can damage the printer.

M907 E538 ; set extruder motor current
G21 ; set units to millimeters
G90 ; use absolute coordinates
M83 ; use relative distances for extrusion
T1
M900 K0.08 ; Filament gcode LA 1.5
M900 K45 ; Filament gcode LA 1.0
M107
;LAYER_CHANGE
;Z:0.2
;HEIGHT:0.2
;BEFORE_LAYER_CHANGE
G92 E0.0
;0.2


G1 Z.2 F720
;AFTER_LAYER_CHANGE
;0.2
G1 E-1 F2100
G1 Z.4 F720
G1 X76.141 Y64.38 F10800
G1 Z.2 F720
G1 E1 F2100
M204 P800
;TYPE:Skirt/Brim
;WIDTH:0.42
G1 F1200
G1 X78.272 Y61.945 E.10146
G1 X80.53 Y59.617 E.10168
G1 X82.16 Y58.075 E.07034
G1 X84.625 Y55.938 E.10229
G1 X87.18 Y53.942 E.10167
G1 X89.868 Y52.057 E.10295
G1 X92.615 Y50.333 E.10167
G1 X95.464 Y48.743 E.10231
G1 X98.367 Y47.312 E.10148
G1 X101.345 Y46.028 E.10167
G1 X103.442 Y45.23 E.07034
G1 X106.538 Y44.202 E.10229
G1 X109.664 Y43.34 E.10167
G1 X112.85 Y42.634 E.10231
G1 X116.041 Y42.096 E.10148
G1 X119.262 Y41.721 E.10167
G1 X122.518 Y41.51 E.10231
G1 X124.761 Y41.462 E.07034
G1 X128.003 Y41.532 E.10165
G1 X131.257 Y41.77 E.10231
G1 X134.469 Y42.171 E.10148
G1 X137.662 Y42.736 E.10167
G1 X140.842 Y43.468 E.10231
G1 X143.004 Y44.066 E.07034
G1 X146.088 Y45.064 E.10165
G1 X149.138 Y46.225 E.10231
G1 X152.123 Y47.542 E.10231
G1 X155.014 Y48.998 E.10149
G1 X157.85 Y50.613 E.10231
G1 X160.582 Y52.36 E.10167
G1 X163.237 Y54.256 E.10231
G1 X165.004 Y55.637 E.07033
G1 X167.47 Y57.742 E.10166
G1 X169.841 Y59.985 E.10231
G1 X172.075 Y62.327 E.10148
G1 X174.203 Y64.8 E.10231
G1 X176.202 Y67.379 E.10231
G1 X178.055 Y70.04 E.10167
G1 X179.256 Y71.934 E.07032
G1 X180.882 Y74.763 E.10231
G1 X182.352 Y77.654 E.10167
G1 X183.68 Y80.634 E.10231
G1 X184.845 Y83.654 E.10148
G1 X185.862 Y86.755 E.10231
G1 X186.718 Y89.903 E.1023
G1 X187.408 Y93.072 E.10168
G1 X187.79 Y95.282 E.07032
G1 X188.206 Y98.518 E.10231
G1 X188.454 Y101.751 E.10167
G1 X188.538 Y105.013 E.10231
G1 X188.453 Y108.275 E.10231
G1 X188.204 Y111.502 E.10147
G1 X187.787 Y114.738 E.10231
G1 X187.208 Y117.929 E.10169
G1 X186.588 Y120.611 E.08631
G1 X185.856 Y123.265 E.08631
G1 X184.845 Y126.346 E.10167
G1 X183.67 Y129.39 E.1023
G1 X182.352 Y132.346 E.10149
G1 X180.882 Y135.236 E.10166
G1 X179.78 Y137.19 E.07034
G1 X178.055 Y139.96 E.1023
G1 X176.202 Y142.621 E.10167
G1 X174.204 Y145.2 E.10231
G1 X172.075 Y147.673 E.10232
G1 X169.841 Y150.015 E.10148
G1 X167.471 Y152.258 E.10231
G1 X165.004 Y154.363 E.10168
G1 X163.237 Y155.744 E.07032
G1 X160.582 Y157.64 E.10231
G1 X157.85 Y159.387 E.10167
G1 X155.014 Y161.002 E.10232
G1 X152.123 Y162.458 E.10148
G1 X149.138 Y163.775 E.10231
G1 X146.089 Y164.936 E.10231
G1 X143.003 Y165.934 E.10167
G1 X139.851 Y166.778 E.10231
G1 X137.662 Y167.264 E.07032
G1 X134.469 Y167.829 E.10167
G1 X131.231 Y168.232 E.10231
G1 X128.003 Y168.468 E.10148
G1 X124.74 Y168.538 E.10231
G1 X121.479 Y168.441 E.10231
G1 X118.247 Y168.179 E.10168
G1 X116.021 Y167.901 E.07032
G1 X112.804 Y167.357 E.10231
G1 X109.638 Y166.654 E.10167
G1 X106.493 Y165.784 E.10231
G1 X103.397 Y164.754 E.10231
G1 X100.382 Y163.576 E.10148
G1 X97.408 Y162.235 E.10231
G1 X94.523 Y160.753 E.10167
G1 X91.701 Y159.115 E.10231
G1 X89.812 Y157.906 E.07032
G1 X87.159 Y156.042 E.10167
G1 X84.588 Y154.032 E.10231
G1 X82.144 Y151.911 E.10148
G1 X79.792 Y149.649 E.10231
G1 X77.56 Y147.269 E.10231
G1 X75.465 Y144.793 E.10167
G1 X74.091 Y143.021 E.07032
G1 X72.207 Y140.357 E.10231
G1 X70.471 Y137.617 E.10168
G1 X68.868 Y134.775 E.10233
G1 X67.425 Y131.878 E.10146
G1 X66.121 Y128.887 E.10231
G1 X64.973 Y125.833 E.10231
G1 X63.988 Y122.743 E.10167
G1 X63.158 Y119.588 E.10231
G1 X62.681 Y117.395 E.07034
G1 X62.13 Y114.201 E.10165
G1 X61.741 Y110.961 E.10231
G1 X61.519 Y107.732 E.10148
G1 X61.462 Y104.49 E.10167
G1 X61.574 Y101.208 E.10295
G1 X61.85 Y97.977 E.10168
G1 X62.294 Y94.745 E.10231
G1 X62.695 Y92.537 E.07034
G1 X63.411 Y89.375 E.10165
G1 X64.295 Y86.234 E.10231
G1 X65.338 Y83.143 E.10231
G1 X66.529 Y80.133 E.10148
G1 X67.882 Y77.164 E.10231
G1 X69.377 Y74.286 E.10167
G1 X70.496 Y72.342 E.07032
G1 X72.244 Y69.587 E.10231
G1 X74.119 Y66.942 E.10167
G1 X76.103 Y64.427 E.10044
M204 P1000
;WIPE_START
G1 F8640
G1 X78.272 Y61.945 E-.76105
G1 X78.842 Y61.357 E-.18895
;WIPE_END
G1 E-.05 F2100
G1 Z.4 F720
G1 X78.385 Y66.258 F10800
G1 Z.2 F720
G1 E1 F2100
M204 P800
G1 F1200
G1 X79.717 Y64.708 E.06408
G1 X80.436 Y63.915 E.03355
G1 X81.162 Y63.141 E.03327
G1 X82.584 Y61.7 E.06347
G1 X84.126 Y60.242 E.06653
G1 X85.642 Y58.903 E.06344
G1 X86.468 Y58.21 E.0338
G1 X87.288 Y57.548 E.03304
G1 X88.917 Y56.297 E.06439
G1 X89.774 Y55.674 E.03322
G1 X91.479 Y54.5 E.06491
G1 X93.183 Y53.409 E.06345
G1 X94.099 Y52.855 E.03357
G1 X95.017 Y52.322 E.03328
G1 X96.819 Y51.337 E.06439
G1 X97.761 Y50.852 E.03322
G1 X99.611 Y49.961 E.06439
G1 X100.577 Y49.525 E.03321
G1 X102.443 Y48.741 E.06347
G1 X104.426 Y47.986 E.06654
G1 X106.341 Y47.331 E.06345
G1 X107.384 Y47.004 E.03428
G1 X109.325 Y46.449 E.0633
G1 X110.352 Y46.184 E.03323
G1 X112.353 Y45.722 E.06439
G1 X113.409 Y45.506 E.03379
G1 X114.445 Y45.314 E.03304
G1 X116.473 Y44.99 E.06439
G1 X117.523 Y44.85 E.03322
G1 X119.565 Y44.632 E.06439
G1 X120.621 Y44.546 E.03322
G1 X122.671 Y44.432 E.06439
G1 X123.725 Y44.401 E.03305
G1 X125.274 Y44.39 E.04857
G1 X126.791 Y44.414 E.04759
G1 X127.845 Y44.454 E.03307
G1 X129.895 Y44.586 E.06439
G1 X130.964 Y44.682 E.03368
G1 X132.99 Y44.917 E.06393
G1 X134.036 Y45.065 E.03314
G1 X135.097 Y45.235 E.03369
M73 Q1 S52
G1 X137.102 Y45.608 E.06393
M73 P1 R52
G1 X138.152 Y45.832 E.03368
G1 X140.121 Y46.304 E.06348
G1 X142.166 Y46.869 E.06653
G1 X144.096 Y47.475 E.06343
G1 X145.099 Y47.817 E.03323
G1 X147.024 Y48.531 E.06437
G1 X148.04 Y48.938 E.03431
G1 X149.895 Y49.737 E.06332
G1 X150.857 Y50.18 E.03321
G1 X152.699 Y51.087 E.06439
G1 X153.645 Y51.584 E.03348
G1 X154.578 Y52.095 E.03335
G1 X156.353 Y53.127 E.06439
G1 X157.255 Y53.683 E.03321
G1 X158.946 Y54.786 E.06332
G1 X159.847 Y55.407 E.03428
G1 X161.483 Y56.598 E.06347
G1 X163.155 Y57.905 E.06653
G1 X164.706 Y59.205 E.06346
G1 X165.5 Y59.906 E.03321
G1 X167.005 Y61.304 E.06439
G1 X167.786 Y62.069 E.03429
G1 X169.192 Y63.517 E.0633
G1 X169.919 Y64.305 E.0336
G1 X170.624 Y65.097 E.03325
G1 X171.95 Y66.666 E.06439
G1 X172.612 Y67.492 E.03322
G1 X173.856 Y69.127 E.06439
G1 X174.475 Y69.986 E.03321
G1 X175.614 Y71.653 E.06331
G1 X176.207 Y72.572 E.03429
G1 X177.262 Y74.3 E.06347
M73 Q2 S52
G1 X178.304 Y76.148 E.06651
M73 P2 R52
G1 X179.238 Y77.944 E.06347
G1 X179.702 Y78.896 E.03321
G1 X180.555 Y80.763 E.06437
G1 X180.97 Y81.739 E.03324
G1 X181.726 Y83.648 E.06439
G1 X182.09 Y84.642 E.03317
G1 X182.442 Y85.656 E.03366
G1 X183.058 Y87.591 E.06367
G1 X183.616 Y89.578 E.06471
G1 X183.876 Y90.599 E.03304
G1 X184.122 Y91.648 E.0338
G1 X184.535 Y93.63 E.06347
G1 X184.894 Y95.704 E.06599
G1 X185.048 Y96.752 E.03322
G1 X185.294 Y98.804 E.06481
G1 X185.469 Y100.852 E.06443
G1 X185.575 Y102.902 E.06436
G1 X185.611 Y105.007 E.06602
G1 X185.602 Y106.066 E.03321
G1 X185.531 Y108.118 E.06436
G1 X185.467 Y109.176 E.03322
G1 X185.291 Y111.221 E.06438
G1 X185.173 Y112.274 E.03323
G1 X184.892 Y114.309 E.0644
G1 X184.72 Y115.354 E.0332
G1 X184.341 Y117.343 E.06347
G1 X183.873 Y119.412 E.06651
G1 X183.359 Y121.369 E.06346
G1 X183.054 Y122.42 E.0343
G1 X182.442 Y124.344 E.06332
G1 X182.095 Y125.345 E.03321
G1 X181.373 Y127.267 E.06439
G1 X180.973 Y128.254 E.03337
G1 X180.555 Y129.236 E.03348
G1 X179.702 Y131.104 E.06437
G1 X179.238 Y132.056 E.03321
G1 X178.306 Y133.847 E.06331
G1 X177.777 Y134.805 E.0343
G1 X176.752 Y136.551 E.0635
G1 X175.626 Y138.328 E.06596
G1 X175.036 Y139.208 E.03319
G1 X173.848 Y140.884 E.06441
G1 X173.213 Y141.732 E.03324
G1 X171.942 Y143.344 E.06436
G1 X171.265 Y144.158 E.0332
G1 X169.908 Y145.706 E.06453
G1 X168.515 Y147.192 E.06387
G1 X167.76 Y147.957 E.03369
G1 X167.005 Y148.696 E.03314
G1 X165.5 Y150.094 E.06439
G1 X164.706 Y150.795 E.03321
G1 X163.14 Y152.108 E.06408
G1 X161.524 Y153.371 E.0643
G1 X160.673 Y154.002 E.03322
G1 X158.993 Y155.182 E.06438
G1 X158.115 Y155.766 E.03304
G1 X157.207 Y156.347 E.03379
G1 X155.475 Y157.394 E.06347
G1 X153.623 Y158.428 E.06651
G1 X151.822 Y159.354 E.06347
G1 X150.869 Y159.815 E.03321
G1 X148.997 Y160.659 E.06439
G1 X148.01 Y161.075 E.03356
G1 X147.024 Y161.469 E.03329
G1 X145.099 Y162.183 E.06437
G1 X144.096 Y162.525 E.03323
G1 X142.17 Y163.129 E.0633
G1 X141.119 Y163.43 E.03428
G1 X139.158 Y163.935 E.06347
G1 X137.087 Y164.395 E.06652
G1 X135.097 Y164.765 E.06347
G1 X134.036 Y164.935 E.03369
G1 X132.99 Y165.083 E.03314
G1 X130.95 Y165.32 E.06439
G1 X129.895 Y165.414 E.03322
G1 X127.845 Y165.546 E.06439
G1 X126.786 Y165.586 E.03322
G1 X124.733 Y165.612 E.06438
G1 X123.674 Y165.598 E.03322
G1 X121.622 Y165.518 E.06439
G1 X120.565 Y165.45 E.03321
G1 X118.549 Y165.268 E.06347
G1 X116.443 Y165.006 E.06651
G1 X114.444 Y164.686 E.06347
G1 X113.369 Y164.486 E.03428
G1 X111.394 Y164.066 E.06332
G1 X110.35 Y163.816 E.03366
G1 X109.325 Y163.551 E.03319
G1 X107.351 Y162.986 E.06439
G1 X106.341 Y162.669 E.03319
G1 X104.407 Y162.007 E.06408
G1 X102.491 Y161.278 E.0643
G1 X101.511 Y160.877 E.03318
G1 X100.525 Y160.452 E.03366
G1 X98.661 Y159.591 E.06439
G1 X97.711 Y159.122 E.03322
G1 X95.913 Y158.178 E.06369
G1 X94.12 Y157.157 E.06467
G1 X93.217 Y156.612 E.03309
G1 X92.305 Y156.039 E.03376
G1 X90.619 Y154.919 E.06345
G1 X88.893 Y153.685 E.06654
G1 X87.288 Y152.452 E.06347
G1 X86.45 Y151.774 E.03379
G1 X85.643 Y151.097 E.03304
G1 X84.103 Y149.737 E.06439
G1 X83.328 Y149.016 E.03322
G1 X81.872 Y147.591 E.06387
G1 X80.452 Y146.102 E.06451
G1 X79.74 Y145.318 E.03322
G1 X78.4 Y143.761 E.06439
G1 X77.73 Y142.941 E.03322
G1 X76.472 Y141.318 E.06439
G1 X75.847 Y140.468 E.03307
G1 X75.225 Y139.589 E.03376
G1 X74.1 Y137.912 E.06332
G1 X73.515 Y136.989 E.03428
G1 X72.475 Y135.251 E.06348
G1 X71.449 Y133.394 E.06654
G1 X70.531 Y131.591 E.06344
G1 X70.074 Y130.636 E.03319
G1 X69.237 Y128.759 E.06442
G1 X68.83 Y127.781 E.03322
G1 X68.091 Y125.865 E.06439
G1 X67.737 Y124.873 E.03304
G1 X67.393 Y123.852 E.03379
G1 X66.797 Y121.922 E.06332
G1 X66.501 Y120.87 E.03428
G1 X66.003 Y118.907 E.06348
G1 X65.553 Y116.833 E.06654
G1 X65.191 Y114.842 E.06345
G1 X65.026 Y113.782 E.03366
G1 X64.882 Y112.734 E.03317
G1 X64.654 Y110.693 E.06439
G1 X64.564 Y109.637 E.03322
G1 X64.442 Y107.586 E.06441
G1 X64.406 Y106.528 E.03318
G1 X64.388 Y104.504 E.06347
G1 X64.441 Y102.435 E.06489
G1 X64.495 Y101.377 E.03324
G1 X64.652 Y99.329 E.06439
G1 X64.76 Y98.281 E.03304
G1 X64.889 Y97.211 E.03379
G1 X65.183 Y95.208 E.06347
G1 X65.562 Y93.12 E.06653
G1 X65.992 Y91.143 E.06344
G1 X66.246 Y90.1 E.03367
G1 X66.516 Y89.076 E.03317
G1 X67.088 Y87.104 E.06439
G1 X67.41 Y86.095 E.03322
G1 X68.083 Y84.158 E.0643
G1 X68.817 Y82.251 E.06405
G1 X69.224 Y81.272 E.03324
G1 X70.06 Y79.397 E.06439
G1 X70.515 Y78.44 E.03322
G1 X71.446 Y76.61 E.06437
G1 X71.951 Y75.678 E.03324
G1 X72.975 Y73.898 E.06439
G1 X73.524 Y72.997 E.03307
G1 X74.1 Y72.088 E.03376
G1 X75.225 Y70.411 E.06332
G1 X75.857 Y69.518 E.03428
G1 X77.069 Y67.897 E.06347
G1 X78.347 Y66.304 E.06403
M204 P1000
G1 X78.641 Y66.54 F10800
M204 P800
G1 F1200
G1 X80.002 Y64.956 E.06548
G1 X80.712 Y64.172 E.03317
G1 X81.432 Y63.404 E.033
G1 X82.85 Y61.968 E.0633
G1 X84.378 Y60.523 E.06593
G1 X85.89 Y59.187 E.06327
G1 X86.707 Y58.502 E.03341
G1 X87.519 Y57.845 E.03276
G1 X89.14 Y56.601 E.06408
G1 X89.99 Y55.983 E.03292
G1 X91.685 Y54.816 E.06453
G1 X93.384 Y53.728 E.06328
G1 X94.293 Y53.179 E.03329
G1 X95.2 Y52.652 E.0329
G1 X96.993 Y51.671 E.06408
G1 X97.927 Y51.191 E.03292
G1 X99.768 Y50.303 E.06408
G1 X100.725 Y49.872 E.03291
G1 X102.586 Y49.09 E.0633
G1 X104.551 Y48.341 E.06593
G1 X106.461 Y47.688 E.06328
G1 X107.49 Y47.365 E.03383
G1 X109.427 Y46.812 E.06315
G1 X110.444 Y46.55 E.03293
G1 X112.435 Y46.09 E.06408
G1 X113.479 Y45.876 E.03341
G1 X114.506 Y45.686 E.03276
G1 X116.525 Y45.364 E.06409
G1 X117.565 Y45.225 E.03291
G1 X119.598 Y45.007 E.06409
G1 X120.644 Y44.922 E.03291
G1 X122.685 Y44.809 E.06408
G1 X123.729 Y44.778 E.03277
G1 X125.27 Y44.767 E.04831
G1 X126.783 Y44.791 E.04746
G1 X127.828 Y44.831 E.03279
G1 X129.868 Y44.962 E.06408
G1 X130.923 Y45.057 E.03322
G1 X132.944 Y45.291 E.06378
G1 X133.982 Y45.438 E.03286
G1 X135.031 Y45.606 E.03331
G1 X137.025 Y45.977 E.06362
G1 X138.067 Y46.199 E.03337
G1 X140.03 Y46.67 E.0633
G1 X142.056 Y47.23 E.06592
G1 X143.981 Y47.834 E.06326
G1 X144.975 Y48.173 E.03293
G1 X146.891 Y48.884 E.06407
G1 X147.893 Y49.285 E.03385
G1 X149.744 Y50.082 E.06317
G1 X150.697 Y50.521 E.03291
G1 X152.53 Y51.425 E.06409
G1 X153.468 Y51.917 E.0332
G1 X154.39 Y52.422 E.03297
G1 X156.157 Y53.449 E.06409
G1 X157.051 Y54 E.03291
G1 X158.738 Y55.101 E.06317
G1 X159.627 Y55.713 E.03382
G1 X161.259 Y56.901 E.0633
G1 X162.915 Y58.196 E.06592
G1 X164.462 Y59.492 E.06328
G1 X165.249 Y60.187 E.03291
G1 X166.746 Y61.578 E.06409
G1 X167.517 Y62.333 E.03383
G1 X168.92 Y63.778 E.06315
G1 X169.638 Y64.557 E.03322
G1 X170.337 Y65.343 E.03297
G1 X171.657 Y66.903 E.06408
G1 X172.314 Y67.723 E.03292
G1 X173.551 Y69.349 E.06408
G1 X174.165 Y70.201 E.03291
G1 X175.301 Y71.864 E.06316
G1 X175.887 Y72.771 E.03384
G1 X176.938 Y74.494 E.0633
G1 X177.971 Y76.325 E.06591
G1 X178.902 Y78.116 E.06329
G1 X179.362 Y79.059 E.03291
G1 X180.211 Y80.918 E.06406
G1 X180.622 Y81.884 E.03294
G1 X181.375 Y83.785 E.06408
G1 X181.736 Y84.77 E.03289
G1 X182.083 Y85.773 E.03328
G1 X182.697 Y87.702 E.06349
G1 X183.253 Y89.677 E.06433
G1 X183.51 Y90.69 E.03276
G1 X183.754 Y91.727 E.03341
G1 X184.166 Y93.704 E.0633
G1 X184.522 Y95.761 E.06545
G1 X184.673 Y96.8 E.03292
G1 X184.919 Y98.84 E.06443
G1 X185.093 Y100.881 E.06423
G1 X185.198 Y102.918 E.06395
G1 X185.234 Y105.006 E.06549
G1 X185.225 Y106.056 E.03291
G1 X185.155 Y108.098 E.06406
G1 X185.091 Y109.146 E.03292
G1 X184.916 Y111.182 E.06408
G1 X184.799 Y112.225 E.03292
G1 X184.52 Y114.25 E.0641
G1 X184.35 Y115.286 E.0329
G1 X183.972 Y117.269 E.06329
G1 X183.508 Y119.319 E.06591
G1 X182.995 Y121.271 E.06328
G1 X182.694 Y122.308 E.03385
G1 X182.083 Y124.227 E.06317
G1 X181.74 Y125.219 E.03291
G1 X181.021 Y127.133 E.06409
G1 X180.626 Y128.108 E.03299
G1 X180.211 Y129.082 E.0332
G1 X179.362 Y130.941 E.06406
G1 X178.902 Y131.884 E.03291
G1 X177.973 Y133.671 E.06316
G1 X177.451 Y134.616 E.03384
G1 X176.428 Y136.358 E.06332
G1 X175.311 Y138.12 E.06543
G1 X174.727 Y138.991 E.03289
G1 X173.545 Y140.66 E.06411
G1 X172.915 Y141.501 E.03294
G1 X171.65 Y143.105 E.06406
G1 X170.979 Y143.911 E.03289
